P2
# 8-bit pgm - grayscale
320 240
255
194 194 195 197 198 194 194 195  91  93 196 193  95 200 200 199 196 197 200 202 203 200 200 200
196 197 202 201 200 205 204 202 207 207 206 204 203 203 206 209 209 209 208 208 209 212 210 208
211 212 216 216 215 216 215 213 219 219 218 219 220 220 221 223  71  71  70  72  73  75  75  76
 78  78  81  81  82  87  87  86  90  90  89  95 194  94 192 195  95 193 199 199 199 200 202 204
205 205 203 206 207 203 203 204 208 208 208 208 207 207 207 208 211 211 210 212 213 211 213 215
211 211 213 216 217 219 218 217 217 218 222 222 221 219 221 223 222 221 218 221 222 221 221 220
222 222 222 222 222 222 222 222 221 221  96 223 222  97 223 221 223 223 223  96  97 223  96  97
222 222 223 223  96  98  96 222 223 223 222  97  99 222 223  96 220 220 222 223  96  96  96  96
222 222 220 220 221 220 220 219 219 219 218 217 216 220 219 218 218 218 217 218 219 220 220 219
215 215 215 215 215 215 215 215 215 215 214 212 211 211 211 211 209 209 210 210 210 207 207 208
208 208 209 208 207 206 207 208 202 202 202 203 204 202 202 201 201 201 200 201 202 203 201 199
201 201 200 200 200 199 199 199 195 195 195 197 198  95 194 197 192 192 193 193 193 192 192  95
 95  95  93  92  91  93  91  89  89  89  89  88  87  89  90  91  89  89  88  89  90  89  87  85
 87  87  87  85  84  81  80  79
194 195 199 200 194 193 193 192  95 192 198 193 196 196 197 197 197 195 198 201 200 203 200 198
200 202 201 201 202 201 203 205 204 205 203 203 200 204 211 213 198 203 207 210 210 209 209 210
210 210 213 212 212 216 213 215 218 220 220 221  64  65  66  67  74  80  89  93  89  91 199 199
195 205 206 210 213 214 214 212 218 214 216 217 215 213 216 219 213 102  96 222 220  96  97 221
218 217 219 221 222 222  97  98 102 101 105 100 100  99 104 107 107 106 103 102 102 102 103 104
106 110 109 110 106 105 104 106 111 112 111 109 110 112 114 117 109 111 110 113 111 110 110 111
112 110 110 111 112 113 113 114 119 117 118 117 115 115 111 110 110 111 112 111 112 114 114 113
112 113 114 116 115 114 113 113 112 113 113 115 113 111 110 110 111 110 111 111 113 115 114 117
113 114 112 110 110 109 109 109 108 109 109 109 107 109 108 107 106 106 106 111 109 110 106 105
104 106 106 105 101 101 102 107 113 107 101  98  98  98  98  98  98  97  97  96  96  96  97  96
 96 222 223 223 223  97 222 221 221 222 223 222 220 220 221 221 219 220 221 222 220 219 216 216
214 215 215 215 217 216 215 215 213 213 213 211 211 212 212 212 213 214 211 207 208 208 207 209
211 219 212 208 205 203 204 204 203 203 203 204 203 204 201 201 200 209 214 214 205 199 199 199
200 199 197 196 197 195 194  95
200 197 200 194 195 194 195 195 195 194 198 198 195 196 195 196 194 192 195 199 201 204 201 199
197 199 201 202 201 201 202 206 205 205 205 203 202 205 208 213 206 205 206 207 206 210 210 211
211 211 213 213 212 212 217 217 219 220 221 223  67  66  66  67  72  76  80  81  85  86  90  90
 89  95 192 193 196 198 199 200 206 207 208 209 211 214 216 218 220  98  97  99 101  97  97  96
 99 100 101 102 104 103 104 104 104 104 101 105 106 110 108 105 104 107 111 111 111 110 110 110
113 113 115 114 113 115 116 117 116 116 118 121 122 118 117 114 122 121 122 121 118 124 124 124
123 124 126 125 125 125 125 124 119 118 118 120 121 122 121 120 122 123 127 125 123 121 123 124
126 126 125 124 123 126 126 127 127 127 125 123 121 122 124 127 226 224 123 123 122 119 118 118
121 122 125 124 123 122 123 125 123 123 123 122 121 118 118 119 118 118 117 114 112 112 114 116
116 117 117 115 114 114 112 109 106 106 109 111 111 112 112 113 111 109 107 107 107 105 105 104
101 102 103 103 103 101 102 103 107 107 105 105 104 103 103 103 105 107 106 105 105 109 107 105
102 102 103 100  99 100 103 106 104 101 223 222 222 220 221 221 223 223 221 219 218 218 216 216
214 215 216 215 215 215 216 218 217 216 218 220 220 214 212 211 209 208 206 205 204 208 214 217
209 208 209 213 213 210 206 202
199 196 201 197 196 196 196 197 197 199 200 198 198 198 197 196 195 197 198 201 202 202 201 200
198 204 203 203 203 204 205 207 205 205 205 204 203 207 208 209 206 210 210 209 209 210 213 214
214 213 213 213 213 215 217 219 220 221 222  65  68  67  67  69  74  76  81  82  86  87  89  90
 94 192 194 196 199 200 202 203 207 208 210 211 213 214 216 216 219 219 221 222  96  96  96  96
 97  98  98  99 100 100 101 101 102 102 102 103 105 106 105 104 105 106 107 107 107 107 108 108
109 110 111 112 112 113 114 114 114 114 115 115 116 116 116 116 118 118 118 118 116 117 118 118
118 118 118 119 119 119 119 119 118 118 118 118 118 119 118 118 118 119 119 119 119 119 120 120
120 120 119 120 119 120 120 120 120 120 121 121 120 119 119 119 119 119 119 119 119 119 117 116
117 118 118 118 117 116 116 117 116 116 115 115 115 115 115 115 114 114 114 114 113 114 113 113
112 113 112 111 110 110 110 109 108 108 108 107 107 107 106 106 105 105 104 104 104 103 103 104
103 102 102 101 101 101 100 100 100 100 100 100 100  99  99  99  98 100 100  99  99  99  98  98
 96  96  96  96  96  96 223 223 223 222 221 220 220 219 219 218 218 219 218 217 215 215 214 215
215 215 215 214 213 213 212 212 211 211 211 211 211 210 209 208 208 208 208 207 207 207 208 209
206 205 205 205 204 203 203 202
197 195 199 200 199 198 198 198 199 202 203 200 199 199 198 198 197 199 200 201 203 203 202 202
203 207 204 203 204 205 206 206 206 206 205 205 205 210 206 205 205 207 210 210 210 212 214 214
215 215 214 212 220 219 219 220 221 221 223  66  66  69  67  69  75  78  83  84  86  87  89  90
 95 193 195 199 201 202 203 204 207 209 211 213 215 215 216 217 218 218 221 222  96  96  97  97
 98  98  98  99 101 101 101 101 102 103 103 104 106 107 106 105 105 106 106 106 107 107 108 108
110 110 111 112 112 113 114 114 113 114 115 116 116 116 116 116 117 118 118 118 116 117 118 118
118 118 119 120 120 119 119 119 118 118 118 119 119 120 119 119 119 119 120 120 119 119 120 121
120 120 119 120 120 120 120 120 120 120 120 120 120 120 120 120 119 119 119 119 119 118 118 117
117 118 118 118 117 117 116 117 116 116 116 116 115 115 115 116 115 115 114 114 114 115 113 113
113 113 112 111 110 110 110 110 109 108 108 108 108 108 107 105 105 105 105 105 103 103 103 104
104 103 102 101 102 101 101 101 100 100 100 100 101  99  99  99  99 100  99  98  99  99  99  98
 96  96  96  96 223  96  96  96 223 222 222 221 220 220 219 218 218 219 218 218 216 216 215 215
215 215 216 216 215 214 213 213 211 210 210 211 211 210 210 209 209 208 208 207 208 208 208 208
206 205 206 205 204 202 202 202
196 196 197 196 196 196 196 197 199 199 199 200 200 200 201 201 200 198 203 203 203 204 203 204
206 204 204 203 205 206 205 206 206 208 208 208 207 210 207 207 214 211 209 209 207 214 213 213
215 215 214 211 222 220 220 221 221 221  64  65 221  76  67  68  84  81  84  85  87  89  90  93
 95 194 196 199 202 202 204 206 208 210 213 214 215 217 218 218 218 219 220 222 223  96  98  99
100 100 100 100 102 102 102 101 103 104 104 105 106 107 106 106 106 107 106 105 108 108 109 109
110 111 111 111 112 114 114 114 114 115 116 116 117 117 117 117 118 118 117 118 117 118 118 119
119 119 119 120 121 119 119 118 119 120 120 120 120 120 120 120 119 119 120 121 121 121 121 121
121 121 121 121 120 120 120 120 120 121 121 120 120 120 121 121 120 119 119 120 120 120 119 118
118 119 119 119 118 118 117 117 117 116 116 116 116 116 115 115 116 116 116 115 115 115 114 114
113 112 112 111 111 111 111 111 110 109 109 108 107 107 107 107 107 106 106 106 104 105 105 105
105 104 103 102 103 102 102 102 100 100 100 100 101 100 100 100 100 100 100  99  99  99  99  99
 98  97  96  96 223  96  97  97 223 222 222 222 221 220 220 219 218 218 219 219 218 217 216 216
216 217 217 217 216 215 214 213 211 211 211 211 210 210 210 209 209 208 208 208 208 208 208 207
207 206 205 204 204 203 203 202
194 195 195 194 197 198 197 198 198 196 197 197 198 198 200 200 199 200 203 203 202 203 203 204
205 206 203 203 205 206 205 205 206 207 208 209 211 205 208 209 207 209 208 207 206 213 213 214
214 215 214 213 218 218 219 220 219 222 222  64 222  72  68  67  83  81  85  86  88  89  90  93
 94 194 197 198 198 200 203 207 209 210 212 214 216 217 218 218 218 220 222 223  96  97  98  98
100 100  99  99 102 102 101 101 103 104 105 106 105 105 105 105 105 106 107 108 108 109 109 111
112 112 112 112 112 113 113 113 113 115 115 116 117 117 117 118 118 117 116 117 117 118 118 119
118 118 118 119 119 119 119 119 119 120 120 120 121 121 120 120 120 120 120 121 121 121 120 120
120 121 121 121 121 121 120 120 120 121 120 121 120 120 120 120 119 119 119 120 120 120 119 118
118 119 119 119 118 118 118 117 116 116 115 115 116 116 115 116 115 115 116 115 115 114 113 113
113 112 112 111 111 111 111 110 110 110 109 108 107 106 106 107 106 105 105 105 104 104 104 105
105 104 103 102 102 102 102 102 100 100 100 100 100 100 100 100 101 100 100  99  98  98  98  99
 99  98  97  96 223  96  96  96 223 222 221 220 220 220 218 217 218 218 219 219 218 217 217 216
216 216 217 216 215 213 214 213 212 211 211 211 210 209 209 209 208 207 207 207 207 207 207 207
207 206 206 205 205 203 202 201
192 195 195 194 199 199 199 199 198 196 196 197 198 199 201 200 199 199 200 201 202 202 203 204
202 203 204 203 205 206 205 205 207 207 206 204 203 206 209 208 208 209 209 206 208 210 211 212
213 211 214 218 215 217 216 217 216 219 223 223 219  69  70  69  81  80  84  86  88  89  91  93
 95 194 196 197 198 200 203 207 209 210 212 214 216 217 217 218 219 220 222 223  96  97  98  98
100 100  99 100 101 101 102 102 104 106 106 106 105 105 106 106 106 107 108 109 110 111 110 111
112 112 112 112 113 114 113 113 113 115 116 117 117 118 118 119 118 118 117 117 117 118 119 119
118 119 119 119 119 119 119 119 119 120 120 120 120 120 120 121 120 120 119 120 121 121 121 120
121 121 121 121 121 121 120 120 121 122 122 122 120 120 120 120 120 120 119 120 120 120 119 119
118 118 118 118 118 118 118 117 116 116 116 116 116 116 115 115 115 115 116 115 114 114 114 113
113 112 112 111 112 112 111 110 110 110 109 108 107 107 107 107 107 106 105 106 105 105 105 105
105 104 103 103 103 103 103 102 101 101 100 101 101 101 101 101 101 100 100  99  98  98  98  99
 98  98  97  96 223  96  96  96 222 222 221 220 220 220 219 218 216 217 219 219 218 217 218 217
216 215 216 215 214 213 214 213 212 211 212 211 209 209 209 209 208 207 207 207 206 207 207 207
207 206 207 206 206 204 202 200
197 195 195 194 200 198 199 197 196 195 196 197 196 198 199 199 198 199 200 201 202 203 203 203
207 207 208 206 204 205 206 206 206 206 206 206 205 206 209 208 210 210 208 205 209 211 212 213
212 213 215 215 217 217 217 219 223  64 223 220  65  68  70  71  76  76  83  86  89  89  92  93
 95 195 195 197 199 201 204 206 209 210 212 213 216 217 217 219 220 221 223 223  97  98  98  97
 99 100 100 100 100 101 102 103 104 105 106 106 106 105 106 106 106 107 108 109 110 110 111 112
113 112 112 112 113 114 113 113 114 115 115 116 117 118 118 119 118 119 118 118 118 119 119 120
119 119 119 120 120 120 120 120 120 120 120 120 120 120 121 122 121 121 120 121 121 122 121 121
122 122 121 121 121 122 120 120 121 122 122 122 120 120 121 121 121 120 120 120 120 121 120 120
119 118 119 119 119 118 118 117 117 116 116 116 115 115 115 116 116 116 116 115 115 114 114 114
113 113 113 112 113 112 111 110 109 109 110 109 108 107 108 108 107 107 106 106 106 105 105 105
106 104 104 103 103 103 103 102 101 101 101 101 101 101 102 101 101 100 101 100  99  99  99  99
 98  98  97  97  96  96  96  96 222 222 222 221 220 220 219 219 217 218 219 219 218 218 218 217
216 214 215 214 213 213 213 213 212 211 212 211 209 208 209 210 209 208 207 207 206 206 206 207
206 207 207 206 205 204 202 204
197 195 194 195 197 197 196 195 194 196 197 196 197 198 198 198 197 199 200 201 201 202 202 205
205 204 206 207 204 204 206 205 205 203 203 205 207 206 208 209 209 211 209 206 209 211 212 213
212 215 215 214 216 216 218 221  66  67  64 219  67  68  70  72  74  75  83  86  89  90  92  92
 95 196 196 197 200 201 204 207 209 210 212 213 217 217 218 219 221 222 223  96  98  98  98  97
 99 100 100 101 100 101 102 103 103 104 105 106 106 106 106 107 108 108 108 109 110 111 111 112
113 112 112 111 113 114 113 113 114 116 116 117 117 118 119 120 119 119 118 119 119 120 120 120
119 120 119 120 120 121 121 121 121 121 121 120 121 121 121 122 122 121 122 122 122 122 122 122
122 122 121 121 121 122 121 121 122 122 122 121 120 120 121 121 122 120 120 120 121 121 121 120
119 118 119 119 118 118 118 118 117 117 117 116 116 116 115 116 115 116 116 116 115 115 114 114
114 113 113 113 112 112 111 110 109 108 109 109 109 109 108 109 108 107 107 107 106 105 106 105
106 105 105 104 104 104 103 103 102 102 102 101 102 102 102 102 102 101 101 100  99  99  98  98
 98  98  98  97  96  97  96  96 222 221 221 221 221 221 220 219 219 219 219 218 218 218 218 217
216 214 215 214 213 213 214 214 212 212 211 211 209 208 209 209 209 208 208 207 206 207 205 206
206 206 206 205 205 204 203 204
198 197 196 196 195 195 195 194 196 194 195 196 198 200 197 197 200 201 201 201 201 200 205 206
202 203 204 205 204 205 205 205 205 203 202 205 207 208 207 208 210 208 209 210 211 212 212 213
215 214 215 217 218 217 215 217 218 220 223 223  67  70  73  72  73  76  84  87  88  91 192 194
 95 196 196 197 199 201 204 205 206 211 213 214 217 217 219 220 221 223 223  96  97  97  98  98
100 101 102 102 102 102 105 105 104 105 106 106 107 107 107 108 109 109 109 110 111 111 111 113
114 113 113 112 113 114 113 114 115 117 117 117 117 118 119 119 120 119 120 120 121 121 121 121
120 121 121 121 121 122 123 123 123 122 122 122 123 123 123 123 124 124 123 123 123 123 123 123
124 124 123 123 123 123 122 122 122 122 122 122 121 122 122 123 123 121 121 120 121 121 121 121
120 120 120 120 119 119 119 119 118 118 117 117 117 117 117 117 117 117 117 117 116 115 115 115
114 115 115 114 113 112 113 112 111 109 109 110 110 110 108 109 108 108 109 108 107 106 106 106
105 104 105 104 105 105 104 104 102 102 102 102 103 102 103 103 103 102 101 101 100 100 100  99
 98  98  98  98  97  97  97  96 223 222 221 222 222 222 220 220 221 220 220 219 220 219 218 216
216 215 215 215 214 215 214 213 213 213 213 212 209 209 209 209 209 208 207 206 206 208 207 207
206 206 206 205 205 204 202 201
201 197 194 193 193 194 194 195 195 196 196 197 199 199 200 200 201 201 201 200 198 200 210 199
199 197 200 200 203 204 204 204 206 205 203 205 207 206 207 207 209 208 208 209 211 210 209 212
213 214 213 215 216 215 215 217 219 220 222 223  64  70  72  74  73  75  84  87  88  90  95 192
193 196 197 197 198 200 202 206 207 210 212 213 216 217 219 220 220 223  96  96  96  96  98  98
100 101 102 102 102 103 105 105 104 105 105 106 108 108 108 108 109 109 109 110 111 111 111 111
113 113 114 114 114 113 113 113 115 117 117 117 117 118 119 119 119 119 120 120 120 120 121 121
120 121 121 121 122 122 123 123 123 123 123 122 123 123 123 123 124 124 124 124 123 123 123 123
124 124 124 124 123 123 123 122 122 122 122 122 122 122 122 122 123 122 121 121 121 121 121 121
120 120 120 120 119 119 119 119 119 118 118 118 118 118 118 118 117 117 117 117 116 115 115 115
114 114 114 114 113 111 112 111 111 110 110 110 110 110 109 108 108 108 107 107 107 107 107 106
105 105 104 103 104 104 104 104 102 102 102 103 102 102 103 103 102 102 101 100 100 100 100  99
 97  97  97  98  97  97  97  96  96 222 222 222 222 222 222 221 221 220 220 219 219 219 218 218
217 216 215 214 214 214 214 213 212 211 211 211 209 209 209 208 207 207 207 206 206 207 206 206
206 206 205 204 204 204 203 201
199 197 195 193 193 194 194 195 197 198 198 200 195 198 200 200 201 200 200 199 198 199 206 199
198 198 203 202 202 204 204 204 204 203 204 205 207 207 206 207 209 208 208 209 209 209 208 211
212 214 213 213 213 215 217 217 219 221 222 223  66  69  71  70  76  78  82  90  89  88  91  95
193 194 196 197 199 201 202 206 208 208 211 213 217 218 219 220 222 222  96  97  97  98  98  98
100 101 102 102 103 104 105 106 105 105 106 106 107 108 108 108 109 109 110 110 110 110 111 111
113 114 115 115 115 114 114 114 116 116 116 116 117 118 119 119 119 119 120 121 120 120 121 121
121 121 121 121 122 122 123 123 123 122 122 123 124 123 123 123 124 124 124 123 123 123 124 123
125 125 125 124 123 123 123 123 122 123 123 123 123 123 122 122 123 123 122 121 121 121 121 121
120 121 120 120 120 119 119 119 119 119 119 119 118 118 118 118 117 117 117 117 116 116 116 116
115 115 115 114 114 112 112 111 111 111 111 110 110 110 109 109 108 108 108 107 108 108 108 107
105 104 104 104 105 105 104 104 103 103 103 104 103 103 103 103 102 102 102 102 101 101 100  99
 98  98  98  98  98  98  98  97  96 223 223 222 222 222 223 222 222 221 220 219 219 219 218 218
217 216 215 214 214 214 214 213 212 211 211 211 210 210 209 208 208 208 207 206 206 207 207 207
206 205 205 204 204 204 203 203
198 196 194 194 194 194 195 195 198 199 198 196 200 198 200 200 200 199 199 200 199 199 200 207
211 217 208 201 201 204 204 203 203 204 205 205 207 207 207 208 210 208 209 209 208 208 207 212
213 214 214 213 213 216 218 216 221 220 221 223  66  69  72  70  86  82  82  81  89  89  90  94
193 193 195 196 199 201 203 206 207 209 210 213 216 218 220 221 222 223  97  98  98  99  99  99
101 101 102 103 104 104 105 106 106 106 106 106 108 108 108 108 109 109 110 110 111 110 110 112
113 114 114 114 115 114 114 114 115 115 116 117 118 117 118 118 119 119 119 120 121 121 121 121
121 122 122 122 122 122 123 123 123 122 123 124 124 124 124 123 124 124 124 123 124 124 125 124
124 124 124 124 124 124 124 124 123 123 123 124 124 123 123 123 123 123 122 122 122 122 121 121
121 120 120 120 120 119 119 119 120 120 120 119 119 119 118 118 117 118 118 117 116 117 116 117
116 116 115 114 113 113 112 112 111 111 110 110 109 109 109 110 109 109 108 107 108 108 108 107
106 105 105 105 105 105 104 104 104 103 103 104 104 104 104 103 102 102 102 101 101 101 101 100
 99  99  99  99  99  98  98  98  97  96  96 223 223 222 223 223 221 220 220 219 219 218 218 218
217 217 215 214 214 214 213 213 212 211 211 211 211 209 208 208 209 209 207 207 206 206 206 207
206 204 204 204 203 203 203 202
194 192 195 197 198 196 195 194 197 199 198 197 201 202 200 199 199 198 199 203 198 199 200 200
201 195 198 201 202 204 205 205 207 207 207 208 208 207 209 210 210 210 210 211 211 211 212 218
216 217 212 213 221 216 218  67 201 222 223 222  65  70  72  71  82  83  82  81  87  91  92  94
193 193  95  95 199 201 204 207 208 210 212 214 217 219 220 221 223 223  97  98  99  99 100 100
102 102 103 103 104 104 106 106 106 106 107 107 108 109 109 110 110 111 111 112 112 112 113 114
115 115 115 115 116 115 116 116 117 118 119 118 118 118 119 118 119 120 120 121 122 123 122 121
122 123 123 123 123 123 123 124 123 124 124 124 125 125 125 124 125 125 125 125 125 126 126 127
126 127 126 125 125 125 126 126 125 124 124 124 125 125 124 124 123 123 123 124 123 123 123 122
121 121 121 121 121 121 120 120 120 120 120 120 120 120 119 119 118 118 119 119 118 118 118 118
117 117 115 115 115 115 114 113 113 113 111 111 111 111 111 111 111 110 110 110 110 110 109 108
107 106 106 106 107 106 105 105 105 105 105 105 105 105 104 104 103 104 103 102 101 101 101 101
101 100 100  99 100  99  99  99  97  97  97  96 223 223 222 222 221 221 220 220 220 220 219 219
218 218 217 216 215 215 215 214 213 211 212 212 212 211 209 210 211 210 208 206 206 206 207 206
206 205 205 205 204 204 204 205
193 193 195 197 198 196 196 198 199 199 195 196 194 196 197 199 200 202 199 196 200 199 199 200
203 202 203 203 203 203 203 205 204 207 207 207 206 207 209 210 209 210 210 211 211 211 212 217
216 216 215 219 216 217 221  66 208 223 223 222  66  69  73  75  83  81  82  84  86  95  94  94
193 196 195 196 203 201 204 207 209 211 213 215 217 219 220 221 223  96  97  97 100 100 101 101
103 103 104 104 104 105 105 106 107 107 107 108 109 109 110 110 111 111 111 112 112 112 113 114
115 115 115 116 117 116 116 116 118 119 119 118 118 118 119 118 120 120 121 122 123 123 122 122
123 123 123 124 123 123 123 124 124 125 125 126 125 125 126 125 125 125 125 125 126 127 127 127
126 127 127 126 125 125 126 126 126 125 125 125 125 125 125 125 124 124 124 124 124 123 123 122
122 121 122 122 122 121 120 120 120 120 120 120 120 121 120 119 118 118 119 119 119 118 117 118
117 117 116 116 115 115 114 114 113 113 113 113 111 111 110 110 111 111 111 110 110 110 109 108
107 107 107 106 107 106 106 106 106 106 105 105 104 104 104 104 104 102 101 101 100 100 101 101
100  99  99  99 100  99  99  98  98  97  96  96 223 223 222 221 221 221 220 221 220 219 219 219
218 218 217 216 215 215 214 213 212 211 212 211 211 210 209 209 210 211 208 206 205 205 206 206
207 206 205 205 205 204 204 205
193 192 194 197 198 195 195 197 198 197 196 197 197 198 198 199 201 201 200 200 199 200 200 201
204 203 203 203 203 203 202 202 206 207 207 208 209 209 210 209 208 208 211 212 212 212 212 215
216 217 217 218 218 217 217 218  65  66  65  66  67  68  73  77  81  82  83  85  89  95  95 192
194 195 198 200 201 203 205 208 209 212 215 217 219 219 220 221 223 223  96  97  99 100 101 101
102 104 105 104 104 105 105 107 107 108 108 108 109 109 111 111 112 112 112 113 113 113 114 115
115 115 115 116 118 118 118 118 119 119 120 120 119 119 120 120 120 121 121 122 122 123 123 123
122 123 123 124 124 124 124 125 125 125 125 126 126 126 126 126 126 126 125 126 127 127 127 127
127 127 127 126 126 126 127 127 126 126 126 126 126 126 125 126 125 125 125 124 124 124 124 124
122 122 122 122 123 123 122 121 120 120 120 120 120 121 120 120 119 119 119 120 119 119 118 118
118 118 116 116 116 116 115 115 114 115 115 115 113 112 111 111 112 112 112 112 112 112 111 110
108 107 107 107 108 107 106 106 106 107 106 105 105 105 105 105 104 103 102 101 100 100 100 101
101 100 100  99 100  99  99  99  99  98  97  97  96 223 223 222 222 221 221 221 220 220 220 219
219 217 217 216 215 215 214 213 212 212 211 212 212 211 210 210 210 210 208 207 206 206 206 205
207 205 205 206 206 206 205 205
194 193 196 198 196 196 194 195 196 196 196 198 198 198 198 199 200 202 200 201 200 200 200 200
203 204 204 202 204 204 202 202 206 208 208 209 208 209 208 208 207 208 211 212 212 213 213 214
216 218 218 217 219 219 219 221 221  65  66  67  67  68  74  76  80  82  84  85  90  95 192 193
194 196 198 201 202 203 206 209 210 213 215 217 219 220 221 222 223 222  97  98  98 100 102 102
103 103 104 104 105 106 105 107 108 108 109 109 110 110 111 112 112 112 112 113 113 114 114 115
115 115 116 117 117 117 118 118 119 119 120 121 120 120 120 120 120 121 122 123 123 123 123 123
123 123 124 124 125 125 125 125 125 126 126 126 126 126 126 126 126 127 126 126 127 127 127 224
224 224 224 127 127 127 127 126 127 127 127 127 126 126 126 127 126 125 125 125 124 124 124 124
123 123 122 122 123 123 122 121 121 121 121 121 120 121 120 120 119 120 120 120 119 118 118 118
118 118 117 116 116 116 115 115 115 114 114 115 113 112 111 111 112 112 113 113 113 112 112 111
109 108 107 107 108 107 106 106 107 107 106 105 105 104 105 105 105 104 103 102 101 101 101 102
101 100 100 100 100  99  99  99  99  98  97  97  96 223 223 223 222 222 222 221 220 220 220 219
219 217 217 216 215 215 215 214 212 211 212 212 212 211 210 209 209 210 209 207 206 206 206 206
207 205 205 205 206 206 205 205
194 195 197 198 196 198 195 193 196 197 197 198 199 199 199 200 200 201 201 201 201 201 201 201
203 205 204 201 204 204 201 203 205 207 207 208 207 206 207 207 208 209 211 212 212 213 212 209
212 215 218 217 218 218 219 220 222  64  66  67  67  68  75  77  81  83  84  85  87  95 192 193
195 196 197 200 202 204 206 209 211 214 216 216 219 219 221 222 223 222  97  98  98 100 102 103
102 103 103 104 105 106 106 107 108 108 109 109 110 110 110 111 112 112 112 113 114 115 115 114
115 115 116 116 116 117 117 118 119 119 119 120 120 120 120 120 120 121 121 122 123 123 122 123
123 124 125 125 126 126 126 127 126 126 126 126 126 126 126 127 127 127 127 127 224 224 224 127
224 224 225 224 224 127 127 127 127 127 127 127 126 126 127 224 126 126 125 125 125 125 125 124
124 123 122 122 123 123 122 122 121 121 121 121 121 121 120 120 119 120 120 120 119 119 119 119
119 119 118 117 116 116 116 115 115 114 114 114 113 113 112 112 112 112 113 113 114 113 112 111
110 108 108 108 108 108 106 106 106 106 106 106 106 106 105 105 105 104 104 103 102 102 102 102
102 101 101 100 100 100  99  99  98  97  97  96  96  96  96  96 223 222 222 222 221 220 220 220
219 218 216 215 214 214 214 214 213 212 212 212 211 211 209 208 208 209 209 208 207 207 207 207
206 205 205 205 206 206 204 205
194 198 198 199 199 196 195 196 194 195 196 197 199 199 201 201 201 200 200 201 204 204 204 204
206 205 201 198 207 202 196 204 207 208 206 205 205 205 205 206 210 209 211 212 211 210 210 209
211 214 216 217 217 217 218 219 221 222  65  66  68  72  76  78  82  83  85  86  85  94  95 192
194 196 198 200 202 204 208 210 212 213 214 216 219 219 220 221 223 223  97  97  99  99 101 102
102 102 103 104 106 106 107 108 109 109 110 111 110 111 111 112 114 114 113 114 115 115 115 115
115 116 116 116 116 116 116 117 119 119 120 120 120 121 121 121 122 123 122 123 123 123 123 123
125 125 125 126 127 127 224 224 127 127 127 126 127 127 127 127 224 224 225 225 224 224 224 224
225 225 226 225 225 224 224 225 224 224 224 224 127 127 224 224 126 126 126 126 126 126 125 126
125 124 124 123 124 124 124 123 122 122 123 123 123 122 121 121 120 120 120 120 120 120 120 120
120 120 119 118 118 118 117 117 116 115 115 115 114 113 113 114 112 113 113 113 113 113 112 111
111 110 110 110 109 109 108 107 108 107 107 107 107 107 106 106 106 106 106 105 105 105 104 103
102 102 103 103 102 100 100  99  98  97  97  97  97  97  96 223 222 222 222 223 222 221 220 220
218 216 217 215 214 216 215 216 214 214 213 213 212 212 210 209 209 209 209 208 206 207 207 207
207 207 206 206 206 205 205 205
192 193 197 198 200 194 195 195 194 194 196 196 199 199 200 201 199 200 200 199 206 203 203 204
205 205 202 198 206 208 203 210 207 207 207 204 204 203 205 206 210 210 210 211 210 209 211 213
213 214 215 216 218 218 219 219 222  64  65  66  66  73  76  75  85  85  86  87  89  91  94 192
193 196 197 199 201 203 206 208 211 212 213 215 218 219 220 221 223  96  97  98 100 101 101 102
102 103 103 104 106 106 107 108 109 108 109 110 110 110 111 113 114 114 114 114 114 115 115 115
115 116 116 117 117 117 117 117 119 119 120 120 120 121 121 121 122 123 123 123 123 123 124 124
125 126 126 126 126 127 127 127 224 224 127 127 127 224 224 127 224 225 226 225 225 224 225 224
226 226 226 226 226 225 225 226 225 224 224 224 224 224 224 224 126 126 126 126 126 126 126 126
125 124 124 123 124 124 124 123 122 122 123 123 122 122 121 121 120 120 120 121 120 121 121 120
120 120 119 118 118 118 117 117 116 116 115 115 114 114 113 114 112 113 113 114 114 113 112 111
110 110 110 110 110 109 109 108 107 107 107 108 107 107 106 106 106 106 107 106 105 104 104 103
102 102 103 103 101 100  99  99  98  98  98  98  98  97  96  96 223 222 222 223 223 222 221 220
219 217 217 216 215 216 216 216 215 214 213 213 212 212 210 209 209 209 209 208 207 207 207 207
206 206 206 205 206 205 204 203
197 199 198 199 199 196 194 193 199 196 195 196 199 200 201 197 195 196 197 201 206 201 199 203
203 203 202 202 205 204 205 206 207 208 206 205 201 205 206 207 208 210 211 210 211 211 212 213
214 215 216 217 218 219 220 220 221  67  66  68  67  74  78  78  90  87  87  88  91  93  95 193
195 197 199 201 203 203 206 210 212 213 213 216 219 220 222 222 223  96  98  99 100 101 101 101
102 103 103 104 107 107 109 108 110 109 110 110 111 111 112 113 114 114 115 115 115 114 116 116
116 117 117 118 118 119 118 118 120 120 121 122 121 121 122 123 124 124 124 124 124 124 125 125
125 126 126 127 127 127 127 224 224 225 225 224 225 225 225 225 226 226 226 225 225 225 225 225
225 226 226 226 226 226 226 226 226 225 224 224 224 224 224 127 126 127 127 224 127 127 127 127
125 125 125 124 125 125 125 124 124 124 124 124 123 123 122 122 121 121 121 121 120 120 120 120
120 120 120 120 119 119 118 118 117 117 117 116 116 115 114 114 114 114 114 114 113 112 111 111
112 111 111 111 110 111 110 109 108 108 107 108 107 107 106 107 107 106 106 106 106 105 104 103
103 103 104 103 101 100 100  99  98  99  99  99  98  97 223  96 223 223 222 223 221 221 220 220
219 219 219 218 217 217 217 217 216 215 214 213 213 212 211 210 210 209 209 208 207 208 208 208
207 207 206 206 206 205 205 206
200 202 199 200 198 197 197 197 199 197 196 198 199 200 200 199 200 198 200 204 202 206 198 199
201 203 203 204 204 205 206 205 206 207 207 207 205 204 206 207 208 209 210 210 212 212 213 214
215 216 216 217 218 219 220 220 217  67  68  69 222  75  79  79  89  87  87  89  95  95 192 194
197 198 200 201 204 205 208 210 212 214 215 217 219 220 222 222  96  97  98  99 100 101 100 101
103 104 104 105 108 108 109 109 110 110 111 110 111 111 113 113 115 115 115 116 115 115 116 116
116 117 117 118 119 119 119 119 120 121 122 122 121 122 122 123 124 125 125 124 124 125 125 125
126 126 127 127 127 127 224 224 225 225 225 225 226 226 226 226 226 228 227 226 226 226 226 226
226 226 226 226 226 226 226 226 226 225 225 225 225 225 225 224 127 127 224 225 127 127 127 127
126 125 125 125 126 126 126 125 124 124 124 124 124 124 123 122 121 121 121 121 121 121 120 120
121 120 120 120 119 119 119 118 118 118 117 117 116 115 114 115 115 114 114 114 113 112 112 112
112 111 111 111 110 111 110 109 108 108 108 108 107 107 106 107 108 107 106 106 106 106 104 103
103 103 103 102 101 100 100 100  99  99  99  99  98  97  96  96 223 223 223 223 221 221 220 220
220 219 219 218 216 216 216 217 216 215 214 213 213 212 211 210 209 208 209 209 208 208 208 208
207 206 206 206 205 205 207 208
195 195 199 200 198 197 197 198 198 198 198 199 202 199 200 201 200 201 202 199 196 206 199 199
201 205 205 205 206 208 207 206 206 207 208 209 205 205 206 208 208 206 207 209 213 213 214 214
216 217 217 218 220 222 222 221 217  66  70  68  73  77  80  83  84  87  88  89 192 193 195 196
199 201 202 204 206 206 210 212 214 215 216 217 220 222 223  96  97  98  99 101 101 101 101 102
104 105 106 107 108 109 109 110 111 110 111 111 112 113 114 114 115 115 116 116 116 116 116 117
118 117 117 118 120 120 120 120 120 122 122 123 122 123 123 124 124 124 124 124 125 126 127 127
127 224 225 225 225 225 226 226 226 226 226 226 227 227 228 228 228 229 228 228 228 228 228 228
228 227 227 227 227 227 226 226 226 225 225 225 225 225 225 225 224 127 224 224 225 224 224 224
127 126 126 126 127 127 126 126 125 125 125 125 124 124 124 124 122 122 123 123 122 122 122 121
121 121 121 121 120 120 119 119 118 118 118 117 117 117 116 116 116 115 114 114 113 113 112 113
112 113 112 112 111 111 109 109 109 109 108 108 108 107 106 107 108 108 107 107 106 105 105 105
105 104 103 102 101 101 100 100 101 100 100 100  98  98  96  96 222 223 223 223 222 221 221 220
221 219 220 219 217 217 217 218 216 215 214 214 213 212 212 211 209 209 209 209 209 209 209 209
208 207 206 206 205 206 206 206
196 198 198 199 198 197 197 197 200 199 200 200 199 202 200 200 201 202 200 199 201 200 199 202
203 206 204 204 208 206 207 206 205 206 207 208 206 204 207 209 212 213 211 209 212 212 213 213
214 215 216 218 220 221 221 221 218  66  69  69  73  77  80  82  84  87  91  92  94 193 193 195
195 200 201 202 205 207 209 212 214 215 216 217 219 221 222 223  96  97  99 100 100 101 101 101
103 105 105 106 108 109 109 110 111 111 110 111 112 113 114 114 115 115 115 115 115 117 117 118
119 118 117 118 120 120 120 119 119 121 122 122 122 122 123 124 124 124 125 125 126 126 127 127
224 225 225 225 225 226 226 226 227 227 226 227 227 228 228 229 229 229 228 229 229 228 228 228
229 228 228 228 228 228 227 227 226 226 226 226 227 226 225 225 224 224 127 224 224 225 225 224
127 126 127 127 127 127 127 127 126 125 125 125 125 126 125 124 124 123 123 123 123 123 122 122
121 121 121 121 121 120 119 119 118 118 117 117 117 117 117 116 116 115 115 115 114 114 113 113
113 113 112 112 110 110 109 109 109 110 109 109 107 106 106 107 108 108 107 107 106 105 105 105
105 103 103 102 101 100 100 100 100 100  99  99  98  98  97 223 222 223 223 223 221 221 221 220
219 218 218 218 218 218 218 218 217 216 215 214 213 213 212 211 210 210 210 210 210 209 209 209
208 207 206 205 206 206 206 205
197 196 197 198 196 195 195 196 198 198 199 198 200 199 200 200 201 200 200 200 200 200 203 202
203 204 205 206 209 208 204 203 205 206 207 208 207 207 204 210 211 211 211 210 212 212 213 213
213 213 216 218 220 221 221 220 217  67  68  69  73  77  80  80  84  85  92  93  93  95 192 193
195 200 202 203 206 208 209 212 215 215 215 216 219 221 222 223  96  96  98  99 101 101 101 102
103 105 105 106 108 109 109 110 112 112 111 112 113 114 115 114 115 115 116 116 116 117 118 118
119 118 118 119 121 120 120 120 119 120 122 123 122 123 124 124 124 124 125 125 126 126 127 127
224 224 224 225 224 225 225 225 226 226 226 227 227 228 228 229 229 229 229 229 229 228 228 229
229 229 229 229 229 229 227 227 227 226 226 226 227 226 225 225 225 225 224 224 225 226 225 224
127 127 224 224 127 127 127 127 127 126 125 125 126 126 126 125 124 123 123 123 123 123 123 122
121 120 120 121 121 121 119 119 119 119 117 116 117 117 117 117 116 115 115 115 114 114 113 114
113 113 112 112 110 110 109 110 109 110 109 109 108 107 107 107 108 109 108 107 106 105 106 105
105 104 103 104 102 101 100  99  99  99  99  99  98  98  97  96 223 222 223 222 222 221 222 221
220 219 219 218 218 218 217 217 217 216 215 214 213 213 212 211 210 210 210 210 209 209 209 209
209 208 206 205 206 207 207 206
197 197 198 196 193 194 195 196 199 198 198 198 199 199 200 202 201 202 199 200 201 202 202 202
203 204 205 205 204 205 202 203 206 206 207 207 207 205 205 209 211 212 212 212 212 211 212 212
213 214 215 218 220 220 222 223 223 223  66  69  72  77  80  82  84  86  89  92  93  94  95 193
194 198 200 202 208 208 209 212 214 216 216 217 219 220 221 222  96  96  98  99 102 102 102 104
104 105 106 107 108 109 109 110 111 112 112 113 114 115 115 115 114 115 116 117 118 118 118 119
119 119 118 119 120 120 120 120 120 121 122 123 123 123 124 124 125 125 125 125 126 126 127 127
224 225 225 226 225 226 226 227 228 228 227 228 227 228 228 229 230 230 230 230 229 229 229 229
229 229 229 229 229 229 228 227 227 227 227 227 228 227 226 226 225 225 225 225 225 226 225 225
225 224 225 225 225 224 224 224 127 127 126 125 125 126 126 126 125 125 124 124 124 124 123 123
122 121 121 121 121 122 120 120 119 119 118 117 119 119 118 117 117 116 115 116 114 114 114 114
113 112 112 112 111 110 110 110 110 110 109 109 109 108 107 108 108 109 108 107 106 106 106 106
105 104 104 104 103 101 100 100  99  99  99  98  98  98  97  96  96 223 223 222 221 221 221 220
220 218 218 218 219 219 217 217 216 216 215 215 214 214 212 212 210 210 210 210 210 210 210 209
209 207 207 206 206 206 207 208
202 198 198 198 196 195 195 195 199 199 199 198 198 199 200 201 201 202 202 203 202 203 201 202
203 205 205 205 203 200 203 206 207 209 208 209 209 208 207 209 211 211 211 212 213 212 212 213
215 216 216 218 220 221 221 223  65  66  69  74  75  76  82  84  85  86  88  92  94  95 192 193
197 198 200 201 206 210 211 212 215 217 217 218 220 220 220 222  96  98  99 100 101 102 103 104
105 106 107 107 108 108 109 110 111 113 112 113 114 115 115 115 115 116 116 117 119 119 119 120
119 120 119 120 121 121 121 121 120 122 123 124 124 124 124 124 125 125 126 126 127 127 127 127
224 225 226 226 226 226 226 227 228 228 228 229 228 228 228 229 230 231 231 230 230 230 230 230
229 229 230 229 229 229 228 228 228 228 228 228 229 228 226 227 226 226 225 226 227 226 226 226
225 225 226 226 226 225 224 224 224 127 127 127 126 127 126 126 125 125 124 124 124 124 124 124
123 122 122 122 122 122 121 121 119 119 119 118 119 119 118 118 117 117 116 117 115 115 115 114
113 112 112 112 111 111 111 111 111 110 110 110 109 108 108 109 109 109 108 107 106 106 106 106
106 104 104 104 104 103 101 100  99  99  99  98  98  98  98  97  96 223 222 222 221 221 221 221
220 219 219 219 219 219 217 218 216 216 216 215 215 214 213 213 212 211 211 211 210 211 210 209
209 207 207 206 207 207 208 209
201 201 199 198 197 197 197 198 199 200 200 200 200 201 201 201 202 203 204 204 203 202 202 203
204 205 207 208 209 214 212 210 210 208 210 210 211 210 210 210 212 213 214 215 215 216 215 213
215 218 219 219 220 222 222  64  66  69  71  74  77  77  84  87  89  89  90  92  95  94 197 198
198 199 201 201 205 211 212 213 215 217 219 220 221 221 222  96  98  98 103 103 104 104 104 105
105 107 108 109 108 109 110 111 112 113 114 115 115 116 115 115 116 117 118 118 119 120 120 120
121 121 121 122 122 121 122 121 122 123 124 125 125 125 125 125 126 127 127 224 224 224 224 225
226 227 227 227 228 228 228 227 229 230 230 230 229 229 229 230 231 231 231 232 232 232 231 231
230 231 231 231 231 231 230 230 230 230 230 229 229 228 228 228 228 227 227 227 228 228 228 227
226 226 227 227 226 226 225 225 224 225 225 225 224 127 126 126 126 127 126 126 125 125 125 125
124 124 124 124 123 124 123 122 120 120 120 119 119 119 119 118 118 118 117 117 116 116 116 115
114 114 114 113 113 112 112 111 111 110 110 110 110 110 109 109 109 109 109 108 107 107 107 107
106 105 105 105 104 104 104 102 100  99  99  99  98  98  97  97  96  96  96 223 222 222 221 222
220 219 220 219 220 221 219 219 216 216 216 215 215 215 215 214 213 213 212 212 211 212 211 210
209 208 207 207 208 207 208 208
200 198 200 200 198 197 197 196 196 201 200 200 199 200 200 200 200 201 205 203 201 201 202 203
203 206 209 208 205 211 210 210 209 210 209 209 209 210 210 210 211 213 213 213 214 215 216 215
216 218 219 219 220 221 222 223  66  68  71  74  77  79  83  87  89  91  92  93  95  95 197 198
198 199 200 201 207 210 212 213 214 216 218 219 221 222 223  96  98  98 103 103 104 104 104 104
106 107 107 108 109 110 111 111 113 114 114 115 115 115 115 116 116 117 118 119 119 120 119 120
120 121 122 122 122 122 122 122 123 124 124 125 125 125 125 125 126 127 224 225 224 224 224 225
227 227 227 227 228 227 228 228 229 229 230 231 231 231 231 231 232 232 231 232 232 233 232 232
231 232 231 231 231 232 231 231 231 231 230 229 229 229 228 229 229 228 228 229 229 228 228 227
227 227 226 226 226 226 226 225 224 224 225 225 224 224 127 127 127 127 127 127 126 126 125 126
124 124 125 125 124 124 122 122 121 120 120 119 120 120 119 118 118 118 117 118 117 117 116 116
115 115 115 114 113 113 112 112 111 111 112 111 110 110 110 110 109 109 109 108 108 107 108 107
106 106 105 104 103 104 104 103 100 100 100  99  98  98  97  97  96  97  96  96 223 222 221 221
220 221 221 220 220 218 218 218 217 217 216 215 216 215 216 215 214 213 212 212 212 212 211 210
209 209 208 208 208 208 208 208
199 200 199 196 195 196 196 196 197 201 201 200 200 201 200 200 193 192 196 200 201 201 202 203
204 203 200 201 196 209 208 208 209 208 208 208 208 209 209 209 209 210 211 213 215 216 216 215
215 216 219 220 222 222 223  64  65  67  71  73  78  82  84  86  88  91  92  92  93 192 195 195
192 197 201 202 210 209 211 212 215 217 219 221 222 222 223  96  98  99 101 102 104 104 104 104
106 107 107 107 110 110 111 112 113 114 114 115 115 116 115 115 117 117 118 119 120 120 120 121
121 121 122 123 123 122 123 123 124 124 124 125 125 125 125 125 127 224 225 226 225 225 225 226
227 227 228 227 229 228 229 229 230 230 231 232 232 231 231 231 232 232 232 232 232 232 232 231
231 232 232 232 231 232 231 231 231 232 232 231 230 230 229 230 229 229 229 229 229 229 228 228
228 227 226 226 226 226 226 226 224 224 225 225 224 224 127 127 127 127 127 127 126 126 126 125
124 125 124 124 123 123 123 122 121 121 120 119 119 119 119 118 118 118 117 118 117 117 116 116
115 115 115 114 114 113 113 112 111 111 112 111 111 111 110 110 110 110 109 108 109 108 108 107
106 106 105 104 103 104 104 103 101 101 101 101  99  99  97  97  96  97  97  96 223 222 221 222
221 222 221 220 219 219 217 216 218 218 217 216 217 217 216 215 214 213 212 212 212 212 211 210
209 209 209 209 208 208 207 207
199 198 197 194 196 196 197 197 198 200 200 199 199 201 201 202 205 207 200 200 200 200 202 204
204 205 206 205 202 206 206 207 208 208 208 208 209 209 209 209 209 210 213 213 215 215 216 215
216 217 218 219 221 222 222  64  65  67  71  73  79  85  85  85  86  90  91  92  95 193 196 197
203 210 206 203 211 209 211 214 216 218 219 220 221 223  96  97  98  98 100 101 104 103 103 105
107 108 108 108 109 110 111 112 114 114 115 115 115 115 115 116 118 118 119 120 120 120 120 121
120 121 122 122 123 123 124 124 125 125 124 125 125 125 125 126 127 225 226 226 225 225 226 227
228 228 227 227 229 229 230 230 231 231 232 232 232 232 232 232 232 232 233 233 232 232 232 232
232 233 233 233 232 232 232 232 232 232 233 232 231 230 230 231 230 230 230 230 229 229 229 228
228 228 227 226 226 226 226 226 224 224 225 225 225 225 224 224 127 127 224 224 127 127 126 125
125 125 125 124 124 124 123 123 122 121 120 120 120 120 119 119 119 118 118 117 118 117 117 116
115 116 115 114 114 114 113 113 112 112 112 112 111 111 110 109 109 109 108 107 108 109 109 108
106 106 106 105 104 104 104 103 102 102 102 102 100  99  97  97  96  97  96  96 222 223 222 222
222 222 221 220 219 218 218 217 218 218 218 217 217 217 216 216 214 213 212 211 213 213 211 211
209 209 208 208 209 209 208 209
198 198 197 196 197 198 199 199 199 199 198 197 199 200 203 204 204 204 204 203 201 200 203 205
206 208 208 207 207 204 206 206 207 207 209 210 211 210 209 210 210 213 215 216 216 214 215 217
219 215 215 219 220 220 223  64  66  67  74  75  77  89  86  87  87  89  92  94 194 194 196 200
204 206 207 206 210 212 213 216 218 219 220 221 223  96  97  98  99 100 101 102 103 103 103 105
106 107 107 108 110 111 112 112 113 114 114 115 116 117 117 118 119 119 120 120 121 121 121 122
122 123 123 123 122 123 123 124 125 126 125 125 126 126 126 224 225 227 227 227 227 228 229 229
229 230 230 229 230 231 232 232 233 233 234 233 233 233 233 233 233 233 233 233 234 234 234 234
233 234 234 234 234 233 232 232 232 233 233 232 232 232 232 232 231 231 231 231 230 230 230 229
229 229 230 229 228 227 227 227 226 225 226 226 226 226 224 224 127 127 127 127 224 127 127 126
126 126 126 126 125 124 124 124 123 123 122 121 121 120 120 120 120 120 119 118 118 117 118 118
117 116 116 115 115 114 113 113 113 112 112 112 112 112 110 110 110 109 109 108 108 110 110 109
106 107 106 105 105 104 104 103 104 103 102 102 101 101 100  99  97  98  97  96 223 223 223  96
222 222 221 221 221 222 221 220 218 218 218 218 218 217 216 216 215 214 213 213 212 212 212 212
210 209 209 209 209 209 210 211
200 198 197 198 198 198 200 198 195 192 196 196 196 199 202 203 202 203 203 204 202 201 203 207
201 206 207 207 205 205 204 205 206 206 208 209 212 209 210 211 212 212 214 214 214 212 214 217
219 223  64 221 220 221  65  67  71  74  74  76  72  88  85  85  87  89 192  95 194 194 196 199
201 204 205 207 212 213 214 215 216 219 219 220 222 223  98  98 100 101 102 102 103 103 103 106
108 108 107 108 110 111 112 113 115 113 114 115 116 117 118 119 120 119 120 120 120 120 121 122
123 123 123 123 122 123 123 125 125 126 125 125 126 126 126 224 226 227 227 227 228 229 228 229
229 230 230 230 231 231 231 231 233 233 234 234 234 233 233 234 234 234 234 234 234 235 235 235
234 234 234 234 234 234 234 233 233 233 233 232 233 233 233 233 232 232 232 232 231 231 230 230
229 229 230 229 228 227 227 227 226 225 226 226 227 226 225 225 224 127 127 127 127 127 127 126
126 126 126 126 125 125 124 124 123 122 122 122 121 121 121 121 120 120 120 119 119 118 118 118
117 116 116 115 116 114 114 113 113 112 112 111 112 112 109 110 110 109 108 107 108 109 110 109
106 106 106 105 105 105 104 103 103 103 103 102 101 101 101 100  98  98  97  96 223 223 222 223
222 222 221 221 221 222 221 220 217 217 219 218 217 217 216 216 215 213 212 213 211 212 212 212
210 209 210 209 209 209 209 209
198 199 199 198 197 197 198 196 196 195 195 195 196 199 202 203 203 201 202 203 204 203 205 208
202 204 205 206 205 205 206 205 206 206 208 209 211 208 211 211 212 212 212 213 214 213 215 217
218 219 220 221 221 223  65  66  71  73  74  77  75  88  85  87  89  86  95 192 195 195 197 200
202 204 206 207 211 212 214 215 215 218 219 220 222 223  97  99 100 102 103 103 104 103 105 106
108 109 109 109 110 111 112 113 115 114 114 115 117 118 118 119 120 120 120 120 120 120 122 123
124 124 123 123 123 123 123 125 127 127 126 127 224 224 224 225 226 227 227 228 229 230 229 229
229 231 231 231 232 232 232 232 233 233 234 234 234 234 234 235 234 234 235 235 235 235 236 236
235 236 236 235 235 235 235 234 233 233 233 232 233 234 234 233 232 233 232 232 231 231 230 230
230 230 230 229 228 228 227 227 227 227 227 227 227 227 226 225 224 224 224 224 224 224 224 127
127 126 126 126 125 125 125 125 123 122 122 121 121 121 121 121 121 121 121 120 119 119 120 120
119 118 116 116 116 116 116 115 114 113 113 112 113 112 112 111 111 111 110 109 108 109 109 110
107 107 106 107 105 105 105 104 103 103 103 102 102 102 101 100  99  98  98  98  97  96  96 223
222 222 222 222 222 223 222 221 217 217 220 219 218 218 217 217 215 214 214 214 213 212 212 211
211 210 210 210 209 209 209 208
199 199 199 198 197 195 195 198 199 198 199 197 198 200 202 202 202 202 202 202 203 202 204 206
206 207 207 206 206 205 206 206 207 207 209 210 210 210 212 212 211 212 212 212 213 214 215 216
219 219 220 220  64  64  65 223  75  71  73  75  73  86  83  85  87  89 192 192 195 195 198 199
203 205 207 209 212 213 214 215 216 218 219 220 223  96  97  98 100 101 102 102 103 105 107 107
110 110 110 111 111 111 112 113 115 115 115 116 117 118 119 120 120 120 121 121 121 121 122 123
124 124 123 123 123 123 124 125 127 127 127 127 224 225 225 225 226 228 228 229 229 230 230 230
230 230 231 232 233 233 232 232 233 233 234 234 235 235 235 235 235 235 235 236 236 236 237 237
236 236 236 235 235 235 235 235 233 233 233 233 233 234 234 233 232 232 232 232 232 231 231 231
230 230 230 229 228 228 228 227 228 228 227 227 227 226 226 226 225 225 225 225 224 224 224 127
126 126 126 127 126 126 126 125 124 123 122 122 122 122 121 122 121 121 121 121 120 119 120 120
119 118 117 116 117 116 116 115 114 113 113 113 113 113 112 112 111 111 110 109 109 108 109 110
108 107 106 107 105 105 105 105 103 103 103 102 102 102 102 101  99  98  98  97  96 223 223 223
223 223 223 223 222 222 222 220 218 218 219 219 219 218 217 217 216 215 214 214 213 212 212 212
212 211 211 210 209 209 209 210
200 199 200 199 197 196 197 200 202 201 200 198 199 199 201 201 200 201 202 203 203 202 203 204
209 210 209 207 203 207 206 206 208 209 211 210 211 210 211 212 212 213 211 211 213 214 216 216
218 218 220 221  64  65  66 222  74  72  74  75  75  81  83  84  87  93 192 193 194 197 197 199
203 205 208 210 213 213 215 216 217 218 220 221  96  97  98  99 100 101 102 102 102 104 106 107
109 111 111 112 111 112 112 113 115 115 116 117 117 118 118 119 120 120 121 121 121 122 123 123
123 123 124 124 124 125 125 126 127 127 224 224 224 224 224 225 226 228 228 229 229 229 230 230
231 230 232 233 233 233 233 233 233 234 234 235 236 236 236 236 235 236 236 237 237 237 237 236
236 235 235 236 235 235 236 236 234 234 234 234 233 234 233 233 233 232 232 233 232 232 232 232
230 230 229 229 228 229 228 228 228 228 228 227 227 227 226 226 225 225 225 225 225 224 224 127
126 126 126 127 126 125 125 125 124 123 122 122 122 122 121 122 122 121 121 121 120 120 119 119
118 117 117 116 117 116 116 116 115 114 113 113 113 112 112 111 111 110 110 109 109 108 109 109
108 107 106 107 106 106 105 105 104 104 103 103 102 101 101 100  98  98  98  98  97 223 223 222
223 223  96 223 223 222 222 221 219 219 219 219 219 218 217 217 216 216 215 215 214 213 213 212
212 212 212 211 210 210 210 210
198 198 198 199 198 198 196 196 197 199 203 198 198 198 198 199 198 200 202 203 201 202 204 206
206 207 207 207 203 208 207 206 206 207 211 210 209 210 212 212 213 214 213 210 212 214 217 217
217 218 220 220  64  66  67  69  73  75  78  80  81  83  84  85  88  91  94  93 196 195 199 201
204 206 209 211 213 213 214 216 219 220 221 222  96  97  97  99 101 102 102 103 104 103 106 107
109 109 110 111 112 113 114 114 115 116 117 118 119 119 119 120 122 121 121 121 122 122 123 123
124 124 125 125 127 127 126 126 127 224 224 224 224 225 226 226 228 229 229 230 231 231 231 232
233 233 233 234 234 234 234 234 235 235 235 236 237 237 237 236 235 236 237 237 238 238 238 238
237 237 237 237 236 236 236 236 235 235 235 235 235 235 233 233 233 233 233 232 233 233 232 232
231 230 230 229 230 230 229 229 230 230 229 228 228 226 226 226 225 225 225 226 226 225 225 224
127 127 127 126 126 125 125 125 124 123 123 123 123 123 122 122 121 120 120 120 120 120 119 119
119 118 117 116 116 115 115 114 116 115 114 113 112 112 111 112 111 110 110 110 110 110 110 109
108 108 107 106 106 106 106 106 105 104 103 103 102 101 100  99  98  98  98  97  96  96  96  96
 97  96  96 223 222 222 222 221 221 220 219 219 218 219 218 218 216 217 216 216 215 214 212 213
212 213 213 212 211 210 210 209
195 199 199 199 198 198 197 199 200 199 201 198 198 197 197 199 200 202 201 201 202 202 204 205
206 205 207 207 205 206 207 207 206 205 202 206 209 210 212 212 213 213 216 215 213 215 217 217
217 218 219 220  64 222  64  70  72  77  79  80  81  87  87  87  88  90  93 192  95 195 199 202
204 205 209 211 212 212 214 217 219 219 220 221 223  96  97  99 101 102 102 103 103 104 105 107
109 109 110 111 113 113 114 115 116 116 117 118 118 119 119 120 121 120 121 122 123 123 123 123
124 124 125 126 127 127 127 127 127 224 224 225 225 226 226 227 228 229 229 230 231 231 231 232
232 233 234 234 234 235 235 235 235 235 235 236 237 237 238 237 237 236 237 238 238 238 237 238
237 237 237 237 237 237 236 236 236 236 235 235 236 235 235 235 234 234 234 233 232 232 232 232
231 231 230 230 230 230 230 230 230 229 229 229 228 229 228 227 226 225 226 226 226 225 225 225
224 127 127 126 125 125 126 125 125 124 124 124 123 122 122 122 121 120 120 119 120 120 119 118
118 117 117 116 116 116 115 114 116 116 115 114 112 112 112 112 111 110 110 110 111 110 110 109
108 108 107 106 106 106 107 106 105 104 103 103 101 101 100  99  98  98  98  98  97  96  96  96
 97  96  96 223 222 222 222 221 221 221 219 219 218 218 219 218 217 217 216 216 215 216 214 213
213 213 213 212 211 210 211 210
197 199 200 199 196 196 198 200 201 200 198 201 197 198 198 199 201 203 204 204 201 200 196 199
199 205 206 206 206 206 206 206 206 206 205 207 208 210 211 211 213 214 214 215 215 215 216 216
218 218 219 220 223 223  66  71  73  75  79  80  82  85  86  86  89  90  92  94 193 195 199 200
202 205 208 212 213 213 215 217 219 219 221 222 223  96  97  99 101 102 103 103 104 105 107 108
109 110 110 111 113 114 115 115 116 116 116 117 119 120 120 121 121 120 120 121 122 123 123 123
125 125 126 127 127 224 127 127 224 224 225 226 226 227 228 228 229 230 230 231 232 232 233 233
233 234 234 234 234 235 235 236 236 237 237 236 237 238 238 237 237 237 239 238 239 239 239 239
239 239 238 238 237 237 236 236 236 236 236 236 237 236 236 235 235 234 234 233 233 232 233 232
232 232 232 231 230 230 231 230 230 229 229 230 229 230 229 229 227 227 227 227 226 227 226 226
225 225 224 127 126 126 126 126 126 125 124 124 123 122 122 122 121 121 121 120 120 119 119 119
119 118 118 117 116 116 115 115 115 115 114 114 113 113 113 113 113 112 112 111 112 111 111 110
109 108 108 107 106 106 106 106 105 104 103 103 102 102 101 100  99  99  99  99  98  98  97  97
 97  97  96 223 222 221 221 221 221 221 220 220 219 219 219 219 218 217 217 216 216 217 215 214
213 212 212 211 211 210 211 212
197 198 200 201 193 195 199 201 198 198 199 200 199 199 199 200 202 203 204 203 203 205 208 205
202 205 205 205 204 205 205 206 207 207 207 207 209 210 212 211 213 214 215 214 215 215 216 215
219 219 220 220 223 222  71  73  74  75  78  79  81  84  85  87  88  91  92  94 194 196 199 199
200 206 209 212 213 214 217 218 220 220 221 222 222 223  97  98  99 101 102 103 105 106 108 109
109 110 110 112 113 114 115 115 116 116 115 117 119 120 120 121 120 120 121 122 123 124 124 124
125 126 127 224 224 224 224 127 224 225 226 227 227 228 228 229 230 230 231 231 232 233 233 233
234 234 234 234 234 235 235 236 236 237 237 236 237 237 238 237 238 238 239 239 239 240 240 239
239 239 238 238 237 237 237 237 237 236 236 236 237 236 236 236 236 235 234 233 234 233 234 233
233 232 232 232 231 231 231 231 231 230 230 231 230 231 230 230 229 228 228 228 226 226 226 226
225 225 224 224 127 127 126 126 126 125 125 124 124 123 122 122 122 121 121 121 121 120 120 120
119 118 118 118 117 117 116 116 115 116 114 115 114 114 114 114 113 112 112 111 111 111 111 110
110 109 108 108 107 107 106 106 105 104 103 102 102 102 102 101 100  99  99  99  98  98  97  97
 97  97  96  96 223 222 222 222 222 221 221 221 220 220 219 219 218 218 217 217 217 217 216 215
213 213 213 212 212 211 211 213
200 199 200 199 196 196 200 203 196 197 199 199 200 200 200 201 202 204 205 204 205 206 208 207
205 205 206 205 204 204 206 207 208 208 208 208 210 211 211 212 213 213 214 213 214 215 215 216
219 220 220 220 222  68 223  69  73  75  80  79  82  84  85  86  89  91  93 192 196 197 199 200
199 207 208 211 211 213 218 218 221 221 222 222 223  96  97  97  98 100 103 104 106 106 108 109
110 111 111 113 113 114 115 114 115 115 116 117 118 119 120 121 121 121 121 122 123 123 123 124
126 126 127 224 225 225 224 224 225 226 226 227 227 228 228 229 230 231 231 231 233 233 234 233
233 234 235 234 235 235 236 236 236 237 237 237 238 238 238 238 239 239 240 240 240 240 240 240
239 239 238 238 238 238 238 238 238 237 237 237 237 237 237 236 235 234 235 234 234 234 234 233
233 232 232 231 231 231 231 231 231 230 231 232 231 231 229 229 230 228 228 228 226 226 226 226
225 225 224 224 127 127 126 127 126 125 125 125 125 124 123 123 122 121 121 121 121 120 119 119
119 117 117 118 117 117 116 116 114 115 115 115 115 115 114 114 113 113 112 111 111 111 111 110
110 109 108 108 108 108 107 106 105 104 103 102 102 103 102 102 101 100 100 100  99  99  98  98
 97  97  96  96  96 222 222 222 222 221 221 221 220 220 218 219 218 218 218 218 217 217 217 215
212 212 212 211 211 211 211 211
199 197 197 197 198 199 200 199 201 199 197 199 201 202 201 201 203 203 203 202 204 205 207 208
206 206 206 205 202 207 207 209 209 208 209 210 212 211 212 212 212 213 211 212 212 214 216 217
220 220 220 219 222  64  66  69  71  77  82  81  82  83  86  88  91  92  94 193 197 197 199 200
202 204 207 209 210 214 217 219 220 222 222 222  96  97  99  99  99 101 104 103 104 104 107 108
109 110 111 113 113 114 115 115 116 117 117 118 119 120 121 122 122 123 123 124 124 124 125 126
126 127 127 224 225 225 225 226 227 228 228 228 229 229 230 230 231 231 232 232 233 234 236 235
236 235 236 236 236 237 238 238 238 239 239 239 238 239 239 240 239 240 241 241 240 240 240 240
240 240 241 240 239 239 239 239 238 237 237 237 238 238 237 236 236 237 237 236 235 235 235 234
233 233 233 232 232 232 233 233 233 232 232 232 232 231 231 230 230 229 229 230 228 227 226 225
225 225 224 224 127 224 224 224 127 126 126 126 125 125 124 123 123 123 122 122 120 120 120 120
119 117 118 118 117 117 117 116 116 115 116 116 115 115 115 115 113 112 112 111 110 110 110 110
110 109 109 109 110 109 108 108 105 104 104 103 102 102 102 102 102 101 100  99  99  98  98  98
 98  97  97  97  98  97  96 223 222 222 222 221 220 220 219 219 219 218 217 217 217 218 217 215
214 214 213 212 211 211 211 210
197 197 197 197 197 198 199 198 199 198 196 197 200 201 201 201 200 201 202 203 204 206 206 207
205 205 204 203 203 212 209 209 209 208 208 210 210 210 211 211 211 211 209 208 207 215 216 217
218 220 220 220  64  65  67  69  70  77  79  80  81  84  87  88  90  90  94 192 193 195 197 200
204 205 207 208 210 213 217 219 221 221 221 221  96  97  98  99 102 102 103 103 105 105 107 108
109 110 111 113 113 114 114 115 116 117 117 118 119 120 121 122 123 123 123 124 124 124 125 126
127 127 224 225 226 226 226 226 227 228 228 228 229 229 230 230 231 231 232 232 233 234 236 236
236 236 237 238 238 238 238 238 238 240 240 240 240 240 240 240 240 241 242 242 241 240 240 240
240 240 241 240 239 239 239 239 238 238 238 238 238 238 238 237 237 237 237 237 235 235 235 234
234 233 233 232 232 232 233 232 233 232 232 232 230 230 230 229 230 230 230 229 228 227 227 226
225 225 224 224 127 224 224 224 127 126 126 126 125 125 123 124 122 123 122 121 120 120 120 119
119 117 117 118 117 118 117 116 116 115 116 115 115 115 115 115 114 113 112 111 111 110 110 110
111 110 109 108 109 108 109 108 106 104 104 104 103 103 102 102 101 101 101 100  99  98  98  98
 97  97  97  97  97  97  96 223 222 222 222 221 220 220 219 219 219 218 217 217 218 218 216 215
213 213 212 212 212 211 212 212
199 198 199 199 199 197 199 196 196 196 198 196 198 200 202 202 202 203 203 204 206 207 206 204
202 201 202 203 202 209 207 207 207 208 209 210 210 211 211 211 211 211 211 216 215 216 217 217
216 218 220 221 223  65  67  67  73  75  75  77  82  85  88  88  90  91  95 193 194 195 198 201
205 205 208 210 212 216 218 219 220 221 221 221  96  97  99 100 103 103 103 104 105 106 108 109
111 111 112 113 114 115 115 116 117 118 119 119 120 121 122 123 124 124 124 124 125 125 126 127
127 225 225 226 227 227 227 227 227 228 228 229 230 230 231 231 232 233 233 233 234 235 236 236
236 237 238 239 239 239 239 240 240 241 241 241 241 242 241 241 241 242 241 241 241 241 241 241
241 241 241 241 240 240 239 240 239 239 239 238 238 238 238 238 238 238 238 238 236 236 236 235
235 234 233 232 233 233 234 233 233 233 233 232 231 230 230 230 230 230 230 229 228 227 227 226
226 225 225 225 224 225 225 224 127 126 126 126 125 125 123 123 124 124 123 122 120 121 121 121
119 119 119 119 118 118 117 117 117 116 116 115 115 115 114 114 113 113 113 113 113 112 112 111
111 110 110 109 108 108 108 107 106 105 104 105 104 104 102 102 101 101 101 100  99  98  99 100
 99  98  98  98  97  97  96 223 222 222 222 221 222 221 221 220 219 219 219 218 218 216 216 216
214 214 213 212 213 213 212 213
199 198 198 200 202 203 198 197 197 197 197 199 201 199 201 201 204 205 204 205 207 206 206 205
204 204 204 204 203 205 205 206 207 207 208 209 211 210 211 212 212 211 214 217 219 217 218 218
218 219 221 223  64  65  67  67  79  78  80  81  85  84  87  88  90  92 195 194 195 195 198 202
205 207 209 211 213 216 217 219 220 220 220 222  96  97  98  99 103 104 104 104 106 107 108 109
110 112 113 114 114 116 115 116 117 118 118 119 120 121 122 122 123 124 124 125 125 126 126 127
224 226 226 227 227 227 227 227 228 228 229 229 230 230 231 232 233 234 234 234 235 236 237 237
237 237 238 239 239 240 239 239 240 242 242 242 242 242 242 243 243 242 241 242 242 242 241 241
242 242 242 242 241 241 240 241 240 240 239 239 238 238 238 238 238 238 238 238 237 236 236 236
235 234 234 233 234 234 234 233 233 233 233 233 232 231 230 230 230 231 230 230 229 228 227 227
227 226 226 226 225 225 225 225 224 127 127 126 125 125 124 123 123 124 123 122 121 121 121 121
120 119 119 119 119 119 118 118 117 117 117 116 115 115 114 114 114 114 113 113 113 112 112 111
111 110 110 109 108 108 108 107 106 106 105 106 105 104 103 102 101 102 102 101 100  99 100 100
 99  98  98  98  97  96  96 223 223 222 222 221 221 220 220 220 219 219 219 219 218 217 216 216
215 215 213 213 213 213 213 213
196 198 198 199 202 202 203 201 198 199 200 201 201 201 201 203 204 204 204 206 207 206 206 205
205 207 208 208 209 208 205 206 207 208 210 211 212 211 212 213 214 212 212 217 217 217 218 218
220 220 222  64  66  67  68  68  78  77  80  84  84  84  86  89  92  93  92  95 198 198 202 203
207 209 210 210 214 215 216 218 218 219 220 222  97  98  98 100 101 103 104 105 105 107 109 110
112 113 113 114 116 117 117 117 118 118 119 120 122 123 123 123 124 125 125 125 126 127 224 224
225 226 227 227 228 227 228 228 229 230 230 231 231 232 232 233 234 236 235 236 236 236 236 237
238 238 239 240 241 241 240 241 241 242 242 242 243 244 244 244 244 243 243 243 243 243 243 243
244 244 244 243 243 243 242 242 242 241 241 240 239 239 239 239 239 239 239 239 238 237 237 236
236 235 235 234 234 234 233 232 233 233 233 232 233 232 232 232 231 231 231 230 229 229 229 228
228 228 227 227 226 226 226 226 226 226 224 127 126 125 125 124 123 123 123 122 122 122 122 121
120 120 119 120 119 119 118 119 118 118 117 116 116 116 114 114 114 115 114 114 113 114 113 113
112 111 111 110 109 108 108 107 107 107 107 107 106 105 104 103 102 102 101 101  99 100 100 100
100  99  98  98  97  96 223 223 223  96  96 223 222 221 220 220 219 218 219 218 219 218 218 217
216 215 215 214 213 213 212 211
197 196 198 199 196 197 198 199 197 197 198 199 200 201 202 202 203 202 203 205 206 206 205 205
204 207 208 207 207 207 206 205 204 208 209 210 209 209 212 213 214 214 216 212 213 213 216 218
219 218 222  64  64  64  68  70  78  76  76  79  82  85  88  90  93  93  94 192 197 197 202 203
208 208 210 211 214 215 216 217 219 218 221 222  97  98  98  99 101 103 104 105 106 107 108 110
111 112 113 114 115 116 117 118 118 119 118 119 120 121 122 123 124 125 125 126 126 127 127 224
225 226 227 228 227 228 228 229 230 230 230 231 231 232 233 234 235 236 236 236 236 237 237 238
239 239 239 240 241 241 241 241 242 243 243 243 244 244 244 244 243 243 243 243 244 244 244 244
244 245 245 244 243 243 242 242 242 241 241 241 240 239 239 239 239 239 240 239 237 236 236 236
236 235 235 235 234 234 233 233 233 233 233 232 233 232 232 232 231 231 231 230 229 229 229 228
228 227 227 227 226 226 226 226 225 225 225 224 125 125 125 125 124 123 122 122 121 121 121 121
120 119 119 120 119 118 118 118 118 117 116 115 115 115 115 115 114 115 113 113 112 113 112 112
111 111 110 109 109 109 109 109 108 108 108 108 107 106 104 103 102 101 101 102  99  99  99  99
 99  99  99  98  97  97  96  96 223  96  96 223 222 222 221 221 219 218 219 218 218 218 218 217
216 216 215 214 213 213 212 213
199 198 198 199 198 196 195 196 198 200 198 198 200 201 204 203 203 203 203 203 203 205 205 205
204 206 206 206 207 206 207 206 206 208 210 211 210 210 210 211 213 214 213 213 214 213 213 214
216 219 220 221 223 223  68  73  74  77  77  78  82  86  89  91  93  93  94 192 196 197 199 200
206 208 209 210 214 215 216 217 218 220 221 222  97  98  99  99 101 103 104 105 105 106 108 111
112 113 114 115 117 117 118 118 119 119 119 120 121 121 122 123 124 125 126 127 127 127 224 225
225 226 227 227 228 228 229 229 230 231 231 232 232 233 233 234 236 236 236 236 237 237 237 238
239 240 240 241 241 241 242 242 243 244 244 244 244 244 244 244 243 244 243 243 244 244 244 244
244 245 245 244 243 243 243 243 242 242 242 242 241 240 240 240 240 240 240 239 238 237 237 236
236 235 236 235 234 234 234 234 233 233 233 232 232 232 232 233 231 231 231 230 229 229 230 229
229 228 228 227 226 226 226 226 226 225 225 224 126 125 126 126 125 124 123 122 122 121 121 121
120 119 119 119 119 118 117 117 117 116 115 115 116 115 115 115 115 115 113 112 111 113 112 111
111 111 110 109 109 109 109 109 108 108 108 108 106 106 105 104 103 101 101 101 100 100  99  99
 99  99  99  98  97  97  97  96  96  96  96 223 222 222 221 220 220 220 220 219 219 219 218 217
216 215 215 215 214 213 213 213
201 198 198 199 198 197 196 197 199 199 199 202 205 203 202 202 203 202 202 203 203 204 204 204
205 204 204 206 207 208 207 207 208 209 210 211 210 210 209 210 212 213 212 212 213 214 215 216
218 218 219 220 222 222  67  73  75  76  78  78  84  86  89  91  92  92  94 193 196 196 199 203
206 207 209 210 215 216 217 218 219 221 222 222  97  97  98  99 101 103 104 106 107 108 108 110
112 113 114 115 117 116 118 118 119 119 119 120 121 122 123 123 123 125 126 127 127 224 224 225
226 226 227 228 229 228 229 229 231 232 232 233 233 234 235 235 236 236 236 237 238 238 238 239
239 240 241 242 242 242 243 243 243 244 245 244 245 245 244 244 244 244 244 244 244 244 244 245
245 246 246 245 244 244 244 243 243 243 243 242 242 241 241 241 241 240 240 240 239 238 237 237
236 236 236 236 235 235 235 235 234 233 233 233 232 232 232 233 231 230 230 230 229 229 229 230
229 229 229 228 227 227 227 226 225 225 225 224 127 126 126 126 125 124 124 123 122 121 121 121
120 119 120 119 119 118 118 118 117 117 116 116 117 116 116 116 115 115 114 113 111 112 112 111
111 110 110 109 110 109 109 109 109 108 108 107 107 107 106 105 103 102 102 102 101 100 100  99
 99  99  99  98  98  97  97  96 223 223 223 222 222 222 221 220 221 221 220 220 218 218 217 216
216 215 216 215 215 213 213 213
200 199 199 199 197 197 196 198 200 200 200 204 205 204 201 201 202 203 202 202 203 204 204 204
204 204 205 207 208 209 208 208 209 210 211 212 209 210 210 211 212 213 212 212 213 214 216 217
219 220 221 222 223 223  68  72  74  76  78  80  84  85  88  90  91  93  94 193 196 196 200 204
206 206 208 210 216 217 218 218 220 222 223 223  97  97  99 100 102 104 105 107 109 109 110 110
112 113 114 115 116 116 118 119 120 120 121 120 122 122 123 124 124 126 126 127 224 224 224 226
226 227 227 228 229 228 229 230 232 232 232 233 233 234 236 236 237 237 237 238 238 239 239 240
241 241 241 242 242 243 244 244 244 244 245 244 245 245 245 245 245 245 246 245 245 245 245 245
245 246 245 245 245 245 245 244 244 244 244 243 243 242 242 241 240 240 240 240 240 238 237 237
237 236 236 236 235 236 236 235 234 233 233 233 232 232 232 233 232 231 231 231 230 230 229 230
229 229 229 228 228 228 227 226 226 225 225 224 127 126 126 126 126 125 124 123 122 122 122 121
121 120 120 120 119 118 118 118 118 117 117 117 117 116 116 116 116 115 114 113 112 112 112 112
111 110 110 110 110 110 110 109 108 107 107 107 106 106 106 105 103 102 102 103 102 100 100 100
100  99  99  98  99  98  97  97  96 223 223 222 222 221 221 220 221 221 220 220 218 218 218 217
216 214 215 215 215 214 213 213
202 199 198 197 197 197 198 199 201 201 200 202 203 203 201 201 202 202 202 203 204 203 203 204
204 204 204 205 207 206 206 208 210 210 212 213 210 210 208 212 212 215 214 213 214 215 216 217
219 223 223 222  65  66  70  72  74  76  78  79  81  81  88  89  90  91  92 193 196 198 201 204
207 208 208 210 215 217 218 219 221 222 223  96  97  99 100 101 102 104 105 106 109 109 111 111
113 114 113 114 116 116 118 119 120 121 122 122 123 124 126 126 125 126 126 127 224 224 225 226
227 228 228 229 231 230 231 231 233 233 233 234 234 235 236 237 238 238 238 239 240 241 241 241
242 242 242 243 244 244 244 245 245 244 244 245 246 246 246 246 246 247 248 247 246 246 246 246
246 246 245 245 245 245 245 244 244 245 245 244 243 243 243 242 242 241 241 241 240 240 238 239
238 238 237 237 237 237 236 235 234 234 234 235 233 233 232 233 233 232 232 231 231 231 230 230
229 229 229 229 229 228 227 227 227 226 226 225 224 224 224 127 126 125 125 124 123 122 122 122
122 121 122 121 120 120 119 119 119 119 119 119 118 116 116 115 116 115 115 114 114 114 114 113
112 110 111 111 111 111 111 110 108 108 108 107 108 108 106 105 104 104 105 104 104 103 102 101
101 100 100  99  99  98  97  97 223 223 223 222 221 220 220 220 221 221 220 220 218 218 217 216
216 215 215 215 215 214 212 210
198 197 195 195 196 197 198 197 199 199 199 200 202 201 199 199 200 200 201 202 202 203 204 206
207 207 206 204 204 204 205 207 209 209 209 211 209 209 208 210 215 215 214 214 215 215 216 217
217 219 220 223  67  67  70  72  73  74  77  78  83  85  87  88  89  90  91  95 197 199 202 204
206 207 209 211 216 217 220 220 221 223  96  96  97  99 100 100 102 103 104 107 109 109 111 111
113 114 114 115 115 117 118 119 121 121 122 122 124 124 126 126 126 126 127 224 225 225 226 226
227 228 228 229 231 231 232 232 233 233 234 234 234 235 236 237 239 239 239 240 239 241 242 243
243 243 243 243 244 245 245 245 246 245 245 245 247 247 247 247 247 248 248 248 247 247 247 247
247 246 246 246 246 246 245 245 245 246 245 244 244 243 243 243 241 242 242 242 240 240 239 239
238 237 238 238 237 236 234 234 234 234 235 235 234 233 233 232 232 232 232 231 232 231 231 231
229 229 230 229 228 228 227 227 227 227 226 225 225 224 224 224 127 125 125 124 123 123 123 123
123 122 122 121 120 120 119 120 119 119 119 118 117 116 116 116 115 114 114 114 114 114 114 114
112 111 112 112 112 111 111 110 110 109 109 108 108 108 105 105 104 105 105 104 103 103 102 102
101 101 100  99  99  98  97  97  96  96 223 222 222 221 221 220 220 220 220 220 219 219 218 218
217 216 215 215 215 213 212 211
195 195 195 196 196 195 197 198 200 200 198 198 201 200 201 200 199 200 199 200 201 203 204 205
206 206 206 205 205 206 206 208 208 208 207 208 211 210 209 208 214 214 214 215 216 216 216 217
218 219 220  65  68  66  68  72  74  75  77  80  85  86  87  89 192 193 192 193 197 199 203 204
207 208 211 212 218 217 219 220 222  96  96  97  98  99 101 101 102 104 105 106 109 110 111 112
113 115 115 116 118 119 119 120 121 122 123 123 124 125 126 126 127 127 127 224 225 226 227 227
228 229 230 230 232 232 233 233 233 233 234 235 235 235 236 237 239 239 239 239 240 241 243 244
244 244 243 244 244 245 246 246 246 246 246 246 248 248 248 248 248 248 248 248 247 248 248 248
248 247 247 247 247 246 246 246 246 247 246 245 244 243 244 243 242 242 242 242 241 241 240 240
239 239 238 238 237 237 236 235 234 235 235 235 234 234 233 233 232 232 232 232 232 231 232 231
231 230 231 230 229 228 228 228 227 226 226 225 225 225 224 224 127 126 126 125 123 123 123 123
122 122 122 122 121 121 120 120 119 118 118 118 117 116 116 116 115 114 114 114 114 114 114 114
112 112 112 112 112 112 111 111 111 110 109 109 108 108 106 106 105 105 105 104 103 103 102 102
101 101 100  99  98  98  97  96  96  96 223 222 222 221 221 221 220 220 220 219 219 218 218 218
217 216 215 215 214 213 211 212
197 196 198 195 194 197 198 199 199 200 199 198 200 202 204 203 199 199 199 200 201 204 205 206
206 205 207 206 208 208 208 208 209 207 208 209 209 210 210 210 212 215 217 218 216 217 217 218
219 220 222  66  69  71  71  69  77  77  78  80  84  85  86  89  91  95 193 194 197 200 204 205
207 209 211 211 219 218 220 220 222  97  97  98  99 100 101 101 103 104 107 107 110 110 111 112
114 116 116 117 119 120 120 121 122 123 124 124 125 125 126 126 224 224 224 225 226 227 228 228
229 229 231 231 233 233 233 233 233 234 235 235 236 236 237 238 240 240 239 239 241 242 243 243
244 244 244 244 245 246 247 247 247 247 247 248 248 249 249 249 249 249 248 248 248 249 249 248
248 248 248 247 247 247 247 247 246 247 245 244 244 244 245 244 243 242 242 242 242 242 241 241
239 240 239 239 238 238 237 236 235 236 236 236 235 234 234 234 233 233 233 233 232 232 231 231
231 231 231 230 229 229 228 229 228 227 226 225 226 225 225 224 127 127 126 125 124 124 124 124
122 123 122 122 122 122 120 121 119 119 119 119 118 117 117 116 115 115 115 114 115 115 115 115
113 113 113 113 112 112 111 112 112 111 110 110 109 108 107 107 106 106 106 105 103 103 103 103
102 102 100  99  99  99  98  97  97  97  96 223 223 222 222 221 221 221 220 219 218 218 217 217
217 216 215 214 215 214 213 214
198 199 199 196  89 203 200 199 200 200 200 199 201 201 203 203 208 205 203 201 205 201 205 207
208 207 208 209 211 211 211 211 213 212 211 212 212 211 217 214 211 216 218 219 218 219 219 219
221 223 223  66  69  74  72  74  78  79  83  85  86  87  87  90  92  95 194 198 197 199 205 206
208 211 212 213 216 218 220 221 223  97  97  98  99 100 102 102 104 107 109 110 112 112 114 114
117 118 118 118 120 121 121 122 123 124 126 126 127 126 127 127 225 226 226 226 228 227 229 229
231 231 232 232 234 234 233 233 234 236 237 238 238 238 239 240 240 241 241 242 243 244 245 245
246 246 246 246 246 247 248 248 249 249 249 249 250 250 250 250 249 250 250 250 250 250 250 249
249 249 249 249 248 248 249 249 248 247 247 246 246 246 246 246 245 244 244 244 243 243 243 243
240 240 239 239 239 239 238 238 238 238 238 238 236 235 236 236 235 235 235 235 234 233 231 232
232 232 232 231 230 230 229 229 229 228 228 227 226 226 226 226 225 224 127 126 126 126 126 125
124 123 123 122 122 122 122 122 120 119 119 120 119 119 117 117 117 117 116 116 116 116 115 115
114 115 114 114 112 112 112 113 112 111 110 111 110 109 109 108 107 106 106 106 104 104 103 103
103 102 102 102 100 100 100 100  98  98  97  96  97  96 223 223 222 222 222 221 220 219 218 217
217 216 216 215 214 214 215 216
196 197 199  93  95 202 197 197 199 197 199 201 196 198 205 204 206 208 210 205 204 198 205 207
206 206 207 209 211 211 210 211 212 213 212 212 212 213 219 215 213 214 216 217 217 218 219 220
222  64  64  64 221  71  74  76  79  82  83  84  86  86  88  89  92  94 194 198 199 199 205 206
209 210 212 212 214 218 220 221 223  96  98  98  99 100 102 102 105 105 109 111 112 112 114 115
117 118 118 118 120 121 121 122 123 124 126 126 127 127 224 224 226 226 226 227 228 228 228 229
231 231 232 232 234 234 234 234 236 236 237 237 238 239 240 240 241 242 242 243 244 244 245 245
246 246 246 246 247 247 249 249 249 250 250 250 251 251 251 251 250 250 250 251 251 251 251 250
250 250 250 249 248 248 249 249 248 247 247 247 247 247 246 246 245 244 244 244 244 244 243 242
240 240 239 239 239 239 239 238 238 238 238 238 236 236 236 236 236 235 235 235 234 233 231 231
232 232 232 231 229 230 230 230 229 228 228 227 227 227 226 226 225 224 127 126 126 126 126 125
124 122 122 122 122 122 121 121 120 119 119 120 119 119 117 117 117 117 117 116 116 116 115 115
114 115 114 114 112 112 112 113 113 111 111 111 110 109 109 108 107 106 106 106 105 104 104 104
103 102 102 102 101 100 100 100  99  98  97  96  96  96 223 223 223 222 221 220 219 219 218 217
217 216 215 214 215 215 214 214
194 201 199 193 194 196 197 200 199 199 199 201 198 199 201 202 204 206 207 207 205 198 200 204
206 205 208 209 209 207 208 209 210 212 212 212 214 214 216 214 214 216 213 215 217 217 218 219
221  64  64  64  64  70  73  77  79  82  85  85  87  88  89  90  92  94 194 198 199 200 204 206
207 211 213 213 215 217 220 221 222  96  96  97 100  99 102 103 105 106 108 110 111 112 114 115
117 118 118 119 121 121 121 122 124 125 126 126 127 127 224 225 226 226 226 227 229 229 229 230
232 232 233 234 235 235 235 235 236 237 238 238 240 240 241 241 241 242 243 243 245 246 247 247
247 247 247 247 248 248 248 249 250 250 250 251 251 252 251 251 251 251 251 251 251 251 251 251
251 250 250 250 249 249 250 250 249 248 248 248 248 247 246 246 245 245 245 245 245 245 244 243
242 241 240 240 240 239 239 239 239 239 238 239 238 238 238 237 236 235 235 235 234 234 232 232
232 233 233 232 231 231 231 230 229 228 228 227 227 227 226 226 225 224 224 127 127 127 126 125
124 122 122 122 122 121 121 121 120 119 119 119 119 119 119 119 119 118 117 117 116 116 115 115
115 115 114 114 112 112 112 113 112 111 111 111 111 111 110 109 107 107 107 107 106 105 104 104
103 102 101 101 101 100 100 100  99  98  97  97  97  96 223 223 222 221 221 220 219 218 218 217
217 217 216 215 214 214 214 214
199 201 199 197 197 198 197 198 199 200 201 201 201 201 199 200 201 202 204 205 204 198 202 206
205 206 208 209 211 204 206 210 209 209 211 212 212 215 215 214 214 214 215 215 217 217 217 217
221 223  64  66  67  68  73  77  78  81  83  86  86  90  91  91  89 192 195 198 200 201 204 206
207 210 212 213 216 217 219 220 222 223  96  98 100 101 102 103 105 107 109 110 111 112 114 116
118 118 119 119 121 122 122 122 124 125 126 126 127 224 225 225 226 227 227 227 228 229 230 230
232 232 232 233 235 235 236 236 238 239 239 239 240 241 241 241 242 242 243 244 245 246 247 247
247 248 247 248 248 248 249 249 251 251 250 251 251 251 251 251 252 251 251 251 251 251 251 251
251 250 250 250 250 250 250 250 250 249 249 249 248 247 247 247 246 245 246 246 246 245 245 244
242 242 242 242 240 240 239 240 239 239 238 239 239 238 238 237 236 236 235 235 234 234 234 234
233 233 232 232 231 231 231 231 230 228 228 228 227 227 226 226 224 224 224 127 126 126 126 125
124 124 124 123 122 122 122 122 121 120 120 119 119 119 119 119 119 118 118 117 117 116 115 115
115 115 114 114 113 113 113 113 112 111 111 111 112 111 111 109 107 106 106 106 106 105 105 105
104 103 102 102 100 100  99  99  98  98  98  97  97  97  96 223 223 222 221 221 220 219 219 218
218 217 216 215 214 214 216 215
199 199 199 198 199 200 198 198 199 202 202 202 201 200 201 201 202 203 204 205 203 201 203 207
205 207 207 208 207 203 207 213 212 209 211 211 212 214 214 213 213 215 215 216 218 216 216 214
 65 223  64  67  69  69  72  76  77  80  82  85  86  90  92  90  86 194 194 197 199 201 204 206
207 211 213 214 216 217 219 220 223  96  97  98 100 101 102 103 105 107 109 110 112 112 113 115
117 118 120 120 121 122 122 123 125 126 127 127 224 225 225 226 226 228 228 228 229 230 231 231
231 232 233 234 235 236 237 237 239 240 240 241 241 241 242 242 242 243 244 244 246 247 248 247
248 248 248 248 248 248 249 250 252 251 251 252 251 251 251 251 252 252 251 252 252 252 252 251
251 250 250 250 250 250 250 250 250 250 250 249 249 248 247 247 247 246 247 247 247 246 245 245
243 243 243 243 241 241 240 240 239 239 238 239 240 239 238 237 237 236 236 236 235 235 235 235
234 234 233 232 232 232 231 231 230 229 229 228 228 228 227 226 225 224 224 127 126 125 125 125
124 124 123 122 122 122 122 122 122 121 120 120 119 119 118 119 120 119 118 118 117 117 117 116
115 115 114 114 113 114 114 113 112 112 111 111 111 111 111 109 108 107 107 106 106 105 105 105
104 103 102 102 101 101  99  99  98  98  98  98  97  96  96  96 223 222 221 220 220 220 220 219
218 217 217 216 215 215 216 216
200 201 200 200 200 198 198 199 201 202 203 203 200 202 203 203 204 204 206 207 206 206 205 205
210 208 206 204 207 203 207 214 212 210 211 213 215 213 213 214 215 216 217 214 213 216 216  65
213 217 221  66  70  72  75  76  76  79  81  84  87  87  91  91  90 193 194 196 200 201 204 206
206 213 214 215 216 218 219 221 223  96  98  99 101 103 104 104 106 107 110 111 113 113 115 116
117 119 120 121 122 122 123 124 126 126 127 127 224 225 226 226 228 229 229 229 231 231 231 232
232 234 234 235 236 237 238 238 240 241 242 243 242 243 243 243 244 246 246 246 248 248 248 248
248 249 249 250 250 251 252 252 253 252 253 252 253 252 252 252 253 252 252 252 252 252 252 252
252 252 252 251 252 252 252 251 251 250 250 249 249 249 248 249 249 248 248 247 247 247 247 246
245 245 244 243 242 242 241 242 241 241 240 240 240 240 239 238 239 238 237 237 236 236 236 236
236 235 234 233 233 233 233 232 230 229 230 230 230 229 228 228 226 226 225 224 127 126 127 127
126 125 124 123 122 123 123 123 123 122 122 121 120 119 119 119 120 119 119 118 118 118 118 118
117 115 115 114 114 114 114 114 112 112 113 112 111 112 111 109 108 107 107 106 106 106 106 105
105 104 104 104 103 102 100 100  99  99  99  99  99  98  97  98  96 221 221 221 221 221 221 220
219 218 218 218 217 216 217 216
204 201 200 199 199 198 197 199 201 202 199 200 203 202 202 202 202 201 205 207 213 203 204 206
207 207 205 203 206 207 208 210 210 210 212 215 214 214 213 213 213 216 218 213 212 215 217 218
219 220 222  67  69  72  74  76  76  78  81  84  88  87  88  91  95  93 194 197 200 201 205 205
205 213 214 215 217 219 220 221 223  96  97  98 101 102 103 104 105 107 109 110 113 113 115 116
118 119 120 121 123 123 124 125 127 127 224 224 225 225 227 227 228 229 229 230 231 232 232 232
232 234 234 235 236 237 237 238 240 241 242 242 242 242 243 243 244 246 247 247 248 248 249 248
249 249 249 250 250 251 252 252 253 252 253 252 253 252 253 253 253 253 253 253 252 252 253 253
253 253 252 252 253 252 252 251 251 251 250 249 249 249 250 250 249 249 248 247 247 247 247 246
245 245 244 243 242 242 242 242 241 241 240 240 240 240 239 239 239 239 238 238 237 237 236 237
236 236 235 234 233 233 233 232 230 230 230 230 229 229 228 228 226 227 226 225 127 127 127 127
126 125 124 123 122 122 123 123 123 122 122 121 120 119 120 120 120 119 119 118 118 118 118 118
117 115 115 114 114 114 114 114 112 112 113 112 111 111 111 110 108 108 108 107 107 106 105 105
104 104 104 104 103 102 101 100 100 100 100 100  99  98  97  97 223 221 221 220 221 221 220 220
219 218 218 218 218 217 217 218
199 199 198 199 199 198 199 199 200 201 200 200 202 204 202 201 200 201 204 204 206 203 204 206
206 206 204 201 210 208 206 207 207 208 208 211 213 212 212 211 211 215 217 214 214 216 218 218
222 222 223  68  70  72  74  77  77  77  80  82  86  89  89  93  95 193 194 195 199 201 207 207
207 212 214 216 218 220 221 222 223 223  96  97 100 102 104 105 107 108 108 109 113 115 117 118
120 120 120 121 123 124 125 126 127 224 225 225 226 226 228 228 229 230 230 231 232 233 233 233
233 235 236 236 237 237 238 239 240 241 242 242 243 243 244 245 246 247 248 248 249 249 250 250
250 250 250 251 252 252 253 253 254 253 253 252 253 253 253 254 253 254 254 253 253 253 254 254
254 254 254 253 253 253 253 252 252 251 251 250 250 250 250 250 250 249 249 248 247 247 247 247
246 245 244 243 243 243 243 243 241 241 241 241 241 241 241 240 240 239 239 239 237 238 237 237
236 236 236 235 234 234 234 233 232 231 230 230 229 229 229 229 227 227 226 225 224 224 224 127
125 125 124 124 123 122 123 122 122 122 122 122 120 119 120 120 120 119 119 119 118 119 119 119
117 116 115 115 114 114 114 114 114 113 112 112 112 112 112 111 110 109 108 108 107 107 106 106
105 105 105 104 103 102 101 100 100 100  99  99  99  99  99  98 223 222 222 221 221 220 220 220
220 219 219 219 218 218 218 217
197 197 201 200 200 200 202 199 200 201 201 200 201 203 203 202 201 201 201 201 202 203 204 205
206 205 204 204 209 207 204 206 208 209 210 211 213 211 211 212 214 215 215 216 215 216 218 218
221 223 223  69  70  73  76  78  78  81  83  86  87  90  91  94 192 194 195 197 200 200 208 208
210 212 213 215 218 220 222 223  96  96  97  98  99 102 104 105 107 109 109 109 114 115 117 118
120 120 121 122 123 124 125 126 127 224 225 226 227 227 228 229 230 231 232 232 232 233 234 234
235 235 236 237 237 237 238 239 241 242 242 242 243 243 244 245 247 248 248 248 249 250 251 251
251 251 251 252 252 253 254 254 253 253 253 253 253 253 254 254 255 254 254 254 253 253 254 254
254 254 254 253 253 253 253 252 252 252 251 250 250 250 250 250 250 249 249 249 248 248 247 247
246 245 245 244 243 244 243 243 242 242 242 241 241 241 242 241 241 240 240 240 238 238 238 238
237 237 237 236 235 235 234 233 232 232 231 230 229 229 229 229 227 228 227 226 225 224 224 127
125 125 125 125 123 123 122 122 122 122 123 122 121 120 120 121 120 119 119 119 119 120 119 118
117 116 116 115 114 114 114 114 115 113 113 113 112 112 112 112 111 110 109 109 108 108 107 106
105 105 104 104 104 102 102 101 100 100  99  99  99  99  98  98  96 222 222 221 221 220 220 220
220 220 219 218 218 217 217 216
200 198 203 201 200 202 201 201 200 200 201 202 202 202 200 198 198 198 201 202 203 204 205 206
205 208 207 207 208 210 209 208 209 209 211 211 212 211 211 213 213 213 215 216 217 218 218 219
221  65  65  70  73  75  77  78  79  83  86  88  91  91  92  94 193 195 197 199 203 202 210 210
212 213 214 216 219 220 222  96  98 100  99  99 100 103 105 106 108 110 111 112 115 116 117 118
120 121 121 122 123 124 125 125 127 225 225 226 227 227 229 230 231 232 233 233 234 234 235 236
237 238 238 238 239 239 240 241 242 243 244 244 245 245 246 248 249 249 249 250 250 251 251 252
252 252 252 253 254 254 254 255 255 255 255  96 254 255 255  96  96  96  96 255 255 254 255 254
254 254 254 254 254 254 254 253 254 253 253 252 251 251 251 250 250 249 249 249 249 249 248 248
247 247 246 245 245 245 244 243 242 242 242 241 242 242 242 242 241 241 240 241 240 240 239 239
239 238 238 237 236 236 235 235 234 233 232 232 231 231 230 229 228 228 228 227 225 225 224 224
127 126 126 125 124 124 123 122 122 121 122 122 122 121 121 121 120 121 120 120 120 121 120 119
118 117 117 117 116 115 115 114 114 114 114 113 113 112 112 113 112 111 110 110 110 109 108 107
105 103 105 104 104 103 102 101 101 101 100  99  98  98  98  97  96 223 222 222 222 222 220 219
219 219 219 218 217 217 216 216
203 201 200 201 200 201 201 199 198 198 200 201 201 200 200 200 199 199 199 200 202 202 203 204
205 207 207 208 208 209 209 208 208 209 209 209 210 211 211 212 213 213 213 215 217 218 220 221
223  65  65  77  73  74  75  77  79  83  84  86  89  89  91  91  93 193 196 200 203 205 207 209
210 212 214 215 218 219 221 223  98 100 100 100 100 103 105 107 109 110 111 113 115 116 117 118
119 120 121 121 123 124 125 125 127 224 224 225 227 227 228 230 232 233 233 233 234 234 236 236
237 237 238 238 238 239 240 241 242 243 244 244 245 245 246 247 249 250 250 250 251 252 252 252
252 253 253 253 254 254 254 255  96  96  96  96  96  96  96  96  97  97  96 255 255 255 255 255
 96 255 255 255 254 254 253 253 253 253 254 253 251 251 251 251 251 250 250 249 249 249 248 248
247 247 247 247 246 246 244 244 243 243 242 241 242 243 243 243 240 240 240 241 241 241 239 238
238 237 237 236 236 236 235 235 235 233 232 232 231 231 230 229 228 228 228 227 225 225 225 224
127 126 126 126 124 124 123 123 122 122 121 121 122 122 121 121 120 121 120 120 120 120 119 119
118 118 118 117 116 116 116 115 114 113 114 113 113 112 112 112 111 110 110 110 110 109 108 106
105 105 104 105 103 102 102 101 101 101 101  99  97  97  96  96  96  96 223 223 222 222 221 219
218 218 218 218 215 215 216 215
198 200 201 201 202 202 198 195 195 198 200 201 199 200 200 200 200 200 200 201 199 198 203 204
205 207 209 210 210 210 209 208 207 208 207 208 210 211 213 214 213 212 214 216 218 218 219 222
 64  67  68  69  69  72  75  78  81  81  82  86  89  90  91  91  92 192 196 200 204 205 206 207
210 213 215 215 218 219 222  96  98 100 100 101 102 104 105 107 109 110 111 112 115 116 116 117
119 120 121 121 123 124 125 125 127 224 225 226 227 227 229 230 231 233 233 233 234 234 236 236
236 237 237 238 239 239 241 242 243 244 245 245 246 246 247 247 249 250 250 250 252 252 252 252
252 253 253 254 254 254 254 255  96  97  97  97  96  96  96  97  98  98  97  96 255 255  96 255
 96 255 255 255 255 255 254 254 254 253 254 254 252 252 252 252 250 250 250 250 249 249 249 249
247 247 247 247 247 246 245 245 243 243 243 242 244 244 244 243 242 241 241 241 241 241 240 240
239 237 237 236 236 236 235 235 234 233 232 232 232 231 230 229 228 228 228 227 225 225 225 224
224 127 127 126 124 124 124 124 123 123 122 121 121 121 121 122 121 121 120 120 119 119 118 118
119 118 118 117 117 116 116 115 114 113 113 113 113 112 112 112 112 110 110 110 110 109 108 107
107 106 104 104 103 103 102 102 102 100 101  99  98  97  96  97  96  96 223 223 222 221 220 219
217 217 217 218 216 216 216 216
199 199 200 200 202 198 201 201 201 199 200 202 203 200 201 202 202 202 203 204 199 201 209 205
206 208 208 208 210 211 210 209 208 208 208 208 211 211 214 215 214 213 215 217 218 219 220 223
 66  68  68  69  71  70  78  80  80  81  83  86  89  89  91  91  94  94 196 199 202 205 207 208
209 212 213 214 218 219 222 223  98 100 101 101 103 104 105 107 109 111 112 114 116 116 117 118
120 121 122 122 124 125 126 126 127 224 225 226 227 228 229 229 232 232 233 234 236 236 237 237
237 238 238 238 240 241 242 243 244 245 245 246 246 246 247 247 250 250 250 251 253 253 253 253
253 254 254 254 255 255  96  96  97  97  97  97  97  97  97  98  98  98  97  96  96  96  97  96
 96 255  96  96  96  96  96 255 255 254 254 254 253 253 253 252 250 250 250 251 250 250 250 249
248 247 247 248 247 246 245 246 244 244 244 244 245 245 245 244 244 243 242 242 242 242 241 241
239 238 238 237 237 237 236 236 235 234 233 233 233 233 231 230 228 229 229 228 226 225 226 225
224 127 127 126 124 124 125 125 124 124 123 122 122 122 122 122 121 121 121 120 119 119 118 119
119 119 118 117 117 117 117 116 114 114 113 113 113 113 114 113 112 112 111 110 110 109 108 107
107 106 105 105 103 103 102 102 102 101 101  99  98  98  97  98  97  97  96 223 221 221 220 219
218 217 217 217 216 217 217 217
202 199 200 201 199 199 202 205 207 199 202 204 205 200 201 202 204 205 205 206 202 202 212 207
207 208 208 208 211 212 211 210 209 210 211 212 213 214 215 214 214 215 218 220 219 219 219 223
 66  68  68  69  71  74  79  81  80  81  85  87  89  89  91  94 192 192 196 199 201 205 208 208
209 211 213 214 219 220 222 223  98  99 101 102 105 105 107 108 109 111 113 114 116 117 117 119
121 122 123 123 126 125 126 127 224 225 226 226 228 229 230 230 233 233 234 234 236 236 236 237
238 239 239 239 241 241 242 242 244 245 246 246 247 247 247 247 249 250 251 252 253 253 255 254
254 255 255 255  96  97  97  97  97  98  97  97  97  98  98  98  98  98  97  97  96  97  97  96
 96  96  96  96  96  96  96  96 255 254 253 254 254 254 253 252 251 251 251 251 250 250 250 250
249 248 248 248 247 247 246 247 245 244 244 244 245 246 245 245 244 243 243 243 243 243 242 242
240 240 239 238 238 238 237 236 235 234 233 233 233 233 232 231 229 229 230 229 226 226 226 225
224 224 127 127 125 125 125 125 124 124 123 123 122 122 122 122 121 121 120 120 119 119 119 120
120 119 118 117 117 117 117 116 114 114 114 113 113 114 113 113 112 112 111 110 110 109 109 108
108 107 106 106 104 103 103 103 102 101 101 100  98  98  98  98  98  97  96 223 222 222 221 220
219 218 218 217 217 217 218 217
202 201 201 200 201 200 202 200 198 205 203 203 207 208 205 203 204 206 206 206 202 200 209 210
207 207 207 208 211 212 212 212 211 212 212 213 215 215 214 214 213 217 219 220 220 219 221  65
 67  68  69  70  70  76  80  81  82  82  88  89  90  91  92  95 193 195 198 199 203 205 209 210
211 213 215 216 220 222 222 222  98 100 102 103 106 106 108 109 111 113 115 116 117 118 119 119
122 123 124 124 127 126 127 224 225 227 227 227 229 230 232 232 233 234 235 235 237 237 237 238
239 241 241 241 242 243 243 243 245 246 246 247 248 249 249 250 251 252 253 254 255 255  96  96
 96  96  96  96  97  98  98  99  98  98  98  98  99  99  99 100  99  99  98  98  98  98  97  96
 96  96  97  97  97  97  97  97  96 255 254 255 255  96 255 254 253 252 252 252 252 252 251 251
250 249 250 249 248 247 247 247 246 246 246 245 246 246 246 246 245 244 244 244 244 244 244 243
242 242 241 240 239 239 238 237 237 236 235 235 233 234 233 232 231 230 230 229 228 227 227 227
225 225 224 224 127 127 126 126 124 124 124 123 123 122 122 122 121 122 121 121 120 121 121 121
120 119 118 117 117 117 116 116 115 114 113 113 114 115 115 114 113 113 112 111 110 111 110 109
107 106 106 106 104 104 103 103 103 102 101 101  99  99  99  98  98  97  97  97 223 223 222 221
220 219 218 218 218 218 217 216
203 200 200 200 201 200 201 201 199 201 202 204 212 211 207 203 202 203 206 206 204 204 206 205
208 210 208 207 209 210 211 212 211 212 212 214 214 216 214 212 208 220 219 220 219 219 222  65
 66  67  68  69  69  76  78  80  81  81  86  87  90  91  92  94 193 195 199 200 202 205 207 209
212 214 216 217 220 221 221 222  97 100 101 102 105 106 108 109 112 114 115 116 117 118 119 119
121 122 124 125 126 126 127 224 225 226 228 228 230 231 233 233 234 235 235 236 237 237 237 238
240 241 241 241 242 243 243 243 245 246 247 248 249 250 250 250 251 252 253 254 255 255 255  96
 96  96  97  97  98  98  98  98  98  98  98  99  99  99  99 100  99  99  99  99  99  98  98  97
 97  97  97  97  97  97  98  97  97  96  96  96 255  96  96 255 253 252 252 252 252 252 251 251
250 249 249 248 249 248 248 247 246 246 246 246 246 246 246 246 245 244 244 244 245 244 243 243
243 243 242 241 240 240 238 238 236 236 236 235 234 233 233 232 231 231 230 229 228 227 227 226
225 225 225 224 127 127 126 126 125 124 124 124 123 122 122 122 122 122 122 121 121 121 121 121
120 118 117 117 118 117 116 115 115 114 114 114 114 114 114 114 113 112 112 112 111 111 110 109
108 107 107 106 105 105 103 102 103 102 102 102 100  99  99  98  98  97  97  96 223 223 222 221
220 219 219 218 218 217 217 217
201 200 200 200 205 195 199 199 202 198 198 197  89  87 193 200 203 204 206 206 204 204 203 206
208 209 208 208 207 209 210 211 208 209 208 212 213 215 214 214 211 219 219 220 219 219 220  64
 66  67  68  69  69  76  77  78  83  84  85  87  89  89  90  94 194 198 200 202 203 202 203 211
213 215 216 217 220 221 222 223  98 100 101 102 105 106 108 110 112 114 115 116 117 118 119 119
121 122 124 125 127 127 224 225 226 226 228 229 231 231 233 233 234 235 236 237 237 237 237 238
240 241 241 241 242 243 244 245 246 247 248 248 249 250 251 251 252 253 253 254 255 255 255  96
 96  96  97  97  98  98  98  99  99  99  99  99 100 100 100 100 100  99  99  99  99  98  98  98
 97  98  98  98  98  98  98  97  97  97  97  97  96  96 255 255 253 253 253 253 253 253 252 252
250 250 250 249 249 249 249 248 247 247 247 247 246 246 246 246 245 244 244 244 245 244 243 243
243 243 242 242 240 240 239 239 237 237 236 236 235 234 233 232 231 231 230 229 228 227 228 227
226 226 225 224 127 127 126 126 126 125 125 125 123 122 121 122 122 122 121 121 120 121 121 120
120 119 118 117 118 117 116 115 114 114 114 114 114 114 115 115 114 112 112 112 111 111 110 110
108 107 107 106 105 104 103 102 103 102 102 102 100 100  99  98  97  97  97  96 223 222 221 220
220 219 219 218 218 217 216 215
200 200 199 199 202 194 198 200 201 200 200 201 209 199 197 201 202 204 205 206 204 204 204 209
209 209 209 208 208 208 209 210 209 209 210 211 213 214 214 214 216 217 219 220 220 220 221 220
 65  68  69  70  70  76  78  79  84  85  84  86  88  89  93  95 193 199 201 202 204 204 202 215
214 216 216 217 220 221 222 223  99 100 101 102 106 107 109 110 111 114 115 116 117 119 120 120
122 123 123 124 127 127 225 225 227 227 228 229 231 231 233 233 234 236 235 236 238 238 238 239
241 242 242 242 243 244 245 246 247 248 249 249 250 250 250 251 253 254 254 255  96 255 255 255
 97  97  97  97  98  99  99 100 100 100  99 100 100 100 101 101 101 100 100  99  99  98  98  99
 99  99  98  98  98  98  97  97  97  97  97  97  96  96 255 255 254 254 254 254 253 253 253 252
251 251 250 250 249 250 249 248 247 248 248 247 246 246 246 246 245 245 245 245 245 244 243 242
243 243 243 243 241 241 240 240 238 238 237 236 235 234 233 232 232 231 231 230 228 228 228 227
226 226 225 224 224 224 127 126 126 126 126 126 123 123 122 122 123 122 121 121 120 120 120 120
119 118 118 118 117 117 115 115 114 114 114 115 114 113 114 114 113 112 112 112 110 110 110 110
109 107 107 106 105 104 104 103 104 103 102 102 100 100  98  98  98  98  97  97  96 223 221 221
220 219 219 218 217 216 215 216
196 199 199 200 201 194 198 200 201 200 200 199 202 204 198 201 203 205 204 205 203 206 205 207
207 208 208 207 207 208 208 209 208 209 211 212 214 214 214 215 217 220 220 221 221 220 221 223
 74  71  72  71  71  75  78  79  86  86  87  85  87  89  95 192 194 199 200 202 205 206 205 215
214 216 216 217 220 221 222  96  99 101 101 102 106 107 110 110 111 113 115 116 118 119 120 121
122 123 124 125 224 224 225 225 227 228 229 229 231 231 233 233 235 236 236 237 238 239 239 240
242 242 243 243 244 244 245 247 248 248 249 249 250 250 251 252 253 253 254 255  96  96  96  96
 98  97  97  98  99  99 100 100 100 100 100 100 101 101 101 101 101 102 101 100 100  99  99 100
100 100  99  99  99  99  98  98  97  97  97  96 255 255 255 254 255 255 254 254 253 253 253 253
252 251 251 251 250 250 249 249 248 249 249 248 248 248 247 247 246 246 246 245 245 244 244 244
243 243 243 242 241 241 240 240 239 238 237 236 235 234 234 233 232 232 231 231 229 229 228 227
227 226 225 224 127 127 127 126 126 126 126 126 124 124 123 123 123 121 121 120 120 120 120 120
119 118 118 117 117 116 115 115 114 114 114 114 114 113 114 114 113 113 112 112 111 111 110 110
109 108 108 107 106 105 105 104 104 104 103 102 101 100  99  99  98  98  97  96 223 223 222 221
220 219 218 218 217 216 216 217
197 198 200 200 201 200 197 202 203 202 201 202 197 199 203 203 204 205 204 204 204 205 206 207
206 207 208 207 206 207 209 209 209 209 212 213 215 215 215 216 217 220 222 221 220 219 223  66
 69  71  72  73  68  76  77  81  85  87  86  87  89  92  89 192 195 198 200 201 203 205 209 212
214 216 216 218 221 222  96  96  99 101 102 102 104 110 111 111 112 113 116 117 119 119 121 122
123 124 126 126 225 225 226 226 229 229 229 230 231 232 234 234 236 237 237 238 239 240 240 241
243 244 245 245 245 246 246 248 249 250 250 250 251 251 252 253 254 254 255  96  97  96  97  97
 98  98  99  99 100 100 101 101 101 101 101 101 103 103 103 103 103 103 103 103 101 100 101 100
101 101 101 101  99  99  98  98  97  97  96  96  96  96  96  96  96  96  96 255 254 254 254 254
253 252 252 252 250 250 250 250 250 249 249 249 249 249 249 248 248 247 247 247 246 246 246 245
244 243 243 242 241 241 241 241 240 239 238 238 237 236 235 234 233 232 232 232 231 230 228 228
226 226 226 226 224 224 127 127 126 126 126 126 125 125 124 124 124 122 122 122 120 120 120 120
119 119 118 118 116 116 116 117 116 115 114 115 115 115 114 114 114 114 113 112 111 111 111 110
110 109 109 108 106 105 105 105 105 104 103 103 101 101 100 100  99  99  97  96  96  96 223 222
221 219 219 219 218 217 216 214
199 198 199 200 201 201 200 202 203 203 201 200 199 201 203 204 205 204 203 202 201 203 204 205
207 207 205 208 209 210 209 209 210 210 210 213 214 214 214 215 216 217 218 220 218 218 222  67
 68  68  69  73  78  83  82  83  84  85  86  87  93  92  91  95 193 197 200 202 204 205 210 211
213 215 215 217 221 222  96  96  99 101 102 102 105 110 110 111 112 114 116 117 118 118 121 122
124 124 126 127 225 226 226 227 229 229 230 231 232 232 234 235 236 237 238 239 240 241 241 241
243 244 244 244 244 244 247 248 248 249 250 251 252 252 253 254 254 254 255  96  97  97  98  98
 99  98  99 100 101 101 101 101 101 102 102 103 103 103 104 103 103 104 104 103 102 102 102 101
101 102 101 102 100 100  99  98  98  97  97  97  97  97  96  97  96  96  96  96 255 255 255 254
253 253 253 252 251 251 251 250 251 251 251 250 250 250 250 250 250 249 248 247 246 246 246 246
245 243 243 242 242 242 241 240 240 239 239 238 237 236 235 235 234 233 233 232 231 231 229 229
227 227 226 226 224 224 127 127 127 126 126 126 125 125 124 124 123 123 122 122 120 120 120 120
119 119 118 117 117 117 117 117 117 116 115 116 115 115 115 114 114 114 113 112 111 111 111 110
111 110 109 108 105 105 105 105 104 103 102 102 101 101 100 100  99  99  97  96 223 223  96 223
221 220 220 219 217 217 217 216
198 200 200 201 204 203 201 201 202 202 202 199 201 202 203 203 202 203 203 200 200 204 204 205
206 205 206 208 210 211 210 209 210 210 212 214 215 213 213 215 216 216 217 219 220 218 221  69
 68  69  71  74  76  79  81  82  82  84  87  88  94  93  93  95 194 199 201 202 205 206 211 213
214 215 216 217 222 223  96  96  98 101 102 103 107 109 111 112 113 114 115 116 119 119 121 122
124 125 125 126 225 225 227 228 229 229 230 231 232 233 234 235 237 238 239 240 240 241 241 242
243 244 244 245 245 246 247 248 249 251 251 251 252 253 253 254 255  96  96  97  98  98  98  98
 99  99 100 100 102 102 102 102 102 102 102 103 103 104 105 104 103 104 104 103 102 103 103 103
102 103 102 103 101 100  99  99  98  98  98  98  98  98  98  98  97  97  96  97  96  96  96 255
254 254 254 253 252 252 252 251 251 251 251 250 250 250 251 251 250 249 249 248 247 247 246 246
245 244 243 243 242 242 241 241 240 240 240 239 238 237 235 235 235 233 233 232 231 231 230 230
228 228 227 226 226 225 127 127 127 127 126 125 125 125 125 124 124 124 123 122 121 120 120 120
119 119 118 117 117 117 117 118 117 116 116 116 115 115 115 114 113 113 113 112 111 111 111 111
111 109 108 107 106 106 106 105 104 103 103 103 102 102 100 100  99 100  98  97  96  96 223 223
222 221 221 220 219 218 218 218
199 201 203 204 201 202 200 197 201 202 201 200 202 203 204 203 200 204 204 208 211 207 207 206
206 206 206 209 211 211 210 209 209 209 214 214 215 214 213 215 216 217 216 218 220 219 223  68
 69  69  72  73  77  80  82  81  81  86  86  87  93  94  94  94 193 200 201 202 205 206 210 213
214 216 217 218 223 223  97  97  99 101 102 104 107 109 111 112 114 115 116 117 119 119 121 123
124 125 126 126 225 226 227 229 229 229 231 232 233 234 235 235 236 238 240 241 241 241 242 242
243 244 244 245 246 247 247 248 250 251 252 252 252 254 254 255 255  96  96  97  98  99  99  99
100 100 100 101 101 102 102 103 102 103 103 103 104 104 105 105 104 104 104 104 104 104 104 104
103 103 102 102 102 101 100  99  99  99  99  98  99  99  99  99  98  98  97  97  96  96  96 255
255 254 255 254 253 252 252 252 251 251 251 251 250 250 251 251 250 250 249 248 248 247 247 246
246 244 244 244 242 242 242 242 241 240 240 239 238 237 236 236 235 234 234 233 232 232 230 230
229 229 227 227 226 225 127 127 127 127 126 125 125 125 124 123 123 123 123 122 122 121 121 120
120 119 118 117 117 117 117 117 117 116 116 117 115 115 114 114 113 113 113 112 111 111 111 111
111 110 109 108 107 106 106 105 105 104 104 104 103 103 101 101  99 100  99  98  96  96 223  96
222 222 221 220 220 219 218 217
200 203 204 205 204 200 199 202 197 201 202 203 204 204 203 203 201 202 205 207 209 208 207 207
207 207 208 209 211 211 212 212 211 211 214 215 216 216 216 216 218 219 219 219 220 221  64  69
 69  71  72  73  76  78  80  81  82  86  86  86  92  93  94  95 194 198 201 202 203 203 212 212
213 214 217 220 223  96  97  98 100 101 102 105 108 109 110 113 115 116 117 118 119 120 121 123
125 125 126 127 226 227 228 228 229 230 231 232 234 235 237 237 238 239 240 241 242 242 242 243
244 245 245 246 248 248 249 249 251 252 253 253 254 254 255 255 255  96  98  99 100 100 100 100
101 101 102 102 103 103 104 104 104 104 104 105 105 105 106 106 106 105 105 105 106 106 106 105
104 104 103 103 102 101 100 100 100 100 100 100 100 100 100 100  99  99  99  99  98  97  97  97
 96  96  96  96 255 254 253 253 253 252 252 251 251 251 251 251 250 250 250 249 249 248 247 247
246 246 245 245 243 244 243 243 241 240 240 239 239 238 238 237 236 235 235 234 232 232 231 231
230 229 228 227 227 226 225 224 127 127 127 126 125 125 125 124 123 123 123 122 122 122 121 120
119 119 119 118 118 118 117 117 117 117 117 116 115 115 115 115 114 114 113 112 111 111 111 111
111 110 109 109 108 107 106 106 105 105 105 105 104 103 103 102 101  99  98  98  97  96  96  96
223 223 222 222 222 220 219 218
204 199 198 197 195 199 199 200 200 200 202 202 203 203 202 202 202 202 204 203 206 208 205 204
205 205 208 209 209 211 212 212 211 211 212 214 215 215 214 214 221 218 218 219 218 221 223  64
 68  70  70  73  76  77  79  81  86  82  86  89  90  93  94  95 192 197 201 202 203 202 211 211
213 214 217 220 223 223  97  98 101 101 103 104 107 108 110 113 115 116 117 118 119 120 122 124
125 126 127 127 226 228 228 228 229 230 231 232 234 235 237 237 239 239 240 241 242 242 243 244
244 245 246 247 248 249 249 249 250 251 252 253 253 254 255 255  96  96  97  98 100 100 100 100
101 101 102 102 103 103 104 104 104 104 104 105 106 106 106 106 106 106 106 106 106 106 106 106
105 104 104 104 102 102 101 101 101 100 100 101 101 101 100 100  99  99  99  99  98  97  97  97
 96  96  96  97 255 255 253 253 253 253 252 252 252 251 250 250 249 249 249 249 249 248 247 247
246 246 245 244 243 244 244 243 242 240 240 239 239 238 238 237 236 235 235 234 233 232 231 231
230 228 228 227 226 225 225 224 127 127 127 127 125 125 125 124 123 123 123 122 122 121 121 120
119 119 118 118 118 118 117 117 117 117 117 116 115 115 115 114 115 114 113 113 112 111 111 111
111 109 109 108 107 106 105 106 105 105 105 105 104 104 103 102 101 100  99  99  97  97  96  97
223 222 222 222 221 220 219 219
199 200 199 198 198 198 199 201 201 202 200 199 203 203 200 203 205 205 202 203 204 205 205 205
204 203 207 209 211 210 210 209 209 209 210 213 214 215 214 212 215 218 219 220 220 221 222 222
 67  69  70  72  74  75  80  84  84  84  86  88  92  93  94  95 193 196 200 201 203 204 212 213
213 215 217 221 222 223  96  98 100 101 102 104 107 108 110 112 115 116 118 119 119 120 122 124
127 224 224 224 227 228 228 228 230 232 233 233 234 234 237 238 239 239 240 241 242 243 243 244
244 246 246 247 248 249 249 250 251 252 253 254 254 255 255 255  96  97  98  99 100 101 101 102
102 102 102 103 105 105 104 104 104 105 105 105 107 107 107 106 106 106 106 107 107 107 106 106
105 104 104 104 104 103 103 103 103 101 101 102 102 101 101 101  99  99  99  99  99  98  98  98
 97  97  97  97  96 255 254 254 254 254 253 253 253 253 252 251 250 250 250 250 249 248 247 247
246 246 245 244 244 244 244 243 242 242 241 240 239 238 238 237 236 235 235 234 232 232 232 232
230 228 228 227 227 227 226 225 224 224 127 127 126 125 124 124 123 123 123 122 122 121 121 120
120 119 119 119 118 118 118 118 118 117 117 116 116 116 115 115 114 113 113 113 112 111 112 111
110 109 108 108 108 108 106 106 105 105 105 105 104 103 103 102 101 100  99  99  98  98  98  97
223 222 222 222 221 220 219 219
197 200 200 200 199 197 198 200 201 202 202 205 206 206 203 203 204 204 205 204 205 206 208 206
205 205 212 211 211 209 209 209 209 209 209 213 215 216 218 218 216 217 219 220 221 222 221 222
 67  69  71  73  75  76  80  85  84  85  87  88  92  93  94 192 194 197 199 201 205 206 212 212
213 216 218 221 223 223  96  98 100 102 103 105 108 109 111 112 115 116 117 118 120 121 123 125
127 224 224 225 227 228 229 229 230 232 233 233 234 235 237 238 239 239 240 241 242 243 244 244
245 246 246 247 249 249 249 250 251 253 253 254 255 255  96  96  98  98  99  99 101 101 102 103
103 103 103 104 106 106 105 105 105 105 106 106 107 107 107 106 105 105 106 107 107 107 107 106
106 105 105 105 105 105 104 104 103 103 103 102 103 102 101 102 100 100 100 100  99  98  98  98
 98  98  98  98  97  96 255 255 254 254 254 253 253 253 253 252 251 250 250 250 249 249 248 248
247 247 246 245 244 244 244 244 243 243 242 241 240 239 239 238 236 236 236 235 233 233 232 232
231 229 229 228 227 227 226 225 225 224 127 127 126 125 124 124 123 123 123 122 122 122 121 121
121 120 119 119 119 119 118 118 118 117 117 116 116 116 115 115 114 114 113 112 113 112 113 112
110 109 109 108 108 108 107 107 106 106 105 105 104 103 103 102 101 100  99 100  98  98  98  96
222 222 222 222 221 221 219 220
198 200 201 201 200 198 199 201 202 204 204 206 205 204 204 204 203 203 207 206 206 207 209 208
208 208 213 212 212 210 210 210 210 211 211 213 215 217 219 220 219 220 219 220 220 222 223 223
 66  70  72  74  76  78  81  85  85  86  87  88  93  95  95 193 195 198 200 202 206 207 211 213
214 217 218 221 223  96  96  99 101 103 103 104 109 110 112 113 115 117 118 119 121 122 123 125
127 224 225 226 227 228 230 230 231 232 233 234 235 236 237 238 239 240 241 241 243 244 245 245
246 247 247 248 249 250 250 251 252 254 254 255  96 255  96  97  99  99 100 100 102 102 103 103
104 104 104 105 106 105 105 105 105 106 106 107 107 107 107 107 106 106 106 107 108 108 108 107
106 106 105 105 105 106 105 105 104 104 104 103 103 103 102 102 100 101 100 100  99  99  99  99
 99  99  98  98  97  96 255 255 254 254 254 253 253 253 253 253 252 251 251 251 250 250 249 249
248 247 246 246 245 245 245 244 243 243 243 242 241 240 240 238 237 236 236 235 234 234 233 233
231 230 229 229 228 227 226 226 226 225 224 224 127 126 124 124 124 123 123 122 121 121 121 121
121 120 120 120 119 119 118 119 118 117 117 117 117 116 115 114 113 114 114 113 114 113 113 112
110 109 109 109 109 108 107 107 106 106 106 105 105 104 103 102 101 100 100 100  98  98  98  97
222 222 222 222 221 221 219 220
201 200 202 203 201 200 199 201 202 204 204 205 204 204 204 202 203 203 205 206 206 208 210 208
208 207 211 211 211 209 210 210 212 212 213 215 218 219 219 219 218 220 220 220 220  64  65  66
 66  68  72  74  77  78  83  85  85  86  87  87 194 192 193 194 198 199 201 204 208 209 213 214
215 216 219 222  96  97  98  99 101 104 105 106 110 111 112 113 116 118 120 120 122 122 123 124
127 224 226 227 228 229 231 231 232 233 234 235 236 237 237 238 239 240 242 243 244 245 245 246
248 248 249 250 251 252 252 252 253 255  96  96  97  96  97  98  98  99 101 102 102 103 103 104
105 105 106 106 106 107 107 106 106 106 107 107 108 108 109 109 107 107 107 108 109 109 109 109
108 108 107 106 106 107 106 106 106 106 106 105 105 105 104 104 102 103 103 102 101 101 100 100
 99  99  99  99  99  99  98  97 255 255 255 255 255 254 254 254 254 253 253 252 251 250 250 250
249 249 248 248 246 246 245 244 244 243 243 243 242 241 241 239 237 236 236 236 235 235 234 234
232 231 231 230 229 229 228 227 225 224 224 224 127 127 125 124 123 124 124 123 123 122 122 122
121 120 120 120 119 119 119 119 118 117 117 117 117 117 117 115 114 114 115 114 113 113 112 112
110 111 111 111 110 110 109 108 107 107 106 106 105 105 104 103 101 100  99  99  98  98  97  97
223 223 222 222 220 220 219 218
197 199 201 201 201 201 201 201 200 202 203 203 201 201 201 203 202 204 204 205 205 205 207 207
205 205 209 208 210 211 210 211 210 213 214 215 218 218 218 217 215 217 220 219 218 223  64  65
 67  68  69  74  78  79  82  83  85  86  87  87 193 192 193 195 198 199 202 205 208 209 212 213
213 216 218 221 222  97  98  99 100 102 104 105 108 109 111 114 116 117 119 119 121 123 124 124
127 224 226 227 227 228 230 231 232 233 234 235 236 237 238 239 240 241 242 243 245 245 246 247
248 249 249 250 251 252 252 253 254 255  96  97  97  96  97  97  98  99 101 102 103 103 104 104
105 106 106 107 107 106 107 107 107 107 108 108 108 109 108 109 108 108 108 109 109 109 109 109
108 108 106 106 106 107 107 106 106 106 106 105 105 105 105 104 103 103 103 102 101 100 100 100
 99  99  99  99  99  99  98  98  96 255 255 254 254 254 254 254 253 253 252 252 251 251 250 250
250 249 248 247 246 246 245 244 243 242 242 243 242 241 240 238 237 237 237 236 235 234 233 233
232 232 231 230 229 229 228 227 225 225 224 224 127 126 125 124 123 123 123 123 123 122 121 121
120 120 120 119 119 119 119 119 118 117 117 117 117 117 116 115 114 114 115 114 112 112 112 111
110 110 111 110 110 109 108 107 107 107 106 105 105 104 103 103 101 101 100  99  99  98  98  97
 96 223 221 221 221 220 220 219
196 198 199 199 201 200 200 200 200 200 200 201 201 201 202 200 199 202 202 204 205 206 206 204
201 201 207 210 211 210 210 209 209 214 215 215 215 215 215 215 214 217 221 221 216 222  65  66
 68  67  69  74  77  78  82  84  84  86  87  89  93  94  95 195 198 198 201 205 209 211 213 213
215 216 218 222 223  96  98  99 100 102 103 104 108 109 112 114 115 118 119 119 121 123 124 123
126 127 225 226 227 229 230 231 232 234 235 235 236 237 238 239 240 241 242 243 245 245 247 248
248 249 249 250 251 252 252 253 255  96  96  97  97  97  98  98  99 101 101 102 103 103 104 105
106 107 108 108 108 108 109 108 108 108 108 109 109 109 108 109 109 109 108 109 109 109 108 109
109 108 107 107 108 108 108 107 106 106 107 106 106 106 106 106 105 104 104 103 102 102 102 102
101 100 100 100 100 100  99  98  97  96  96  96  96 255 254 254 254 253 253 253 251 251 251 250
250 249 249 248 247 246 246 245 243 243 243 242 242 241 240 239 238 238 237 236 235 234 233 233
232 232 232 231 229 229 228 227 225 225 225 224 127 127 126 125 124 124 124 123 123 123 122 122
121 120 120 119 120 119 119 119 118 117 117 117 116 117 116 116 115 115 114 113 112 112 111 111
111 111 111 111 110 109 108 108 107 107 106 105 104 104 103 103 101 101 100  99  98  97  97  97
223 222 221 221 221 220 220 220
198 198 199 199 200 201 199 198 199 200 201 200 202 202 202 204 206 201 202 207 209 207 206 204
206 210 218 212 212 211 210 210 210 213 216 215 213 212 213 214 215 217 220 222  64  68  66  67
 69  70  71  74  76  77  81  83  85  85  87  89  94  94  94 195 197 199 202 205 209 211 213 214
215 217 218 222  96  96  98  99 100 102 104 106 108 109 112 113 114 117 118 119 120 122 124 124
126 127 225 225 227 229 230 232 233 234 235 235 235 238 239 240 241 241 242 243 245 245 247 248
248 249 250 250 252 252 252 253 255  96  96  97  98  98  98  99 100 101 102 103 103 103 105 106
106 107 108 108 109 109 109 109 109 109 109 109 109 109 108 109 110 110 109 109 109 109 109 110
110 109 108 108 108 108 109 108 107 107 107 107 107 107 106 106 106 105 104 104 103 103 102 102
102 101 100 100  99  99  99  98  97  97  97  96  96  96 255 254 254 253 253 253 252 251 251 250
250 250 249 248 246 246 246 245 243 243 243 242 242 241 240 239 238 238 237 237 235 234 234 233
232 232 232 231 229 229 228 228 226 225 225 224 127 126 126 125 124 123 124 123 123 123 122 122
121 121 120 119 120 119 119 119 118 117 117 117 116 117 117 117 115 115 114 114 112 111 111 111
111 111 111 110 109 109 108 108 108 107 106 106 104 103 103 103 102 102 101 100  99  98  97  97
223 222 221 221 221 221 220 220
199 199 199 200 202 200 200 199 200 201 203 202 203 204 205 205 203 203 204 199 199 198 205 206
207 206 201 205 211 212 210 209 212 212 217 216 215 215 215 216 217 219 221 222  65  65  67  68
 70  72  72  74  75  78  81  85  86  86  89  91  93  93  93 195 197 200 203 206 208 211 212 215
216 217 219 221  96  96  98  99 101 104 107 108 109 110 112 113 114 116 118 119 121 122 124 125
127 224 226 227 228 229 231 232 234 235 236 236 238 238 240 241 241 241 242 243 246 246 249 249
248 250 250 251 252 253 254 254  96  96  97  97  98  99 100 101 102 103 103 103 104 104 106 106
106 107 108 108 109 109 109 109 109 110 110 109 109 109 109 109 110 111 111 112 111 110 110 111
110 110 110 110 110 109 110 109 109 109 109 109 108 107 106 106 106 106 106 105 104 104 104 104
103 102 102 101 100 100  99  99  98  98  98  97  97  97  96 255 255 254 254 254 252 251 251 250
250 249 249 248 248 248 247 246 244 244 243 243 242 242 241 240 239 239 237 237 235 235 235 234
234 233 232 231 231 230 229 228 227 226 226 225 224 127 127 127 126 125 124 124 123 123 122 122
121 121 121 121 120 119 119 119 119 118 117 117 117 117 117 116 115 115 114 113 112 112 112 111
111 111 110 110 110 110 109 109 108 108 108 107 105 104 104 104 103 103 102 102 100  99  98  98
 97  97 223 222 220 220 220 221
198 198 198 198 198 201 201 200 199 200 201 201 201 202 203 203 202 204 204 203 202 204 205 204
206 207 207 207 209 211 208 210 210 212 215 214 214 215 215 216 217 219 220 221 221 222  66  68
 71  71  71  72  78  80  85  87  86  86  90  93  95  90  92  94 195 198 205 208 209 207 211 214
216 220 220 222 223  97  98 100 102 103 106 107 108 110 112 112 113 115 117 119 121 122 125 126
224 225 226 227 229 229 231 232 234 235 236 236 238 238 241 241 242 242 243 244 245 246 247 248
248 249 250 251 252 253 254 254 255 255  96  96  98  99 100 100 102 103 103 103 105 105 106 106
107 107 108 108 109 110 110 109 109 110 110 109 110 110 111 111 110 111 111 111 111 112 112 111
111 110 110 110 109 109 110 109 110 110 110 109 108 107 106 106 107 108 107 107 106 105 103 103
103 102 102 101 101 100  99  99  98  99  98  98  97  98  97  96 255 254 255 255 253 252 251 250
250 249 249 248 247 248 247 246 245 244 243 243 242 243 241 240 238 238 238 237 236 235 235 234
233 232 231 231 230 230 230 229 227 226 225 224 224 224 127 127 126 126 125 125 123 123 122 122
121 120 120 120 120 119 119 119 119 118 117 116 116 116 116 116 115 115 115 114 113 112 112 111
111 110 110 110 110 110 109 109 109 109 108 107 106 105 104 103 103 103 102 102 100  99  98  98
 96  96 223 222 221 221 220 222
196 196 196 197 199 203 202 201 200 201 200 201 202 202 203 202 202 203 203 203 204 205 205 205
205 206 206 207 210 209 213 207 209 210 213 214 214 214 216 216 216 218 219 220 221 221  64  66
 67  69  69  73  77  77  82  87  84  83  80  80  84  89  91  94  94 193 197 204 207 208 211 215
217 220 220 222 223  96  98 100 102 104 106 106 107 111 112 113 114 116 118 119 121 122 125 126
224 225 226 227 229 229 231 232 234 235 236 237 237 239 240 241 242 242 243 244 246 247 248 248
248 249 251 251 252 253 254 255  96  96  96  97  99 100 100 100 102 103 103 103 105 105 106 105
106 107 108 108 109 110 110 109 110 110 110 110 111 111 112 112 111 111 111 112 112 112 111 111
110 110 110 111 110 110 111 110 110 110 110 109 109 108 107 107 108 108 108 107 106 106 104 104
103 102 102 101 101 100 100 100  99  99  98  98  97  98  97  96 255 255 255 255 253 252 252 251
250 249 249 248 248 248 248 247 246 245 244 243 242 243 241 240 239 239 238 237 235 235 235 234
234 232 232 231 231 230 229 228 227 226 225 225 224 224 224 127 126 125 125 125 123 123 122 121
121 121 121 120 120 119 119 119 118 118 117 117 116 116 115 115 115 115 115 114 113 112 112 112
111 111 110 111 110 110 110 110 109 108 108 108 107 106 105 104 104 103 102 102 100  99  98  97
 97  96 223 222 221 221 221 222
197 197 197 198 199 201 200 200 199 200 200 200 200 201 201 202 203 204 204 204 206 203 204 205
207 208 205 207 209 210 210 210 209 213 214 215 213 215 215 216 217 216 217 219 221 222  64 220
221  67  72  75  78  75  78  84  84  86  86  86  91  93  94 192 196 199 200 202 207 210 211 214
217 219 221 221 223  97  98 101 102 103 106 106 107 111 113 114 115 117 118 119 121 122 125 126
224 225 226 227 228 229 231 233 235 236 236 237 238 239 241 241 243 243 244 244 246 247 248 249
249 250 250 250 252 253 255 255  97  97  97  98 100 101 101 101 102 102 103 103 104 104 106 106
107 108 108 108 109 110 110 110 110 110 111 111 112 113 113 113 112 112 111 112 112 112 112 112
111 111 111 111 112 112 112 112 110 110 110 110 109 108 108 109 109 109 109 109 108 107 105 104
104 103 103 103 102 102 101 101 100 100  99  99  98  98  97  97 255 255  96  96 254 253 252 251
251 251 250 249 248 248 248 247 247 245 245 244 243 243 241 240 239 238 239 238 236 236 235 234
234 234 232 231 231 231 230 229 228 227 227 226 225 225 224 224 126 125 125 124 123 123 122 121
121 121 121 120 119 119 119 119 118 117 116 116 116 115 116 116 116 115 115 115 113 114 114 113
112 111 112 112 110 110 110 109 108 108 108 108 106 106 105 104 103 102 102 101  99  99  98  98
 97  96  96  96 222 222 222 222
199 197 197 198 199 199 200 199 200 200 201 200 199 202 203 204 204 205 205 205 205 204 204 204
208 208 204 206 211 211 210 211 210 214 215 216 214 215 215 215 217 217 218 219 222 223 223 222
 65  69  74  76  78  77  79  81  84  87  87  88  92  93 192 194 197 201 201 200 208 210 211 213
216 218 220 221  96  97  98 100 102 102 105 106 109 111 113 114 116 116 118 119 122 123 125 126
224 225 226 227 228 229 232 233 235 235 237 238 238 240 240 242 243 244 244 245 246 247 248 248
249 250 251 252 253 253 255 255  97  97  98  99 100 102 102 102 102 102 102 103 104 104 105 106
107 108 108 108 110 110 111 111 110 110 111 112 112 113 113 113 112 112 111 111 113 113 112 112
112 111 111 112 112 112 112 113 111 111 111 110 110 110 110 110 110 109 109 109 108 107 106 105
104 104 104 103 102 102 101 101 101 100  99  99  98  98  98  97 255 255  96  96 253 253 252 252
252 251 250 249 248 248 248 248 247 246 245 244 243 243 242 241 240 239 239 238 237 236 235 235
234 233 233 232 231 230 230 229 228 227 227 226 225 225 224 127 126 125 125 124 123 123 122 122
121 121 121 120 120 119 119 119 118 117 116 116 116 115 116 116 116 115 115 115 113 113 114 113
112 112 111 112 110 110 109 109 108 108 108 108 106 105 105 104 103 102 101 100  99  99  98  98
 96  96  96  96 222 222 221 221
198 198 198 198 199 197 198 199 200 200 200 199 204 204 203 204 204 206 206 205 205 203 206 207
208 209 205 207 211 210 211 210 211 214 214 215 213 214 214 217 218 219 219 221 223 223  64  65
 67  69  74  76  79  78  79  81  84  88  89  90  90  93 192 193 197 199 202 205 207 209 211 213
216 219 220 221  96  97  99 100 102 103 104 105 110 111 113 115 117 117 119 120 123 123 125 126
225 226 226 227 230 231 233 233 235 236 237 238 239 240 241 242 244 245 244 245 247 248 249 249
250 251 252 253 254 254 255  96  98  98  98  99  99 100 101 102 102 103 103 104 105 105 106 107
109 109 110 110 110 111 112 112 112 111 111 112 113 113 113 113 112 112 112 112 113 113 114 114
114 113 113 114 114 114 113 114 114 113 112 111 112 111 112 112 111 110 110 110 109 108 108 107
106 106 106 105 103 103 103 103 102 101 101 100  99 100  98  98  96  96  96 255 254 253 254 253
252 251 251 250 249 249 249 248 248 247 247 246 245 244 243 242 241 240 239 239 238 237 237 236
235 233 233 232 231 231 230 230 229 227 227 227 226 225 224 127 127 125 124 124 123 123 123 123
121 121 121 121 120 120 120 120 119 117 117 116 116 116 116 116 116 116 115 114 113 114 115 114
113 113 113 112 111 110 109 108 108 108 108 107 106 105 104 104 104 103 101 101 100  99  98  99
 98  98  97  96 223 223 222 222
200 197 197 197 197 196 198 199 201 200 200 201 203 203 203 204 204 204 206 205 205 205 207 207
208 207 210 208 208 208 210 209 211 213 213 213 213 214 214 215 217 218 218 219 222 222  64  66
 67  69  73  75  77  77  78  80  83  87  88  90  92  93  93 192 195 199 202 205 206 207 211 213
216 217 219 220 223  97  98 100 102 103 104 106 109 111 112 114 116 117 118 119 122 123 125 126
224 226 226 227 230 231 232 233 234 236 237 238 239 240 240 242 244 245 245 246 247 248 249 249
250 251 253 254 255 255 255  96  98  99  99  99 100 100 101 101 103 103 104 104 105 105 107 107
108 109 110 110 110 111 113 113 113 112 112 112 113 114 114 113 113 113 114 114 114 114 115 115
114 114 114 114 114 114 115 114 114 114 113 113 113 113 113 113 111 110 110 110 109 108 108 107
106 107 107 106 104 104 104 104 103 102 101 100 100  99  98  98  98  97  97  96 255 254 254 253
252 251 251 250 249 249 248 248 248 247 246 246 244 244 244 243 242 241 240 239 237 237 238 237
235 234 233 232 231 231 230 230 229 227 227 227 226 225 224 127 126 125 124 124 124 124 123 123
121 121 121 121 121 120 120 120 119 118 118 118 117 116 115 115 116 116 115 114 113 114 114 114
113 113 113 113 111 110 109 109 109 109 108 108 106 105 104 104 103 102 101 101 100  99  99  98
 97  96  96 223 223 223 222 223
197 199 199 198 197 198 199 199 200 199 200 203 203 204 205 205 206 205 204 203 205 208 209 207
208 208 209 209 209 210 209 208 210 212 210 212 214 215 215 216 218 218 219 219 222 222  64  67
 68  72  74  75  75  77  78  80  82  86  88  90  93  94  95 194 194 201 203 204 207 208 211 213
216 217 219 221 223  98  99 100 102 104 106 107 110 111 113 114 116 117 119 120 121 122 125 126
225 226 227 228 230 231 232 233 235 237 238 238 240 240 241 242 244 245 245 246 248 248 250 250
251 252 253 254 255 255 255  96  98  99  99  99 100 100 101 102 103 104 104 104 106 106 106 106
108 109 110 110 110 111 113 113 113 112 112 112 114 115 115 114 114 114 115 115 115 115 116 116
116 116 116 115 115 115 115 115 115 115 115 114 113 113 114 114 112 111 111 110 110 110 110 109
107 107 108 107 105 105 105 104 104 102 101 100 100  99  99  99  98  98  97  96 255 255 254 254
253 252 251 251 250 250 249 248 248 247 247 246 245 245 244 243 242 242 240 239 238 238 238 237
236 234 233 233 231 231 230 230 229 227 228 227 226 225 225 224 127 125 125 125 124 124 123 123
122 121 121 121 121 121 120 120 119 118 118 117 116 116 115 115 116 116 115 115 114 115 114 114
113 112 112 113 111 110 109 109 109 109 108 108 107 106 105 105 103 103 102 102 100 100  99  98
 97  97  97  96 223 223 222 222
200 200 201 198 199 201 201 200 199 200 201 202 205 204 204 204 206 206 203 204 206 210 210 207
208 207 206 210 211 212 210 208 208 211 215 214 214 216 216 217 217 217 220 220 220 221  65  68
 69  72  74  75  76  76  79  80  82  85  87  90  91  94  94 193 192 204 204 205 209 210 212 214
216 217 219 221  96  98  99 100 102 104 106 108 111 111 113 115 117 118 119 119 122 123 125 126
224 226 228 229 230 230 232 234 236 237 238 239 240 241 241 243 245 245 246 247 248 249 250 251
252 253 253 254 255 255  96  96  98  99  99 100 100 100 101 102 103 104 104 104 106 107 107 107
109 109 110 110 111 112 113 112 113 113 113 113 115 116 116 115 115 115 116 116 116 116 116 117
117 117 117 116 116 116 116 116 116 116 115 115 114 114 114 114 113 112 112 111 111 111 111 110
108 108 108 107 106 105 105 105 105 103 102 101 100 100 100  99  99  98  98  97 255 255 255 255
253 252 252 252 251 250 249 249 248 248 247 246 246 245 244 244 243 243 241 240 238 238 238 238
236 234 234 233 232 232 231 231 229 228 228 227 226 225 225 224 224 126 126 125 123 124 124 124
122 122 121 121 121 120 120 120 120 119 118 117 117 116 116 115 117 117 116 116 115 114 113 113
113 112 111 112 111 110 109 109 109 108 108 108 107 107 106 105 103 103 102 101 100 100 100  99
 97  96  97  97 223 223 222 221
199 200 201 201 200 200 200 200 200 202 204 206 206 205 204 204 205 208 202 203 215 209 209 208
207 206 205 208 210 211 212 209 210 213 214 215 217 217 217 218 219 217 219 223 222 220 223  67
 68  71  73  75  78  79  79  80  81  82  83  84  91  92  95 194 194 203 203 205 210 212 214 215
217 219 220 222  96  97  99 101 103 105 106 107 110 111 114 116 118 119 120 120 123 124 125 127
225 226 228 229 231 231 233 234 236 237 238 239 241 242 243 244 246 247 248 248 249 249 251 252
253 254 254 255  96  96  96  97  98  99  99  99 100 101 102 103 104 105 105 105 106 108 108 108
109 109 111 111 113 113 113 113 114 114 114 114 115 115 116 115 116 116 117 117 117 117 117 118
118 118 118 118 117 117 117 118 118 118 117 116 116 116 115 115 115 115 115 114 112 112 112 111
109 108 108 108 107 107 106 106 105 104 104 103 102 101 101 100  99  99  98  97  96  96 255 255
254 253 253 253 251 251 249 249 249 248 248 247 245 245 244 244 244 243 242 241 239 239 239 238
237 236 235 234 234 233 232 231 230 228 228 227 226 225 225 224 127 126 126 125 124 124 124 124
123 123 123 122 121 120 120 120 119 118 119 118 118 118 117 117 117 117 117 116 115 114 114 114
113 112 112 112 110 109 109 109 109 108 107 107 107 107 107 107 106 105 103 102 100 100 101 100
100  99  98  98  96  96 222 223
198 200 200 200 199 200 199 199 199 202 203 205 205 203 202 202 205 205 202 205 212 208 209 206
205 205 206 207 209 210 209 211 212 211 214 213 215 215 215 216 217 217 218 221 219 220  64  66
 67  69  71  76  78  79  78  79  82  82  84  86  90  92  94 192 193 202 203 204 209 211 214 215
217 218 219 220 223  96  99 101 103 104 105 106 109 110 113 115 117 119 120 121 123 124 126 127
224 226 228 229 231 231 232 234 236 237 238 239 241 242 242 244 246 247 248 248 249 249 251 252
253 254 254 255  96  96  97  97  98  99  99  99 100 100 102 103 105 105 105 105 106 108 109 108
109 110 111 111 113 113 114 114 114 114 114 114 115 116 116 115 116 116 117 118 117 117 117 117
117 118 118 118 118 118 118 118 118 118 117 116 116 116 116 115 115 115 115 114 113 113 113 112
109 109 108 108 107 107 107 106 105 104 104 103 102 101 101 100  99  99  99  98  97  96 255 255
254 254 254 253 252 251 249 249 248 248 248 247 245 244 244 244 243 243 242 241 239 238 238 237
236 235 234 234 234 233 232 231 229 228 228 227 225 225 224 127 127 126 125 124 124 124 123 123
123 123 123 122 121 120 120 119 119 119 119 119 118 118 117 117 117 116 116 115 114 114 114 114
113 112 112 112 109 109 108 109 108 108 107 107 107 107 107 106 105 105 103 102 100 100 101 100
100  98  97  97 223 223 223 222
199 200 200 200 199 200 199 200 200 201 203 207 206 204 202 202 204 199 207 205 205 208 207 205
205 205 207 208 209 208 209 211 213 213 214 214 215 215 215 215 215 217 219 220 222 222  64  67
 68  69  70  73  76  76  78  80  86  87  87  87  91  92  93 194 196 199 202 205 209 211 212 214
217 219 220 221 223  96  99 101 103 104 105 106 108 110 112 115 118 119 120 121 124 124 126 127
225 226 228 229 231 231 233 235 236 236 238 239 241 242 242 244 245 247 248 248 249 249 251 252
254 254  96  96  96  96  97  98  99  99  99 100 101 101 103 104 105 105 106 106 107 107 109 109
110 110 111 111 112 112 114 113 114 114 114 115 115 116 116 116 117 117 118 119 119 118 118 117
118 119 119 119 118 118 118 119 118 118 118 117 117 117 117 117 116 116 116 115 114 113 113 112
110 110 110 109 108 107 107 107 105 105 104 103 102 101 101 101 100  99  99  98  96  96 255 255
255 254 254 253 252 251 249 249 248 248 248 247 245 245 244 244 243 242 242 242 240 240 238 238
236 235 234 234 234 233 232 231 230 229 228 227 226 225 224 224 127 125 125 125 125 124 124 123
123 123 123 122 121 121 121 120 119 119 119 119 119 118 118 118 117 116 115 114 113 113 114 114
113 112 111 112 109 109 108 109 108 109 108 108 106 106 106 105 104 104 103 103 102 101 101 100
 99  98  97  96 223 223 222 221
198 199 199 199 199 199 201 200 200 201 203 206 204 203 201 202 204 203 204 204 203 207 206 206
206 207 209 211 211 210 210 211 213 213 215 215 216 214 214 216 216 217 220 221 222 223  66  67
 68  69  71  74  76  75  78  81  91  90  90  89  91  91  92 193 196 199 203 206 209 211 211 214
217 219 220 221 223  96  98 100 103 104 105 106 110 111 113 115 118 119 120 121 124 125 126 127
224 226 228 229 231 231 233 235 236 237 238 239 241 242 243 244 245 247 248 248 250 250 251 253
254 255  97  97  97  96  98  98 100  99  99 100 101 101 102 103 104 105 105 106 107 107 108 108
109 111 112 112 112 112 114 114 114 114 114 115 116 116 117 117 118 118 119 119 119 119 118 118
119 119 119 119 119 119 119 119 118 118 118 118 119 118 118 117 117 116 116 115 114 114 114 113
111 111 110 109 109 108 108 107 105 104 104 103 102 102 101 100 100 100  99  98  97  96 255 255
254 254 254 253 252 251 250 249 247 247 247 247 246 246 245 245 243 242 242 242 240 240 238 238
237 235 234 234 233 233 232 231 230 229 228 228 227 226 225 225 127 125 125 125 125 124 124 123
123 123 122 122 121 121 121 121 119 119 119 119 119 118 119 118 117 116 115 114 113 113 114 113
113 112 112 111 109 109 108 109 108 109 108 108 106 106 105 104 104 103 103 102 101 101 100 100
 99  98  97  96 222 222 222 223
200 200 200 200 200 200 203 202 201 202 204 203 203 203 202 202 204 204 203 204 203 204 207 207
208 210 208 210 211 212 211 211 213 214 214 214 215 216 216 217 218 218 219 220 223  64  66  68
 69  71  74  76  77  75  80  83  89  89  89  90  92  92  92 193 196 200 204 206 208 209 211 213
216 218 220 221  96  97  98 100 103 104 105 107 110 111 113 115 118 119 120 121 125 125 127 127
224 226 228 229 231 231 234 235 237 238 239 239 241 242 243 245 245 246 247 248 249 250 251 253
254  96  97  97  97  97  98  99 100  99 100 101 102 102 103 104 104 105 105 106 107 107 108 109
110 111 112 112 112 112 114 114 115 115 115 116 116 117 117 118 118 118 119 119 120 119 119 118
119 119 119 119 119 119 119 119 118 118 119 119 120 119 119 118 117 117 117 116 115 114 114 114
112 112 111 110 109 109 108 108 106 105 104 104 102 103 102 101 100 100 100  99  98  97  96 255
254 253 253 252 251 251 251 250 248 248 247 247 246 246 245 245 243 242 243 243 241 240 238 238
237 235 234 234 234 233 232 232 230 229 229 228 227 226 226 225 224 126 126 125 125 124 123 123
123 123 123 122 121 121 121 121 120 119 119 118 119 119 120 119 118 116 115 114 113 113 113 113
113 112 112 111 109 109 108 109 108 108 108 107 107 106 106 105 105 103 103 102 101 100 101  99
 98  97  96  96 223 222 222 222
207 201 202 201 202 202 202 201 201 203 201 201 203 201 201 202 203 203 202 201 203 204 206 206
209 208 212 212 214 212 211 212 213 213 215 214 215 217 217 219 220 220 220 220  64  64  64  65
 68  71  75  76  76  79  81  82  86  87  89  90  92  92  95 195 197 202 201 201 204 205 215 213
215 217 219 221  97  97  98 100 102 105 106 107 109 110 113 116 117 118 120 121 124 125 126 127
225 226 228 229 232 232 234 235 236 238 238 239 242 243 245 246 245 246 247 248 250 251 252 252
254 255  96  97  97  98  99  99 100 100 101 101 103 104 104 105 105 106 106 106 108 108 109 109
110 111 111 112 113 114 114 114 115 115 115 116 117 117 118 118 119 119 119 120 121 120 120 119
119 119 119 119 119 120 120 120 119 119 120 119 120 120 119 119 119 118 118 117 116 115 115 115
114 112 112 111 110 110 109 108 107 106 106 106 104 103 101 101 100 100 100  99  98  98  97  96
255 254 254 253 252 252 252 251 249 248 247 247 246 246 246 245 245 244 244 242 240 239 239 239
237 236 235 234 233 233 232 232 231 229 229 228 226 226 226 226 224 224 127 126 125 124 123 123
123 123 123 122 122 121 121 121 120 119 119 119 119 119 119 119 118 116 116 115 113 113 113 113
113 112 111 111 110 110 110 109 108 107 107 107 107 107 106 105 104 104 103 102 101 100 100  99
 98  97  98  96 223 222 221 222
201 204 202 201 202 202 201 200 200 205 206 203 201 202 201 202 202 202 201 201 203 203 206 207
208 207 211 216 208 209 209 211 212 213 215 214 215 216 218 218 218 219 217 218 222 222 223 223
 67  71  75  77  79  80  81  83  84  86  88  90  90  93  95 195 197 201 202 202 204 207 213 213
215 216 219 221  97  97  98  99 102 103 105 106 109 110 113 115 118 119 119 121 123 124 126 127
225 226 228 229 231 232 234 235 236 237 238 239 243 243 245 246 246 246 247 248 250 251 252 252
253 254  96  97  97  98  98  99 100 100 101 102 103 104 104 105 105 106 106 106 108 108 109 110
111 111 111 112 113 113 114 115 115 114 115 116 118 118 118 119 119 119 119 120 121 120 119 119
119 118 119 119 119 120 120 120 120 119 120 119 119 119 119 119 119 119 118 117 116 115 115 114
114 112 112 111 110 110 109 108 107 106 106 106 104 104 101 101  99  99  99  99  98  98  97  96
 96 255 254 253 252 252 252 251 249 248 248 247 246 246 245 244 244 244 244 242 240 239 238 238
237 236 235 235 233 233 232 231 231 230 229 228 226 226 225 225 127 127 127 126 125 124 123 123
123 123 123 122 121 121 120 120 120 120 119 119 119 119 119 118 118 116 116 115 113 113 113 113
112 112 111 111 110 110 110 109 107 107 107 107 108 107 106 105 104 104 103 102 101 100  99  98
 97  97  97  96 223 222 222 222
197 200 200 200 197 197 198 198 197 202 201 202 202 202 202 202 201 201 201 201 204 205 206 206
207 209 205 203 207 206 208 210 212 214 213 212 209 210 216 216 217 217 219 219 220 220 221 223
 65  68  67  75  77  79  80  81  84  83  84  85  86  92 192 194 196 198 200 202 207 204 210 212
214 217 218 219  96  97  99  99 101 103 105 106 109 109 113 116 118 119 119 120 123 124 126 126
224 225 227 228 232 232 234 235 236 237 239 240 243 244 245 246 247 247 247 247 250 250 252 253
254  96  96  96  98  98  99  99 101 101 102 103 104 105 105 105 105 106 106 107 108 108 109 110
110 111 111 112 113 114 115 115 115 115 115 116 118 118 119 119 119 119 119 120 121 120 120 119
120 119 119 120 121 121 120 120 120 120 120 119 119 119 120 119 119 119 118 118 117 116 115 114
114 112 112 111 110 110 109 108 108 106 106 106 104 104 102 101 100 100  99  99  98  98  97  97
 96  96 255 254 253 253 252 251 249 248 248 247 246 246 245 245 245 244 243 242 240 239 238 238
237 236 235 235 233 233 232 231 230 229 229 228 227 226 225 225 224 224 127 126 125 124 124 124
123 123 123 122 121 121 121 121 120 120 119 120 118 118 118 118 118 117 116 115 114 115 114 114
112 112 111 111 110 110 109 108 107 107 108 108 108 107 106 105 104 103 103 103 101 100  99  99
 98  97  98  97 223 222 222 223
197 199 200 199 198 198 198 197 198 201 200 201 203 203 203 201 201 201 201 203 203 204 206 207
208 208 207 207 207 207 208 211 216 211 213 212 198 205 215 215 217 217 220 222 221 220 222  65
 67  69  66  71  75  79  80  81  83  84  85  86  87  93 194 195 197 198 201 203 206 206 210 213
215 217 219 220  96  97  99  99 101 103 105 106 109 110 113 116 118 119 119 120 123 124 126 126
224 225 228 229 232 232 233 234 236 237 238 240 242 243 245 246 247 248 248 248 250 251 252 253
255  96  97  97  99  99  99  99 101 102 102 103 103 104 105 105 106 107 107 107 108 108 109 110
110 111 112 113 113 113 115 115 116 116 116 117 118 118 118 119 119 119 119 119 120 120 120 119
120 120 120 121 121 121 120 121 121 121 121 120 119 120 120 119 119 119 118 118 116 116 115 115
114 113 112 112 111 111 109 108 108 107 107 106 105 104 103 102 101 101 100 100  99  98  97  97
 97  96 255 254 253 253 252 251 250 249 249 248 246 246 245 244 244 244 243 242 240 239 238 239
237 236 235 235 233 233 231 230 229 229 229 228 227 226 225 225 224 127 126 126 125 124 124 124
123 123 123 122 121 121 120 120 120 120 120 120 118 118 118 118 118 116 116 115 114 115 114 113
112 112 111 110 109 109 108 108 108 107 108 108 107 106 106 106 105 104 103 103 102 101 100 100
 99  96  97  97 223 223 223  96
199 199 199 198 198 198 198 199 200 201 201 201 203 204 204 202 202 201 202 205 204 205 205 208
209 209 208 208 209 209 211 211 209 219 217 217 214 216 214 215 216 218 221 223 223  64  64  66
 68  71  70  72  76  78  79  80  83  86  86  87  89  94 194 195 197 198 202 204 207 207 211 214
216 218 220 221 223  96  98  99 102 104 106 107 109 111 112 115 117 119 120 121 123 124 126 126
127 225 227 229 232 232 233 234 236 238 239 240 242 243 245 246 247 249 249 249 250 250 252 253
255  96  96  97  99 100 100 100 102 102 103 104 104 104 105 105 106 106 107 108 109 109 110 110
111 111 113 114 114 114 115 115 116 116 117 118 118 118 119 119 119 119 119 120 120 120 121 120
120 120 121 121 121 121 121 121 122 122 122 121 120 120 120 120 120 120 119 119 116 116 116 115
114 114 113 112 111 111 110 110 108 108 107 106 105 104 103 102 102 101 100 100  99  99  98  98
 98  97  96 255 253 253 252 251 249 249 249 248 247 247 245 244 244 244 243 242 240 239 238 238
237 236 235 235 233 233 231 231 230 230 230 229 227 227 226 225 127 126 126 126 126 125 124 124
123 123 123 122 122 121 121 120 120 120 121 120 119 118 117 117 117 116 116 115 115 114 114 112
111 112 110 110 109 109 108 108 108 107 107 107 107 106 106 105 104 104 103 103 102 102 101 100
 99  97  97  97  96 223 223 223
200 200 199 200 199 197 200 200 203 204 204 203 203 204 205 207 207 207 207 207 206 205 207 209
207 208 208 209 210 211 212 212 211 218 216 215 217 216 216 217 218 221 220 221  64  65  66  67
 69  72  73  72  77  77  79  81  84  88  88  88  90  94 193 198 200 201 202 206 208 209 213 215
217 218 220 221 223 223  98  99 102 104 105 106 109 110 113 114 116 118 120 122 125 126 126 127
225 227 229 230 231 233 234 236 238 239 239 240 242 242 244 246 247 248 249 250 251 251 252 253
254 255 255  98 100 101 102 101 102 103 103 103 104 105 105 105 106 107 108 108 109 109 110 110
111 112 113 114 114 114 115 115 116 117 117 118 118 118 118 118 120 120 121 121 122 121 121 121
121 121 121 121 122 122 121 121 123 122 122 122 121 121 121 121 121 121 120 120 118 117 116 116
115 114 113 113 112 111 111 110 108 108 107 107 105 105 104 104 103 102 101 102 100 100  99  98
 97  97  96 255 253 252 252 251 250 249 248 248 247 247 246 245 243 243 243 242 240 239 239 239
237 236 235 235 234 234 232 232 231 231 231 230 228 228 227 226 224 127 126 126 126 126 124 124
123 123 123 122 121 122 121 121 121 120 121 120 120 119 117 117 117 117 116 115 114 113 112 112
111 111 110 111 110 110 110 110 109 108 107 106 106 106 107 106 105 105 104 104 102 101 101 100
 99  98  98  97  96  96 223 223
200 200 200 200 200 200 197 201 202 203 203 202 202 202 205 206 206 205 206 207 207 206 207 206
206 207 207 209 210 211 210 213 217 212 215 216 216 215 215 216 218 219 221 221 222  65  67  67
 70  72  72  74  74  75  78  82  84  84  86  88  92  92  95 197 199 200 202 205 208 210 213 215
217 218 220 220 223 223  97  99 102 104 105 107 109 110 113 115 117 117 120 122 125 126 126 127
225 227 228 229 231 233 234 236 238 240 240 240 241 242 245 246 248 248 248 249 251 251 252 253
254 254 255  97  99 101 102 101 102 103 103 103 105 105 105 106 106 107 108 108 109 109 110 110
112 112 113 113 114 114 115 116 117 117 117 118 118 118 118 118 119 120 121 121 122 121 122 122
121 120 121 121 122 122 121 121 122 122 121 121 121 122 122 122 122 121 120 120 118 118 117 116
115 114 114 113 111 111 111 110 108 108 107 107 105 105 105 104 103 103 102 101 100 100  99  98
 98  97  96 255 253 253 252 251 250 249 248 248 248 248 246 245 243 243 243 242 240 240 239 238
237 236 236 235 234 234 233 232 231 231 231 230 229 228 227 226 224 127 126 126 126 126 125 124
123 123 122 122 121 122 121 121 120 120 120 120 119 118 117 117 117 117 116 115 115 113 113 112
112 111 110 109 110 110 109 110 108 108 107 106 106 106 106 105 104 104 104 104 101 101 100  99
 98  98  97  97  96  96  96 223
200 201 201 201 201 200 197 198 197 198 201 202 201 201 203 204 205 205 205 205 206 205 206 206
204 209 210 207 208 210 210 212 214 214 215 215 217 217 217 216 216 217  64 222 222  65  66  67
 69  71  73  75  76  76  78  82  84  85  87  89  92  93 192 194 196 201 203 206 209 210 213 215
218 219 220 220 222 222  97  99 101 103 104 106 109 110 112 114 117 118 120 121 124 124 127 224
226 227 228 229 231 232 234 235 237 238 239 239 242 243 245 246 247 247 248 248 251 251 254 254
254 255  96  97  99 100 101 101 102 102 103 104 105 106 106 106 107 107 108 108 109 109 110 110
112 113 113 114 114 115 116 116 117 117 117 117 118 118 118 119 119 119 120 121 122 121 122 121
122 121 121 122 121 121 121 121 121 121 121 121 121 122 122 121 121 121 121 120 119 118 117 117
116 115 114 113 112 111 111 110 109 109 108 107 106 106 105 105 103 103 103 102 101 101  99  99
 98  97  97 255 253 252 252 252 251 249 249 249 247 247 246 245 244 244 243 242 240 240 239 238
237 237 236 236 234 234 233 233 231 230 230 230 228 227 226 226 224 127 127 126 126 126 125 125
124 123 123 122 122 122 121 121 120 119 120 119 118 117 117 117 117 117 116 116 115 114 113 113
112 111 110 110 110 110 109 109 108 108 108 108 107 106 106 105 104 105 104 104 101 101 100 100
 99  99  98  97  96 223 223 222
199 202 202 202 202 201 198 199 201 204 205 205 201 201 202 202 204 204 204 204 206 206 208 209
207 211 212 208 207 209 210 212 214 214 214 216 217 217 217 216 216 218 220 221 221  64  66  68
 70  72  72  77  78  78  78  82  84  86  89  90  92  92 192 194 196 200 204 206 209 210 213 215
218 220 220 220 221 221  97 100 102 104 105 106 109 111 112 113 116 117 120 121 124 125 127 224
226 227 228 229 231 232 233 234 237 239 239 240 242 244 245 246 247 247 248 249 251 251 253 254
255 255  96  96  99 100 101 101 101 102 103 104 106 107 107 107 107 107 108 108 109 110 110 111
112 113 113 114 115 115 116 117 117 117 117 118 119 119 119 119 119 119 120 121 122 121 122 122
121 121 121 122 122 122 121 121 121 121 121 121 121 122 122 121 121 121 121 120 118 118 117 117
115 115 114 113 112 111 111 110 109 109 108 107 107 106 106 105 104 104 104 103 101 101  99  99
 98  97  97 255 254 253 252 252 251 249 249 248 247 247 246 246 244 244 243 242 240 240 239 238
238 237 236 236 234 234 233 233 231 230 230 230 228 227 226 226 225 127 127 126 126 126 125 125
124 123 123 122 122 122 121 120 120 120 120 120 118 118 117 117 117 116 116 116 114 113 113 113
112 111 110 110 110 110 109 109 108 108 108 109 107 107 106 105 104 104 104 104 102 102 101 101
100 100  98  97  96  96 223 222
204 198 202 202 203 202 200 200 201 204 205 207 205 203 202 203 203 203 204 204 206 213 213 209
208 214 211 209 209 210 212 212 214 214 214 213 217 217 217 217 218 219 219 220 222 222  64  69
 71  72  72  75  78  78  81  84  86  87  88  89  91  93  95 194 195 200 204 207 209 210 212 215
217 218 219 219 221 222  99 101 103 104 105 106 110 111 112 112 116 118 120 121 123 124 126 127
225 227 228 229 230 232 234 235 237 239 240 241 243 243 245 245 247 247 249 250 251 252 253 254
255  96  96  97 100 101 102 102 102 102 104 105 106 106 106 106 108 108 108 108 110 110 111 112
114 114 114 114 115 116 116 117 117 117 117 117 119 120 120 120 120 120 121 121 122 121 121 121
121 121 122 122 121 122 122 122 122 122 122 121 121 121 121 120 121 120 120 120 118 118 118 118
116 115 114 114 112 112 111 111 110 109 109 108 107 107 106 105 104 104 104 102 101 101 100 100
 99  98  96 255 254 253 252 252 251 250 249 248 247 247 246 246 244 243 242 241 239 239 238 237
237 235 235 235 235 235 234 233 232 230 230 229 228 227 227 226 225 224 224 127 126 126 126 126
125 124 123 122 122 122 122 121 119 119 120 120 118 117 116 116 117 115 115 115 114 113 113 112
112 111 111 110 109 108 108 108 108 108 107 106 108 108 107 106 104 103 103 102 102 102 102 102
100  99  99  98  97 223 223 222
205 200 199 201 201 199 199 202 201 197 202 207 206 203 201 203 203 202 204 204 210 205 204 204
207 206 207 207 209 209 212 211 214 214 214 212 215 215 215 216 218 218 218 218 220 220 223  67
 70  71  71  74  76  76  79  82  83  86  86  87  89  91  93 193 196 197 202 205 207 208 212 214
216 217 218 218 221 223  98 100 102 104 105 107 110 111 113 114 117 119 120 121 123 124 125 127
225 227 227 228 228 231 234 235 237 238 240 240 243 243 245 245 247 247 249 250 252 252 253 254
 96  96  96  97 100 101 101 101 102 102 104 105 107 106 107 107 108 108 108 109 110 110 111 112
114 114 114 114 116 117 116 117 117 117 116 117 119 120 120 120 120 120 120 121 121 122 122 122
122 122 121 121 121 122 122 121 121 121 122 121 122 121 121 120 120 120 120 119 118 117 117 116
115 114 113 112 112 112 112 111 110 109 109 108 107 106 105 105 105 104 103 102 101 102 100 100
 98  98  97  96 255 254 253 252 251 250 248 247 246 247 246 246 244 243 242 241 239 238 238 237
236 235 235 235 235 235 234 233 232 232 230 229 228 228 227 226 225 224 127 126 126 126 125 125
124 123 122 121 121 121 121 121 119 119 120 119 119 117 117 116 115 114 114 114 113 113 113 112
112 111 110 109 108 108 108 108 108 107 107 107 107 107 106 105 104 103 103 102 102 101 101 101
 99  99  98  97  96 223 223 222
201 198 198 197 197 198 198 200 201 198 198 197 196 200 204 203 203 203 203 205 202 199 200 204
205 207 207 206 207 208 210 211 214 214 213 213 212 212 214 215 217 217 217 218 219 219 221  66
 68  70  72  73  76  76  78  81  81  84  86  87  88  90  93 192 195 199 201 205 206 208 211 214
216 217 218 218 222  96  98  99 101 102 106 107 110 111 113 114 117 118 119 120 123 124 125 127
225 227 227 228 230 231 234 235 237 238 239 240 242 243 244 245 247 247 249 250 251 252 253 254
255  96  97  98 100 101 101 101 102 102 104 105 106 106 107 107 108 108 108 109 110 110 112 112
114 114 114 115 117 117 117 118 117 117 116 117 119 120 120 121 120 121 121 121 121 121 121 122
122 122 122 121 121 121 122 121 121 121 122 122 122 121 121 120 119 119 119 120 119 118 117 116
114 114 113 113 112 112 112 111 111 110 109 109 107 107 106 106 105 103 103 103 102 102 101 100
 99  98  97  96 255 254 252 252 250 250 248 247 246 246 245 245 243 242 241 240 239 238 237 236
236 235 235 235 234 234 234 233 232 231 230 229 228 228 227 226 225 224 127 127 127 126 125 124
123 123 122 122 121 121 121 120 119 119 119 119 118 116 116 115 114 114 114 113 113 113 112 112
112 111 109 108 108 107 107 107 107 107 106 106 106 106 105 105 104 103 103 102 102 101 101 101
 99  98  97  96  96 223 223 223
200 199 198 197 198 198 198 199 201 201 199 199 200 203 202 203 203 203 204 203 201 200 202 204
205 208 207 206 208 207 209 210 213 213 213 213 213 213 213 214 216 217 218 218 220 220 222 223
 65  67  74  78  77  78  79  81  81  85  86  87  89  90  95 192 194 198 201 206 206 208 212 215
217 218 218 219 223  96  97  98 100 101 105 107 110 112 113 114 116 117 119 120 123 124 125 127
225 226 227 227 229 230 233 235 237 238 239 240 242 243 245 245 247 247 248 249 251 252 253 254
255  96  97  98 100 101 100 101 102 102 104 105 105 106 107 107 108 108 109 110 111 111 111 112
114 115 115 115 117 117 117 117 116 116 116 117 120 120 121 121 120 121 121 121 121 121 121 122
122 123 122 121 121 121 122 122 121 121 121 121 122 122 121 121 120 120 120 120 119 118 117 116
115 115 114 114 112 112 112 112 111 111 110 110 108 107 107 106 105 104 104 103 103 102 101 100
 99  98  97  96 255 254 252 252 250 249 249 248 246 246 245 244 242 241 241 240 239 239 238 237
235 234 235 235 235 235 234 234 233 232 230 229 229 228 227 226 225 224 127 127 127 126 124 124
123 123 123 122 122 121 120 120 119 119 119 119 117 117 116 116 115 114 114 114 112 112 112 112
111 110 109 108 108 107 107 106 106 106 106 106 106 105 105 104 104 103 103 102 102 102 102 102
 99  98  98  97 223 223 222 222
200 198 199 198 199 200 198 198 202 202 201 200 204 204 201 203 204 205 204 202 202 202 204 204
206 208 208 207 207 206 208 209 212 213 213 213 214 213 214 214 215 217 218 218 220 221 222  64
 67  71  66  71  77  79  80  82  82  86  86  87  89  91 192 192 195 198 201 207 207 208 212 215
217 218 218 220 223  96  97  98 100 101 105 107 110 111 113 115 117 117 119 121 124 125 126 127
225 226 226 228 229 230 233 234 236 237 239 240 242 243 244 245 246 247 248 249 252 252 253 254
254  96  97  98  99 100 100 101 102 103 104 105 106 106 107 107 108 108 109 110 111 111 111 112
113 114 115 115 116 117 117 117 117 117 117 118 120 120 121 121 120 120 120 121 121 121 121 121
122 122 122 121 122 122 121 121 120 121 121 121 122 122 121 121 121 121 121 120 119 117 117 116
115 114 114 114 112 112 112 112 111 111 111 110 108 108 107 107 106 105 104 103 103 102 101 100
 98  98  97  96 255 254 253 252 251 249 249 248 246 246 245 244 242 241 241 240 240 239 238 237
236 235 235 235 235 235 233 233 233 232 231 230 228 228 227 226 225 224 127 127 127 126 125 124
123 123 122 122 121 120 119 119 119 119 119 118 117 116 116 115 114 114 114 114 112 112 112 112
111 110 110 109 108 107 107 107 107 106 106 106 105 105 104 103 104 103 103 102 102 102 102 102
 99  99  97  96 223 223 222 222
197 198 197 199 199 196 203 202 203 203 201 200 214 201 200 201 204 207 206 204 203 204 207 207
206 207 209 208 208 207 207 209 211 210 211 213 215 214 214 213 215 218 219 220 221 222 223 223
 72  69  64  72  77  78  80  82  83  86  87  88  89  91 193 195 198 199 202 205 207 208 211 213
215 217 219 222 223  96  97  98 100 102 104 106 109 111 114 115 117 118 120 122 124 125 126 127
224 225 227 228 231 231 233 235 237 238 239 240 242 243 245 246 248 248 249 250 252 252 253 254
 96  97  97  98  99 100 101 101 103 104 104 105 105 105 107 107 107 108 109 109 111 111 112 112
114 114 115 116 117 117 118 118 118 118 119 119 119 120 120 120 121 121 121 122 122 121 121 121
122 122 121 121 121 122 122 122 121 121 120 121 121 121 121 121 122 121 121 119 118 117 117 117
117 116 115 114 113 113 112 112 112 112 111 110 109 109 108 107 107 106 106 105 104 102 101 100
100  99  97  96 255 254 253 253 251 249 249 249 248 247 245 245 243 242 241 241 239 238 238 237
235 234 235 234 234 234 233 232 233 232 231 230 229 229 227 227 225 225 224 127 126 126 126 125
124 123 123 122 122 121 121 120 120 119 118 118 117 117 116 116 115 115 114 114 112 112 112 111
110 110 110 110 109 108 108 107 107 106 105 105 105 105 105 104 103 104 104 103 102 103 102 101
 99  99  99  98  96 223 223  96
201 200 197 198 196 197 200 201 202 202 200 200 198 209 208 206 204 206 206 205 202 203 207 206
204 205 207 207 207 208 208 209 210 211 210 212 214 214 213 214 215 216 217 218 220 220 220 222
 72  72  77  83  77  77  80  83  85  86  86  86  88  91 192 193 195 198 201 203 205 207 212 212
214 217 220 221 223  96  97  97  99 102 104 107 109 110 113 115 116 118 120 121 123 124 126 127
224 226 227 227 231 232 233 234 236 237 238 239 241 243 244 246 248 248 249 250 252 252 253 254
 96  97  97  98  99 100 100 101 102 104 104 105 106 106 106 106 107 108 109 110 111 111 112 112
114 114 115 115 116 117 117 117 118 118 119 119 119 120 120 120 120 120 120 121 121 121 120 121
122 122 121 121 122 122 122 122 121 121 121 121 120 120 120 120 121 120 120 119 117 117 117 117
117 117 116 115 112 113 113 113 112 112 112 111 109 109 108 107 107 106 105 104 103 101 101 100
 99  99  97  96 255 254 254 253 252 250 249 249 247 247 245 244 243 242 241 240 239 238 237 237
236 236 235 234 233 233 232 232 232 231 231 230 229 229 227 227 225 225 224 127 126 126 126 125
124 123 123 122 121 120 120 120 119 119 118 118 117 116 116 115 114 114 114 114 112 112 112 111
109 109 110 110 108 107 106 107 107 106 105 105 104 104 104 103 103 103 104 103 102 102 102 100
 99  98  98  97 223 223 223 223
201 200 197 197 197 197 198 199 198 199 200 200 201 201 203 202 203 205 205 203 200 200 204 205
205 206 205 208 210 210 209 208 213 211 211 212 213 212 213 214 216 215 215 216 219 219 221 222
 66  67  70  72  74  77  81  82  84  85  87  88  89  89  91  91  95 195 200 203 204 207 212 212
215 218 219 220 223 223  97  98  99 101 104 106 108 111 114 115 117 118 119 120 123 124 125 127
225 225 226 227 231 232 233 234 235 237 238 239 241 242 245 246 248 248 249 250 252 252 253 254
 96  96  96  97  99 100 101 101 101 103 103 104 106 107 107 106 107 108 109 110 112 112 112 113
114 115 116 116 117 117 117 117 118 118 119 119 119 120 120 121 121 121 121 121 121 121 121 122
122 122 121 121 122 122 122 122 122 121 121 120 120 120 120 120 120 119 119 119 118 118 117 117
117 117 116 115 113 113 113 113 113 112 111 110 109 109 108 107 107 106 106 105 104 102 101 100
100 100  98  96 255 254 254 253 252 250 249 249 247 246 245 244 243 242 241 240 239 238 237 237
236 235 235 234 233 233 232 231 231 231 231 230 229 229 227 227 225 225 224 127 127 127 126 126
124 123 123 122 121 120 120 120 119 119 118 118 117 117 116 116 115 115 114 114 112 112 112 111
109 109 110 110 108 107 106 106 106 106 105 104 105 105 104 103 102 102 103 102 102 102 101 100
 98  98  98  97 223 223 222 222
200 199 197 198 198 198 199 200 200 199 200 201 202 201 200 201 201 204 205 203 202 202 203 204
205 205 208 211 209 210 208 209 214 214 213 212 212 212 213 215 216 216 216 217 220 219 221 223
 65  68  70  71  74  80  80  81  84  86  89  89  91  91  93 194 197 199 200 203 205 208 212 214
216 219 219 220 222 222  97  99 101 103 105 106 109 111 113 114 117 118 119 120 122 123 125 127
225 226 227 228 231 232 233 234 236 238 238 239 242 243 245 246 247 248 248 249 251 252 253 254
 96  96  96  97  98  99 100 100 101 102 102 104 106 107 107 106 107 109 110 111 112 112 112 112
113 115 116 116 117 117 117 117 118 118 118 118 120 120 121 121 121 121 121 121 121 122 122 122
122 122 121 121 121 122 122 122 122 121 121 120 120 120 120 120 119 118 118 118 118 118 117 117
116 116 116 115 114 114 113 113 113 112 111 110 109 109 108 108 107 106 106 105 104 103 102 101
100 100  98  97 255 255 254 254 252 249 249 248 247 246 245 245 244 243 241 240 239 239 237 237
236 236 236 235 233 233 232 231 231 230 230 230 229 228 227 226 225 225 224 127 127 127 126 125
123 123 122 121 120 120 119 120 120 119 118 117 117 117 116 116 114 114 114 114 113 112 111 111
109 109 109 109 107 107 106 106 106 106 105 105 104 104 103 103 102 102 102 102 102 102 102 100
 98  98  98  97  96 223 223 222
200 199 201 200 200 200 201 201 200 200 202 203 204 204 202 201 202 204 204 205 204 204 205 205
205 207 208 211 206 210 211 215 214 212 213 214 211 211 216 217 217 216 217 218 221 221 223  64
 67  68  70  76  76  74  77  80  81  78  87  88  90  91  94 194 196 198 200 202 208 210 213 215
217 219 220 220 222  97  99 100 102 104 104 105 107 111 113 114 116 117 119 120 122 123 126 224
225 226 228 229 232 232 234 234 236 238 239 240 243 244 245 246 247 247 248 249 251 252 254 254
255 255  97  98  98  99  99 100 102 103 102 103 106 106 108 108 109 109 110 111 112 112 112 112
114 116 117 117 118 118 118 118 118 118 118 118 120 120 121 121 121 121 122 122 122 122 122 123
122 122 122 122 122 122 122 122 122 122 121 121 120 120 120 120 119 118 119 118 118 118 117 117
116 116 117 116 115 114 114 114 112 112 112 111 110 110 109 108 107 106 106 105 104 104 102 101
100 100  99  98  96  96 255 253 251 250 250 249 247 246 245 245 243 242 241 240 239 239 238 237
236 235 235 235 233 233 232 231 231 231 231 230 229 228 228 227 226 224 127 127 127 127 126 125
124 123 123 122 121 121 121 121 120 119 118 118 117 117 117 117 116 115 115 114 113 113 112 112
111 110 109 109 108 108 107 106 106 106 106 106 106 106 105 105 104 103 103 103 102 102 102 101
100  99  99  98  97  96  96  96
199 199 201 200 200 200 201 201 200 200 201 202 204 204 201 201 202 204 204 205 204 204 204 205
205 208 209 206 211 210 211 211 205 213 213 213 211 211 216 216 216 217 217 218 220 220 223 223
 66  67  70  75  76  75  78  80  81  82  86  88  90  91  94 194 195 196 200 204 207 209 212 215
217 218 220 220 221  97  99 100 101 103 104 105 108 110 112 114 116 117 119 120 121 122 124 127
225 226 227 229 231 232 233 234 236 238 239 240 243 244 245 246 247 248 248 249 251 251 253 254
255  96  97  98  98  98  99  99 101 102 102 103 106 106 108 107 109 109 110 110 111 112 112 112
114 115 117 117 118 117 117 118 117 118 117 118 119 120 120 120 121 121 122 122 121 122 122 122
121 121 121 121 122 122 121 122 121 121 121 121 120 120 119 119 119 118 119 118 118 117 116 116
116 115 116 115 115 114 114 114 112 112 112 111 110 110 109 109 107 107 106 105 104 104 102 101
 99  99  98  97  96  96 254 253 251 250 250 249 247 246 244 244 242 241 240 240 239 239 238 236
235 235 235 235 233 232 232 231 232 232 232 231 229 228 228 227 226 224 127 126 126 126 125 125
123 123 123 122 121 121 121 121 120 119 118 118 117 117 117 116 115 115 115 115 113 112 111 111
110 110 109 108 108 108 107 106 105 106 106 105 105 105 105 105 104 103 102 102 101 102 102 101
100  99  99  99  98  97  97  97
198 198 198 199 200 198 199 200 201 200 201 202 197 198 200 203 203 204 204 205 204 204 204 205
207 208 208 209 207 211 211 208 211 213 213 213 211 211 215 215 215 215 216 218 221 220 222  65
 67  67  70  73  76  76  78  80  84  83  83  88  90  92  95 192 195 196 199 203 206 209 211 214
217 219 221 221 222  96  98  99 101 103 104 105 108 108 112 113 115 117 119 120 122 122 125 127
224 225 226 228 230 230 232 234 236 238 239 240 242 243 244 246 247 248 249 249 251 251 252 253
254  96  97  98  98  99  99 100 101 102 102 103 105 106 107 107 109 109 110 110 111 112 112 112
114 115 116 116 117 117 117 118 118 118 118 119 119 120 120 120 121 121 122 122 122 121 122 122
121 121 121 121 122 121 121 121 121 121 121 121 120 120 119 119 119 118 118 118 118 117 117 117
116 116 116 115 115 115 115 114 112 112 111 111 110 110 109 109 108 107 106 105 103 103 102 100
 99  99  98  97  96  96 254 253 252 251 250 249 247 247 245 244 242 241 240 240 239 238 238 236
235 234 234 234 232 233 232 232 232 232 231 230 229 228 228 227 226 224 127 127 126 126 125 125
124 124 123 122 121 121 121 121 120 119 118 118 118 117 117 117 116 115 115 114 112 112 111 111
111 111 110 109 108 108 107 106 106 106 106 105 104 104 104 105 104 103 102 101 101 101 102 101
101  99  99  98  97  96 223 223
194 196 198 199 199 196 197 200 202 202 202 201 202 203 203 204 204 204 204 205 204 202 202 203
207 208 209 211 209 211 210 209 210 213 213 212 213 213 215 215 216 216 216 218 222 222 223  64
 66  69  71  74  76  77  78  81  81  82  84  88  90  92  95 193 196 197 200 203 206 207 210 214
216 219 221 222 223  96  97  98 101 103 104 105 108 108 111 113 115 117 119 120 122 122 125 126
224 225 226 228 230 230 232 234 236 238 239 240 241 242 243 245 246 248 249 249 251 251 252 253
255  96  97  98  98  99  99 100 101 102 102 103 105 107 107 107 108 109 109 110 111 112 112 112
114 115 115 116 117 117 118 118 118 119 118 119 120 120 120 120 121 120 121 121 121 121 122 122
121 121 121 121 121 121 121 121 121 121 121 120 120 120 119 119 119 118 118 117 118 117 117 117
116 116 116 115 115 115 115 114 112 112 111 111 110 110 109 109 109 108 106 105 103 103 102 101
100  99  98  97  96 255 253 252 251 250 249 249 247 247 244 244 242 241 240 239 239 238 238 237
236 234 234 233 233 233 233 232 232 231 231 230 228 228 227 227 226 225 224 224 126 126 125 125
124 123 123 122 121 121 121 121 119 120 119 119 118 118 116 116 116 116 115 114 112 112 110 110
110 110 109 108 108 107 107 106 105 105 105 105 104 104 104 104 104 103 102 101 100 101 101 101
100  99  99  98  97  96 223 222
199 196 197 199 199 196 197 199 203 202 202 202 204 205 205 205 204 204 204 206 205 202 202 203
206 207 209 210 210 210 211 210 212 214 214 213 214 214 216 215 215 216 216 217 222 223 222  64
 67  70  72  74  75  78  80  81  80  81  85  88  91  92  94 193 195 198 200 203 205 207 211 214
216 218 221 222  96  96  97  98 102 104 105 106 108 109 111 114 116 117 119 120 123 123 125 126
127 226 226 227 230 230 232 234 236 238 239 240 241 242 244 245 246 248 248 249 250 250 252 253
255  96  97  98  98  99  99 100 100 102 102 103 106 106 107 107 109 109 109 110 110 111 113 113
115 115 115 115 117 117 118 118 118 118 118 119 119 120 119 120 121 121 122 122 121 121 122 122
122 121 122 122 121 121 121 121 120 120 120 120 120 120 120 120 119 119 118 117 117 117 117 117
117 116 116 115 115 115 114 114 113 112 112 112 111 110 109 109 108 107 106 105 103 102 102 101
100 100  98  97  96  96 254 253 251 251 250 249 247 247 245 244 242 241 240 239 239 238 238 237
236 234 233 234 233 233 233 233 232 231 231 231 229 228 227 226 226 225 225 224 126 126 125 124
124 123 123 122 122 122 121 121 119 120 119 119 118 118 117 117 116 115 114 114 113 113 111 110
109 109 108 108 107 107 106 106 105 104 104 105 104 104 104 104 104 103 102 101 101 100 100 101
101 100  99  98  97  96 223 223
203 196 197 200 199 196 197 197 203 202 201 202 203 203 204 205 203 202 203 205 208 206 205 204
206 210 209 210 208 208 210 212 213 214 214 214 214 216 217 216 215 216 219 219 219 221 223 223
 66  69  71  72  74  79  80  81  83  86  85  88  91  92  94 193 196 197 199 202 206 207 212 214
216 217 220 221 223  96  97  98 102 104 106 107 108 109 112 114 116 118 119 120 122 124 126 224
225 226 227 228 230 231 233 234 236 238 239 239 241 242 243 244 245 246 248 249 250 251 252 253
255  96  96  97  98  99  99 100 101 101 102 103 105 106 106 106 107 109 109 109 110 111 112 113
114 116 115 116 117 118 118 118 119 119 118 118 119 120 120 121 121 122 122 121 122 122 123 122
122 122 122 122 122 122 122 122 122 121 121 120 120 120 120 120 119 119 118 118 117 117 117 117
116 116 116 116 115 115 114 114 113 113 113 113 112 111 109 109 108 107 106 105 104 103 102 102
101 100  99  98  97  96 254 253 251 251 250 250 248 247 245 244 242 241 240 240 239 238 238 237
236 235 235 234 233 233 233 233 232 231 230 229 228 228 228 226 225 225 225 225 127 127 126 125
124 124 123 122 121 121 121 121 120 120 119 119 119 119 117 117 116 116 115 115 114 114 112 111
109 109 108 108 107 106 106 106 105 104 104 104 104 104 105 105 104 103 103 102 101 101 100 100
101 101 100  99  98  97  97  97
199 195 196 199 199 198 196 197 201 201 202 202 202 202 202 203 201 204 204 205 207 206 206 208
208 205 206 206 208 207 208 210 210 214 214 214 214 215 216 216 216 216 218 218 217 219 221 223
 64  67  70  72  75  74  78  80  83  84  85  86  89  90  93  95 195 197 199 202 206 208 212 213
215 215 218 219 222  96  97  99 101 104 105 106 108 108 112 113 115 118 120 121 123 124 126 127
224 226 227 228 230 230 232 233 235 236 238 239 242 243 243 243 244 246 248 249 250 251 252 253
255  96 255  96  97  98 100 100 101 102 102 103 104 105 106 106 108 109 109 110 111 111 112 113
114 115 115 116 117 117 117 118 118 118 117 118 119 120 120 121 121 122 122 121 122 123 123 122
122 122 122 122 121 121 121 121 121 120 119 119 120 119 119 120 119 119 118 118 117 117 117 117
116 116 116 116 115 115 113 114 112 112 112 112 111 111 109 109 108 107 106 105 104 103 102 102
101 100  99  98  97  96 254 253 252 250 250 250 248 247 245 245 243 241 241 240 239 238 237 237
234 234 233 234 233 233 232 232 231 231 230 229 228 228 228 226 225 224 224 224 127 127 126 125
124 124 123 122 121 121 121 121 120 120 119 118 118 118 117 117 116 115 114 114 114 114 112 111
109 108 108 107 106 106 106 106 105 104 104 104 104 104 104 104 103 103 103 103 102 101 100 101
100 101 100  99  97  97  96  96
199 196 196 201 199 198 195 196 200 199 200 200 201 202 202 202 203 203 203 204 205 207 207 208
207 204 205 204 208 207 207 204 210 212 212 212 213 215 216 216 217 218 218 218 219 219 218 221
 64  66  69  72  75  75  78  79  81  82  85  86  88  89  92  94 195 196 199 202 206 207 210 213
213 216 218 219 221 222  96  98  99 101 104 105 107 109 112 113 116 117 119 120 122 124 126 127
224 225 227 228 230 230 232 233 235 236 237 238 242 243 244 244 245 247 248 249 250 250 251 252
254 255 255  96  97  98  99 100 101 102 102 103 104 105 106 107 108 109 109 110 111 111 111 112
113 114 115 116 117 118 118 119 119 119 119 120 121 121 121 120 121 121 121 121 122 122 122 122
122 121 122 122 122 121 121 121 120 119 118 119 119 118 118 119 119 118 118 118 118 117 116 116
115 116 116 116 114 114 114 114 113 112 112 112 110 110 109 109 108 107 106 105 104 103 102 102
101 100  99  98  96  96 254 253 251 251 251 250 248 247 245 245 243 242 241 240 239 238 237 237
234 233 233 234 233 233 233 232 231 231 230 229 228 228 228 227 225 224 127 127 127 127 126 125
124 124 122 121 120 120 120 121 120 120 119 118 118 118 116 116 115 114 113 112 113 113 112 112
110 108 108 108 107 106 105 105 105 105 105 104 103 103 103 103 102 102 102 102 102 101 100  99
 99 100  99  99  96  96  96 223
201 197 197 200 200 199 198 197 197 197 199 201 201 201 201 202 202 203 203 203 205 206 206 206
205 204 208 210 208 208 207 207 216 212 212 212 214 214 215 216 217 218 218 219 221 223  67  65
 64  67  69  73  75  76  79  80  82  83  85  87  88  89  90  94 195 197 200 203 205 206 209 212
214 215 218 220 222 222  97  98  99 100 104 105 107 108 111 112 115 117 119 120 123 124 126 127
224 225 226 227 230 230 233 233 236 236 238 239 242 242 244 244 245 246 247 248 250 250 251 252
254 255 255  96  97  98  99 100 101 101 102 103 104 105 106 107 108 108 108 109 111 111 112 112
113 114 115 116 117 118 118 119 119 119 119 120 120 120 120 120 120 121 121 122 122 122 122 122
122 121 122 122 121 120 121 121 120 120 119 119 118 118 118 119 119 119 119 118 117 117 116 116
115 116 116 116 114 114 114 114 112 112 112 112 110 110 109 109 108 107 106 105 104 103 102 102
100 100  98  97  96  96 254 253 251 251 251 250 248 247 245 245 243 242 241 240 239 238 237 237
234 233 233 233 233 233 233 232 232 231 231 230 228 228 227 227 224 224 127 127 127 127 126 125
124 124 123 122 121 121 120 121 120 120 119 119 118 118 116 116 115 114 113 112 112 112 112 112
110 108 108 108 107 106 105 105 105 105 105 104 104 103 103 103 102 102 102 102 102 101 100  99
 99 100  99  98 223 223 223 223
199 199 200 200 202 200 199 200 199 201 203 202 200 201 201 202 204 204 203 204 207 206 206 207
206 206 207 209 209 207 210 210 211 213 212 212 213 214 216 216 217 218 219 220 221 223  65  67
 67  67  67  72  76  76  79  82  85  84  85  87  88  88  90  95 194 198 200 201 205 207 209 212
215 216 219 220 223 223  97  98 100 101 102 105 107 108 111 112 114 116 118 119 122 123 125 126
224 224 225 226 230 230 232 233 236 237 238 239 241 241 243 244 245 246 246 248 249 250 250 251
253 254 254 255  97  98  99  99 100 101 102 103 105 105 107 107 108 109 110 110 111 111 112 112
113 114 114 115 116 117 118 118 120 121 121 120 120 120 120 120 121 121 121 122 122 122 122 121
121 121 122 122 121 121 121 122 120 120 119 119 118 118 118 118 118 118 118 117 117 116 116 115
116 116 116 115 114 114 114 114 112 112 112 111 109 109 109 109 108 107 105 105 104 103 102 102
101 100  98  97  96 255 255 254 252 251 251 250 248 247 245 244 243 242 242 240 238 237 237 237
235 234 234 233 232 232 233 232 232 231 230 229 228 228 227 226 224 224 127 127 126 126 126 125
124 124 123 122 121 121 120 120 119 119 119 119 118 117 115 115 115 114 113 112 112 112 112 112
110 109 109 108 108 107 106 105 106 106 105 105 103 104 104 104 102 102 102 101 102 101 101 100
 99 100  99  98  97  96 223  96
198 200 199 200 200 201 199 198 200 202 204 203 201 201 200 202 203 204 204 204 204 205 204 206
206 205 208 208 206 207 210 211 208 210 210 211 212 214 215 215 216 217 217 219 220 219 220  64
223  66  67  70  74  74  76  77  79  84  85  85  86  87  89  93  95 200 198 199 205 207 209 213
215 217 220 221 223 223  97  98  99 102 103 105 107 108 110 112 115 117 118 119 121 122 125 126
224 224 225 226 230 230 233 233 235 236 237 238 241 241 241 243 244 246 247 248 248 249 250 251
253 254 255  96  97  98  99 100 100 100 102 103 105 106 107 107 107 109 110 110 110 111 112 112
112 113 114 115 116 116 117 118 119 119 120 119 120 121 121 121 121 120 121 122 121 122 122 122
121 121 121 121 121 121 121 121 119 119 119 119 119 118 118 117 117 117 117 117 116 115 115 114
115 115 115 115 114 114 113 113 112 112 112 111 109 109 109 108 108 106 104 104 104 104 103 102
100 100  98  97  96 255 255 254 252 251 250 249 247 246 244 244 243 242 241 240 238 237 236 236
235 234 234 234 233 233 232 232 231 231 231 230 228 228 226 225 224 224 224 127 126 126 126 125
124 124 123 122 122 121 120 120 119 120 120 119 118 117 115 115 115 114 114 113 112 112 112 113
111 110 109 108 108 107 106 106 106 106 105 104 103 104 104 104 103 102 101 101 101 101 101 101
100  99  99  98  97  97  97  96
194 196 199 200 200 200 199 198 199 201 200 199 198 200 201 202 203 204 205 204 204 203 206 204
202 207 208 208 205 206 209 208 208 209 210 211 212 214 215 215 215 216 218 217 217 219 220 220
223  64  65  68  72  73  76  78  80  81  84  85  88  88  89  93  94 198 197 198 206 207 210 212
215 216 219 221 223 223  97  98 100 102 104 106 107 108 110 112 115 116 118 119 121 121 124 126
224 225 225 226 229 230 231 232 234 236 237 238 241 241 241 243 244 246 247 248 248 249 250 251
253 254 255  96  98  98  99 100 100 101 102 103 104 105 106 106 107 109 109 110 110 110 111 112
112 114 114 115 115 116 117 118 118 118 119 119 119 120 120 120 121 121 121 121 122 122 122 122
121 121 121 121 121 121 121 121 119 119 119 119 119 118 118 117 117 116 117 116 116 116 115 114
115 115 115 115 114 114 113 113 112 112 111 110 109 109 109 108 108 106 105 104 104 103 103 102
101 100  99  98  96  96  96 254 252 251 250 249 248 247 245 244 243 241 241 240 239 238 236 235
235 234 234 234 234 233 232 232 231 230 230 230 228 228 226 225 225 224 127 127 126 126 126 126
124 123 123 122 122 122 120 120 119 119 120 119 117 116 115 115 115 114 114 112 112 112 113 113
111 110 109 108 108 107 107 107 106 106 105 104 103 103 103 104 103 101 101 101 101 100 100 100
 99  99  98  98  98  98  97 223
199 197 198 199 200 199 198 200 199 201 200 201 200 202 202 203 203 203 204 204 204 203 204 204
205 211 213 210 207 208 209 208 208 209 211 212 212 213 215 215 215 216 218 219 219 220 220 221
 67  65  65  68  71  72  74  78  79  81  84  85  87  88  90  93  95 198 198 198 206 207 211 213
215 216 219 220 223 223  97  98 100 102 104 105 106 107 110 112 114 115 118 119 121 122 124 126
224 225 227 228 230 231 232 232 234 235 237 238 241 241 243 243 245 246 247 248 248 249 251 252
253 254 255  96  98  99  99 100 101 102 102 103 104 105 106 106 107 108 108 109 109 110 111 112
112 114 114 115 116 116 117 117 117 117 118 118 120 120 120 120 121 121 121 121 121 121 121 121
121 121 121 122 121 120 120 121 120 119 119 119 118 118 117 117 117 116 116 117 116 116 115 114
114 115 115 114 114 114 113 113 112 112 112 111 110 110 109 109 107 106 106 105 105 104 103 102
101 100  99  98  96 255 255 254 252 251 249 248 247 246 245 244 243 242 240 239 238 238 238 237
236 234 234 235 234 233 232 232 231 231 231 230 228 228 227 226 225 224 224 224 127 126 126 125
125 124 123 122 122 121 120 120 119 120 120 119 117 116 116 116 115 114 114 112 112 112 113 113
111 110 109 108 108 107 107 107 106 106 106 105 103 103 103 103 102 101 101 101 100 100  99  99
 99  99  98  98  97  96  96 223
201 198 198 198 199 198 198 200 201 201 201 202 202 203 202 203 203 204 204 205 204 205 205 206
207 207 202 203 208 209 210 210 209 210 212 213 213 214 215 215 216 217 218 219 219 221 221 223
 70  69  67  70  71  73  76  79  80  82  84  85  87  88  90 192 194 197 197 198 206 206 210 212
215 216 218 220 222 222  96  98 100 101 103 105 107 108 110 112 114 115 118 119 122 122 125 127
224 226 227 228 231 231 231 232 234 235 237 238 241 241 243 244 245 246 247 247 248 249 251 252
254 255  96  96  98  99  99 100 101 102 102 103 103 105 106 106 107 108 108 108 109 110 111 112
112 114 114 115 116 116 117 117 117 118 119 119 120 120 120 120 121 121 121 121 121 121 121 122
121 121 121 121 121 120 119 120 119 119 118 118 118 118 118 118 117 116 116 116 116 115 115 114
115 115 115 114 114 113 113 113 112 112 111 111 110 109 108 108 107 106 105 105 104 104 103 102
100  99  98  98  96 255 255 253 252 250 250 249 247 246 246 245 244 242 240 239 238 238 238 237
236 235 234 235 234 233 232 232 231 231 231 230 228 228 227 226 225 224 225 224 127 127 126 126
125 124 123 122 122 121 121 120 119 119 119 119 118 117 116 116 115 115 114 113 112 112 112 112
111 110 109 109 108 107 106 106 106 105 105 105 103 103 102 102 102 101 101 100  99  99  99  99
 99  98  98  98  96  96 223 222
199 198 198 199 199 200 199 200 200 202 202 201 204 204 203 204 204 204 204 204 203 210 208 208
209 207 203 200 207 210 211 212 212 211 214 215 214 214 215 216 218 219 218 219 222 220 222 223
223  65  68  70  72  74  77  78  81  83  85  86  87  89  88 194 195 197 198 199 206 206 209 210
213 215 217 219 220 221  97  98 100 101 102 104 107 108 110 112 114 116 118 120 121 122 124 125
127 224 226 228 230 231 231 233 234 236 238 238 240 241 243 243 245 245 246 247 248 249 250 251
253 255 255 255  97  97  98  99 100 101 102 103 104 104 106 106 106 107 109 110 111 111 111 112
113 114 114 115 116 116 116 117 118 119 120 120 120 120 121 121 121 120 121 121 121 120 120 120
121 121 121 120 121 121 121 121 120 119 119 119 118 117 117 117 117 116 116 116 115 115 115 114
114 114 114 114 114 114 112 112 112 112 111 110 109 109 109 109 107 107 106 105 103 103 102 102
100  99  98  98  96 255 254 252 251 250 250 249 246 245 244 244 244 242 240 239 239 238 238 238
236 236 235 235 234 233 233 233 232 231 231 230 228 228 226 226 225 225 225 224 224 127 126 126
124 124 123 122 122 122 120 120 120 119 118 118 117 117 117 117 116 115 115 114 113 112 112 111
109 109 109 109 108 108 107 106 106 105 105 105 103 103 102 102 102 102 101 100  99  98  98  99
 98  98  97  97 223 223 222 223
198 198 198 199 198 197 197 198 198 200 201 200 202 202 201 201 202 202 202 203 207 201 206 210
208 206 206 204 209 208 212 214 211 213 213 214 215 215 214 215 217 217 217 216 218  64 223 222
 66  66  68  70  71  70  76  78  80  82  83  84  87  89  90 193 194 195 197 199 202 204 208 209
212 214 215 218 218 221 223  96  98 100 102 104 106 107 108 111 114 116 118 119 120 122 123 124
126 127 225 226 228 230 231 233 234 235 237 238 240 240 242 243 245 245 245 246 247 248 249 251
253 254 255 255  96  97  98  99 100 100 102 103 104 104 105 106 106 108 109 110 110 110 111 112
113 113 114 114 115 116 116 117 119 120 120 120 120 120 121 121 121 121 121 121 121 120 120 120
120 120 120 120 120 120 120 120 119 118 119 119 118 118 118 118 117 116 116 116 115 115 114 114
113 114 114 113 113 113 112 111 111 111 110 109 109 109 108 108 107 106 105 104 102 102 101 102
101  99  98  98  96 254 253 252 251 250 250 249 246 245 244 244 244 242 241 240 239 238 238 237
236 235 235 234 233 233 233 232 231 229 229 229 227 227 226 226 225 224 224 224 127 127 126 125
123 123 123 122 122 122 121 121 119 119 118 118 118 118 118 117 116 115 114 114 113 112 112 111
109 108 107 107 107 106 105 105 105 105 104 104 103 103 102 102 102 102 101 100  97  97  97  97
 97  97  96  96 223 222 222 222
198 198 198 199 198 196 196 198 202 198 199 200 201 200 200 201 200 201 203 203 200 198 201 207
205 206 206 205 209 210 209 209 210 210 212 213 213 214 214 213 206 209 216 218 216 219 222 223
 64  66  69  70  71  72  73  75  78  80  83  84  87  89  90 192 194 195 197 198 199 202 206 208
211 212 215 215 220 221 223  96  98 100 103 104 106 107 108 111 113 115 117 118 120 121 123 124
125 126 224 225 228 229 231 232 233 235 236 238 239 240 242 242 244 245 246 247 248 249 249 251
252 254 255 255  97  98  99  99 100 100 101 102 104 104 105 105 106 108 107 108 110 110 111 112
113 113 114 114 114 115 116 117 119 119 119 119 119 120 121 121 121 121 121 121 120 119 119 119
119 120 120 120 120 120 120 120 119 119 120 119 118 117 117 117 117 116 116 115 115 115 114 114
112 113 113 112 113 112 112 111 111 111 110 110 109 109 109 109 107 106 105 104 103 102 102 102
101 100  99  98 255 254 252 252 250 249 248 248 245 245 243 243 243 242 241 240 239 239 238 237
236 235 235 234 233 233 232 232 229 228 229 228 226 226 226 226 225 224 224 127 127 127 126 125
124 123 123 122 121 121 120 120 119 120 119 118 118 118 118 117 116 115 114 114 113 113 112 110
108 107 107 107 107 106 105 105 105 105 104 104 102 103 102 102 101 101 100 100  97  97  97  97
 97  97  96 223 222 222 222 223
199 200 199 199 197 195 195 199 201 201 200 200 201 201 201 202 201 202 202 202 202 203 205 204
205 206 207 206 208 210 211 210 212 211 211 212 212 213 215 216 219 219 217 217 219 220 221  64
 65  67  69  71  73  72  74  76  77  79  83  85  88  89  91  95 194 195 197 200 202 202 205 208
211 213 215 216 220 221 222  96  98 100 103 104 106 106 108 110 114 115 117 118 119 121 123 124
125 127 224 225 227 229 230 232 233 235 236 238 239 240 242 242 244 245 246 247 248 249 249 251
252 255 255  96  97  98  99  99 100 100 102 103 104 104 105 106 107 108 107 108 109 110 110 111
113 114 114 114 115 115 117 117 119 119 119 119 119 120 121 121 121 121 120 120 120 120 119 119
119 120 120 120 121 121 121 120 119 119 119 118 117 117 117 117 116 116 115 115 115 115 114 114
113 114 113 112 112 112 112 111 111 111 110 110 109 109 109 109 107 105 105 104 104 103 102 102
102 100 100  98 254 254 252 252 250 249 247 247 245 245 244 244 243 242 241 240 240 240 239 238
236 234 234 234 233 232 232 231 229 228 228 227 227 227 227 226 224 224 224 127 127 127 126 125
123 123 123 122 121 121 120 120 119 120 119 118 118 118 118 117 116 116 115 114 114 113 112 111
109 108 107 107 107 107 105 104 104 104 104 104 102 103 102 102 100 100 100  99  97  97  97  97
 97  96  96 223 222 221 222 222
200 201 200 200 198 197 196 199 201 201 200 200 202 202 202 203 202 203 202 201 203 204 206 204
203 209 208 207 208 211 212 211 211 211 211 211 213 214 214 215 218 219 217 218 220 221 221  65
 66  68  70  72  74  73  74  76  78  79  83  85  88  88  91  94  95 195 196 201 204 203 204 208
211 214 216 217 220 221 223 223  97  99 102 104 106 106 108 110 113 115 117 118 119 121 123 124
125 127 225 226 227 228 230 231 233 234 236 238 239 240 241 242 244 246 246 247 249 250 250 251
253 254 255 255  97  97  99  99 100 100 101 102 104 104 104 106 107 107 106 107 108 109 110 111
112 114 114 114 115 115 117 117 118 119 119 119 119 120 120 120 120 120 120 120 120 119 119 120
119 120 120 121 121 121 120 119 119 119 119 118 118 118 117 117 116 116 115 115 114 114 114 114
114 113 113 112 112 112 112 111 111 110 110 109 109 109 109 108 107 105 105 104 104 103 102 102
101 100 100  98 253 253 252 252 250 249 248 247 246 246 245 244 243 242 241 241 240 239 238 237
236 234 234 234 233 232 231 230 229 228 228 227 226 226 226 226 224 127 127 127 127 127 126 125
123 122 122 122 121 121 121 121 120 120 119 118 118 118 118 117 116 116 115 114 114 113 111 111
109 108 108 107 106 106 105 104 104 104 104 104 102 103 102 102 100 100 100  99  97  97  97  97
 96  96 223 223 222 221 221 221
201 200 201 201 199 198 197 199 200 200 200 200 201 204 204 204 204 201 200 202 203 206 206 204
202 209 209 209 209 210 211 211 212 212 211 211 214 214 216 216 217 216 218 219 218 216 220  64
 66  68  69  72  74  74  75  76  79  81  84  86  88  87  90  92  94 195 198 199 201 204 206 209
212 213 216 218 221 222  96  96  97  99 102 103 106 107 108 111 112 113 116 117 119 121 122 124
126 127 225 226 228 228 230 231 233 234 236 237 239 240 241 242 244 246 246 247 248 250 250 252
253 254 254 255 255  96  98  99 100 100 101 101 103 104 104 105 106 106 107 108 108 109 110 111
112 114 114 114 115 115 117 117 118 119 119 119 119 119 119 119 119 120 119 119 120 120 121 120
120 119 120 120 120 120 120 120 120 120 119 119 119 118 117 117 116 116 116 116 114 114 114 114
114 113 113 113 111 111 111 111 110 109 109 109 108 108 108 108 107 106 106 105 103 102 102 102
101 100 100  98 255 253 252 252 251 249 248 247 248 247 245 244 242 242 241 241 239 238 238 237
236 234 234 233 233 232 231 230 229 229 228 228 227 228 228 227 224 224 224 127 126 126 125 125
123 122 121 122 121 122 120 120 120 120 119 118 118 118 118 118 117 116 115 115 113 113 112 111
110 109 109 108 106 106 105 104 104 104 104 104 102 102 101 101  99  99  99  98  98  98  98  97
 96 223 223 222 221 221 221 221
200 199 200 199 199 197 197 197 198 197 198 199 201 203 203 202 202 200 200 201 202 204 205 205
204 208 208 208 207 207 210 211 211 212 212 211 214 213 215 215 216 214 216 217 216 219 221  64
 65  67  68  71  73  75  75  76  78  80  83  85  86  86  90  91  94 194 197 199 201 203 206 209
211 213 216 218 221 221  96 223  98  99 101 102 105 106 108 109 111 112 115 117 119 119 122 123
126 127 224 225 227 228 229 231 233 234 236 237 239 239 241 242 244 245 245 246 248 249 249 249
252 253 254 255 255  96  98  99 100 101 101 101 103 103 103 104 105 106 106 107 108 109 111 111
112 112 113 114 114 115 116 117 118 118 118 118 118 118 119 119 119 119 119 119 119 119 119 119
120 119 119 119 119 119 119 120 120 120 119 119 119 118 117 116 116 116 115 115 114 114 113 113
113 112 112 112 111 111 111 111 110 109 109 109 108 107 107 107 107 106 105 104 103 101 101 101
100  99  97  96 255 254 253 252 250 248 248 247 247 246 245 244 243 242 242 240 239 238 237 237
236 235 235 234 233 232 231 231 229 229 228 228 227 227 227 226 225 225 224 224 126 125 124 124
123 122 121 122 121 122 121 121 120 119 119 118 118 118 117 116 116 115 115 115 114 114 112 112
111 110 109 108 106 105 105 104 104 104 104 104 102 102 101 101  99  99  99  98  98  98  97  96
223 222 222 222 222 221 220 220
198 198 199 199 197 197 196 194 196 199 199 200 201 202 202 201 200 203 201 200 203 203 206 206
207 208 208 208 207 207 209 210 212 212 212 213 212 215 215 215 215 214 216 216 216 219 222  65
 66  67  68  71  74  75  76  78  80  82  84  85  85  87  90  92 192 192 196 198 201 203 206 208
210 212 214 217 221 221 223 223  97  99 101 102 105 106 107 109 111 112 115 116 120 120 121 123
126 127 224 225 227 227 229 230 233 235 236 237 239 240 241 242 243 244 245 245 247 247 248 249
251 252 254 255  96  96  98  99 100 101 101 101 102 102 103 104 105 106 106 107 108 109 110 110
112 112 113 114 114 114 116 117 118 118 118 118 118 119 119 119 119 119 118 119 120 120 120 120
120 119 119 119 119 119 120 120 120 120 119 118 118 117 117 116 116 116 116 116 114 114 113 113
113 113 113 112 111 111 110 110 109 109 109 108 108 107 107 106 106 105 104 104 103 101 101 101
 99  98  97  96 255 254 253 251 249 248 247 247 247 246 245 244 243 242 242 240 239 238 237 236
236 235 234 233 233 232 231 231 230 229 228 228 227 227 227 226 226 225 224 127 126 125 124 124
124 122 122 122 122 121 121 121 119 119 118 118 118 117 117 116 116 115 115 114 113 113 113 112
110 110 109 108 107 106 105 104 103 103 104 104 103 103 101 101  99  99  98  97  97  97  97  96
223 222 222 222 221 221 220 222
197 198 198 199 197 197 197 198 199 198 200 201 203 201 201 201 202 201 205 207 207 205 207 208
208 207 207 208 208 208 210 211 213 210 211 214 213 214 214 214 215 215 218 217 218 220 223  65
 67  67  69  72  75  76  77  78  81  82  83  84  85  89  91  93 192 193 196 197 201 204 206 208
209 211 213 215 220 221 222  96  98 100 101 102 104 105 107 109 111 112 115 117 120 120 122 124
126 127 127 224 227 227 228 230 233 235 236 237 239 240 241 242 244 245 245 246 246 247 248 249
251 253 254 255  96  96  98  98 100 101 101 102 101 101 103 103 105 106 106 107 108 108 109 110
111 112 113 114 114 114 115 116 117 118 118 118 119 119 119 119 119 119 119 119 120 120 120 120
120 119 119 119 119 119 120 120 121 120 119 118 118 118 117 117 116 116 115 115 114 115 114 113
113 112 112 111 110 111 110 110 109 109 109 108 108 107 107 106 105 104 103 103 102 102 101 100
 99  98  97  96 255 254 253 252 250 248 247 247 247 246 245 244 243 242 242 241 240 239 238 237
236 235 234 233 232 232 232 232 230 230 228 228 227 226 226 226 226 225 224 127 126 125 125 124
124 122 122 122 121 121 120 121 120 119 119 119 118 117 117 116 116 116 115 115 114 113 112 111
110 109 108 107 106 106 105 104 104 103 104 104 103 103 101 100  99  98  98  98  97  97  97  97
223 222 222 222 222 222 221 221
202 200 199 199 200 199 199 200 201 201 201 201 201 205 204 203 202 202 205 208 208 207 208 208
207 206 207 207 208 208 211 212 212 211 211 212 214 212 213 214 215 216 219 219 220 222 223  64
 65  67  70  72  75  76  76  77  81  82  83  83  83  90  91  92  94 192 195 196 201 203 204 206
209 211 213 216 219 220 221 223  97  99 100 102 104 105 107 109 111 113 114 116 119 120 122 123
125 126 127 224 228 228 229 230 233 235 236 237 239 241 242 242 244 245 246 246 247 247 248 249
251 253 254 254  96  97  98  98  99 100 101 102 101 102 102 103 105 105 106 107 108 107 108 109
110 112 112 113 114 114 116 117 118 118 118 118 118 118 118 119 119 119 119 119 119 119 120 120
119 119 119 119 119 119 119 120 120 119 119 118 117 118 118 117 116 116 116 115 114 114 114 114
113 111 111 111 111 110 109 110 109 109 108 107 107 107 106 106 105 104 103 103 102 101 100  99
 99  99  97  96 254 254 253 251 250 249 248 248 247 246 245 244 243 243 242 241 239 238 238 237
236 235 234 234 233 232 232 231 231 230 229 228 227 227 226 225 224 127 127 126 127 127 126 125
124 123 122 122 122 121 121 121 120 120 119 120 118 118 117 117 116 115 114 113 113 113 113 112
109 108 108 108 108 107 105 105 104 104 103 103 102 103 102 101 100  98  98  98  97  97  97  97
 96 223 222 222 221 221 221 222
200 199 199 199 200 202 200 200 200 200 200 200 202 203 204 204 203 202 205 203 203 206 208 207
204 205 206 207 206 207 210 211 211 209 209 210 212 212 213 214 216 217 217 217 219 221 222 222
223  66  70  71  74  75  75  76  76  80  81  82  87  89  90  90  94  95 194 196 200 202 204 207
210 211 213 215 218 220 221 222  97  99 100 101 103 104 107 109 110 113 115 117 119 120 121 121
123 125 126 224 227 228 229 230 233 234 236 237 238 240 241 242 244 245 246 246 246 247 248 249
251 252 253 254  96  97  98  98  98  99 100 100 101 101 102 103 104 105 106 106 108 107 108 109
110 112 112 113 114 114 115 116 117 117 117 117 117 118 117 118 118 118 119 119 119 119 119 119
120 119 119 118 118 118 119 119 119 119 118 118 117 117 118 117 116 115 115 114 114 114 113 112
112 111 110 111 111 110 109 109 108 108 108 107 107 106 105 105 104 104 103 103 102 101 100  99
 98  98  97  96 254 253 252 251 250 249 249 248 247 246 244 244 244 243 242 241 239 238 238 237
236 235 234 234 233 233 232 231 231 230 229 228 226 226 225 224 127 126 126 126 126 126 125 124
123 123 122 121 121 120 120 120 120 120 119 119 118 117 117 117 115 114 114 113 114 114 113 112
109 109 108 108 107 107 105 105 104 103 102 102 101 101 101 100  99  98  97  97  97  97  96  96
 96 223 222 221 221 221 220 220
197 197 196 197 195 196 197 198 199 199 199 200 201 197 200 201 204 205 202 204 204 204 206 206
203 205 206 207 207 208 209 209 211 209 211 210 213 213 214 213 216 216 217 218 218 220 221 221
 64  64  68  70  74  74  76  75  73  81  81  83  87  88  89  91  93  95 194 196 199 199 203 206
208 210 213 215 218 219 220 222  97  98  99 100 103 104 105 108 110 113 115 117 118 119 120 121
123 125 127 224 227 228 229 230 233 234 235 236 238 239 240 241 243 243 245 245 246 246 247 249
251 252 252 253  97  97  98  98  98  99  99 100 100 101 102 103 104 105 105 106 107 108 108 109
110 112 112 113 114 114 115 116 117 117 117 117 117 117 117 118 118 118 119 119 119 119 119 119
119 118 117 118 118 119 119 119 119 118 117 117 116 116 116 116 116 115 114 114 114 114 113 112
112 111 110 111 111 110 108 108 107 107 107 106 105 104 104 105 104 103 103 103 102 101 100  99
 98  97  96 255 253 252 252 251 250 249 249 248 247 246 245 245 243 242 241 240 238 237 237 237
235 234 233 232 233 233 232 231 230 229 229 228 226 226 225 224 127 126 126 127 126 126 124 124
123 123 122 121 120 120 120 120 119 119 119 119 118 118 117 117 116 114 114 114 114 113 113 112
110 110 109 108 108 107 106 105 104 103 102 102 100 101 100 100  98  97  97  97  96  96 223 223
222 222 221 220 221 220 220 219
198 197 196 196 197 197 197 198 199 199 199 200 200 198 198 200 203 204 207 206 207 205 205 208
201 205 207 208 208 207 208 209 211 210 212 213 213 214 212 212 214 216 217 218 219 219 220 221
223 223  67  70  73  75  77  76  75  82  82  84  87  88  89  93  94  95 192 195 196 199 203 205
208 211 213 215 217 218 220 222  97  98  99 100 103 104 106 108 110 112 114 117 118 119 120 121
123 125 127 224 226 227 228 229 232 233 235 236 238 239 240 241 242 243 245 245 246 246 247 249
250 251 252 253  96  97  98  98  98  98  99 100 100 100 102 103 105 105 106 107 108 109 109 110
110 111 111 112 114 114 114 115 116 116 116 116 116 116 116 117 118 118 118 119 118 119 119 119
118 118 117 118 118 119 119 119 119 117 117 116 116 116 116 115 115 115 114 114 114 114 113 112
112 111 111 111 110 109 108 108 107 107 106 106 105 104 104 104 104 103 103 103 102 101 100  99
 98  97  96 255 252 252 252 251 249 250 249 248 247 246 245 245 243 242 241 240 239 238 237 237
235 234 233 232 232 232 231 230 230 229 229 228 226 225 225 224 127 127 127 127 126 125 124 124
124 122 122 121 120 120 119 119 119 119 119 118 118 117 117 117 116 114 114 114 114 113 111 111
110 110 109 109 108 107 106 105 104 103 101 102 100 100 100  99  98  97  97  97  96 223 223 223
222 221 221 220 220 220 219 219
196 197 196 197 198 199 197 197 198 199 200 201 199 199 197 199 203 205 204 205 204 204 205 206
204 205 208 208 208 206 208 209 211 211 213 215 216 214 212 211 212 217 218 219 220 219 220 221
223  65  68  70  72  74  76  77  80  79  83  86  86  87  88  91  91  93  95 194 196 198 202 204
208 210 213 214 217 218 220 222  96  97 100 101 103 104 106 108 110 112 114 116 118 119 119 122
124 125 127 224 226 226 229 230 231 232 235 236 237 238 239 240 241 242 244 244 245 246 247 248
249 250 252 253 255  96  97  97  98  98  98  99 100 101 102 103 104 105 105 106 108 108 109 110
110 111 111 112 113 113 114 114 115 115 116 116 116 116 116 116 117 118 118 119 117 118 119 119
118 118 117 117 118 119 119 119 118 116 116 116 115 115 115 115 114 114 114 114 113 113 112 111
111 110 110 110 110 109 108 107 106 106 105 105 104 104 104 104 103 103 102 102 101 101 100  99
 97  96 255 255 252 252 251 250 248 249 248 247 246 246 245 245 243 242 241 240 239 239 238 237
235 234 234 233 232 232 231 230 229 230 230 229 226 226 225 224 224 127 127 127 126 125 124 123
123 121 121 121 120 120 120 119 119 119 118 118 117 117 117 117 116 115 114 114 114 113 110 111
110 110 110 109 108 107 106 105 104 102 102 101 101 100  99  99  98  96  96  96  96 223 223 222
221 220 221 220 221 221 220 219
200 197 198 198 201 200 197 198 198 201 202 203 199 198 198 203 204 204 204 204 205 205 206 206
204 205 206 207 207 207 209 210 211 212 212 214 216 215 214 214 212 215 218 219 220 221 221 222
223  64  66  68  71  72  75  77  80  78  83  86  87  87  88  89  89  90  93 193 197 199 200 206
208 211 213 215 216 217 219 221 223  96  99 100 103 104 106 108 110 112 115 117 119 120 121 121
123 125 127 224 226 227 229 230 231 232 234 236 238 239 239 239 240 242 243 244 245 246 248 248
249 251 252 253 254 255 255  96  97  98  98  99 101 101 102 102 103 103 104 105 107 108 108 108
110 110 111 112 111 112 113 114 114 115 115 115 114 114 114 115 116 117 118 118 117 117 117 118
117 117 118 118 119 118 118 118 117 117 116 116 115 115 115 115 114 114 114 113 112 112 112 111
110 109 109 109 109 108 107 107 106 105 104 104 104 105 103 103 102 102 102 102 100 100  98  98
 96 255 255 255 252 252 251 250 248 248 248 247 246 245 244 243 243 242 242 242 240 240 238 238
236 235 234 234 232 232 231 230 229 229 229 228 226 226 225 225 224 224 127 126 125 124 125 124
123 121 121 121 121 120 120 119 119 119 118 118 118 117 117 116 116 115 114 114 114 113 112 111
110 110 109 109 107 106 105 104 103 103 102 102 101 100  99  99  98  97  97  97  96  96 223 223
222 221 221 220 220 220 220 221
197 197 198 202 197 198 198 197 198 200 202 202 198 198 199 200 199 207 204 204 203 205 205 204
203 204 204 204 206 207 209 209 210 211 211 212 214 215 214 214 214 214 217 218 219 219 221 222
 64  64  67  69  72  70  72  73  74  82  82  84  87  87  88  88  88  89  91 192 196 198 201 205
208 210 212 214 216 217 218 220 222  96  99 100 102 102 105 108 110 112 114 116 118 119 120 120
122 124 126 127 225 226 228 230 232 233 234 236 238 239 238 239 240 241 242 243 245 246 247 248
249 251 252 253 254 255 255  96  97  98  98  99 100 101 102 102 103 103 104 105 106 107 107 107
108 109 110 111 112 113 113 113 113 114 114 115 114 114 114 115 116 116 117 117 117 117 117 117
117 117 118 117 118 117 117 116 117 117 116 116 115 115 115 114 113 113 113 113 112 111 111 111
110 108 108 108 108 108 107 107 106 105 104 104 104 104 103 103 102 102 101 101  99  99  98  97
 96 255 255 254 252 252 251 250 248 248 248 247 246 245 243 243 242 242 242 241 239 239 238 237
236 235 234 233 232 231 230 230 229 229 228 227 227 226 225 224 127 127 127 126 125 124 124 124
122 122 121 121 121 120 119 119 119 118 118 118 117 117 116 116 116 115 114 114 113 112 112 111
110 109 109 109 108 107 105 104 103 103 102 101 100 100  99  99  98  97  96  96  96  96 223 223
222 221 221 220 220 220 219 220
197 198 198 197 195 196 197 198 199 200 201 201 198 197 197 198 197 205 204 203 204 203 203 203
204 204 205 206 207 208 207 208 210 209 210 211 212 214 215 215 215 216 215 216 219 219 220 222
 64  65  66  68  70  71  72  73  72  80  80  82  85  86  87  88  89  87  90 192 196 199 203 204
207 209 211 213 215 216 217 219 221 223  98  99 100 102 104 107 110 112 113 115 117 119 120 120
122 124 125 126 225 226 228 230 232 234 234 236 237 238 238 239 241 243 243 244 246 246 247 248
250 251 251 252 253 253 255  96  97  97  98  99 100 100 101 101 102 103 104 105 106 106 106 106
107 108 109 110 112 112 112 112 113 114 114 114 114 114 114 114 115 116 116 117 117 117 117 117
118 118 118 118 117 117 116 117 117 116 116 115 115 115 114 114 113 112 112 112 112 112 112 111
110 109 108 108 107 107 106 106 105 104 104 104 104 104 103 102 101 101 100 100  99  98  97  97
 96  96 255 254 252 252 252 251 249 249 249 248 246 245 243 243 242 242 242 241 240 239 239 237
236 234 233 232 232 231 230 229 228 228 228 227 226 225 224 224 127 127 127 126 124 124 124 124
123 122 121 121 120 119 118 119 119 118 118 118 117 117 116 115 115 114 114 113 112 112 112 111
110 109 108 108 107 106 104 104 103 103 102 101 100 100 100  99  98  97  97  96  96  96 223 223
223 222 221 221 219 219 218 218
198 197 198 198 196 197 197 198 199 199 200 201 200 200 201 200 200 202 203 203 204 204 203 203
205 205 206 206 206 208 206 207 209 209 210 211 210 213 214 215 216 215 215 216 218 218 218 223
 64  65  66  68  71  71  72  72  74  79  79  82  84  86  88  89  91  93  94  95 196 198 202 203
205 209 211 212 214 216 217 219 221 223  97  98 100 102 104 106 109 111 113 114 117 118 119 120
122 124 125 126 225 226 228 230 232 233 233 235 236 237 238 239 241 242 242 243 245 246 247 248
250 250 250 251 252 253 254 255  96  96  97  98  99  99 101 101 102 103 103 104 105 105 105 105
107 108 109 110 111 111 112 112 112 113 113 114 115 115 115 115 115 116 116 116 116 116 117 117
119 119 119 118 117 116 116 117 117 115 115 114 114 115 114 114 113 112 112 111 111 111 111 111
110 109 108 108 106 106 106 106 104 104 104 103 104 104 103 101 100 100 100  99  98  97  96  96
 96 255 254 254 252 252 251 250 249 249 249 248 246 245 243 243 242 241 242 241 239 239 238 237
236 234 233 232 231 230 230 229 228 228 228 227 225 225 224 127 127 127 126 125 124 124 123 123
123 122 122 121 120 119 118 118 118 118 117 117 117 117 116 116 115 115 114 113 112 112 112 111
109 109 108 108 107 106 104 104 103 103 102 101 100 101 100 100  98  97  97  96  96 223 223  96
222 222 221 221 220 219 218 217
196 196 198 199 197 198 198 198 199 200 200 201 203 203 203 203 204 203 203 203 206 204 205 205
206 207 207 206 205 210 209 208 208 210 210 210 211 211 212 211 213 216 217 218 218 217 216 223
223  64  66  67  72  72  72  73  73  78  80  83  84  85  87  88  91  93  94 192 196 198 201 202
204 208 210 211 213 214 217 218 220  96  98  99 100 100 104 105 108 110 112 113 116 118 119 120
121 123 124 127 225 226 227 229 230 232 232 234 235 236 238 239 241 242 242 243 245 247 247 248
248 249 249 250 252 252 253 254 255  96  96  97  98  99 100 101 103 103 103 104 104 105 105 105
106 107 108 109 110 111 111 112 111 111 112 113 115 115 115 115 114 114 114 115 116 116 117 117
118 118 118 117 115 115 116 116 116 116 114 114 114 114 113 113 112 112 112 111 111 111 111 110
110 109 109 109 107 106 106 105 104 103 103 103 103 103 102 101 100 100 100 100  98  97  97  97
255 254 254 253 252 251 251 250 249 248 247 247 246 246 244 244 242 241 241 240 239 239 238 236
235 234 233 233 231 231 230 229 228 228 228 227 225 225 127 127 126 126 126 125 124 124 124 124
122 122 121 120 119 119 118 118 118 118 117 117 117 116 115 115 114 115 115 114 112 111 111 111
109 110 109 108 108 106 105 104 102 102 101 101 100 100  99  99  99  98  97  97 223 223 223 222
222 222 222 221 219 219 218 218
196 195 197 198 197 196 196 197 198 200 201 202 202 203 202 203 201 204 203 202 202 206 208 206
206 208 208 206 204 210 209 209 209 208 209 209 211 211 211 210 210 217 216 217 218 217 219 221
222 223  65  69  70  73  74  74  75  77  77  79  82  84  87  87  89  90  93  95 195 197 199 201
203 206 208 209 213 215 218 219 221 223  97  98 100 100 104 105 108 110 112 113 116 117 119 121
121 122 124 126 225 225 226 228 229 231 232 234 235 236 238 239 240 240 241 242 245 245 246 247
247 248 249 251 252 252 253 253 254 255 255  96  98  99 100 100 103 103 103 104 103 104 104 105
106 106 107 108 109 110 110 110 111 111 111 112 114 114 114 114 114 114 114 115 116 116 117 117
117 117 117 116 115 115 116 116 115 114 114 114 113 113 112 112 111 111 111 111 111 111 110 110
109 109 109 109 107 106 105 105 105 103 103 102 101 102 101 101 100 100  99  99  98  97  97  96
255 253 254 253 252 251 250 250 248 247 246 246 244 244 243 244 242 241 240 239 238 238 237 236
234 234 233 233 231 231 230 229 228 228 227 227 224 224 127 126 126 126 126 125 123 123 123 123
122 121 120 120 119 119 118 118 118 117 117 116 116 116 115 115 114 115 114 113 112 112 111 111
110 110 109 108 107 107 105 104 103 102 102 101  99  98  99  99  98  98  97  96 223 222 221 220
221 222 222 221 218 218 218 218
195 197 198 198 196 196 196 197 199 200 201 202 203 202 201 202 203 198 200 203 202 203 205 206
206 207 206 205 205 207 207 208 209 208 208 208 209 210 211 211 213 214 217 218 218 218 218 220
221 222  65  67  71  74  74  74  75  76  78  78  82  85  87  87  87  89  92  95 193 194 197 200
202 204 208 209 212 214 216 219 221 222  96  97 100 100 104 106 109 111 113 114 116 118 119 120
121 121 122 125 224 224 225 227 229 230 232 233 236 236 238 239 240 240 240 242 245 245 246 247
247 247 248 250 252 253 253 253 255 255  96  96  98  98 100 100 102 102 102 103 103 103 103 104
105 106 106 107 109 110 110 110 111 111 111 112 113 113 113 113 114 114 115 115 116 116 116 116
116 116 116 115 115 115 115 115 115 114 113 114 112 113 112 112 111 111 111 111 111 111 110 109
109 109 109 109 107 107 105 105 105 104 103 102 101 101 101 101 100 100  99  99  98  97  96  96
255 253 253 253 252 251 250 250 249 247 246 246 244 244 243 244 242 241 240 239 237 237 236 235
234 233 232 232 231 231 229 229 228 228 227 226 224 224 224 127 126 126 126 125 124 124 123 123
122 121 120 120 119 118 119 118 118 117 117 117 116 116 115 114 114 114 113 113 112 112 111 111
110 110 109 108 107 107 106 105 103 101 101 101  99  98  98  98  98  97  96 223 223 222 222 221
222 221 221 220 219 219 218 219
197 197 197 197 197 196 196 197 198 197 198 199 199 200 201 201 200 200 200 202 204 201 203 204
205 207 207 204 203 205 204 205 208 208 208 208 209 210 211 212 213 214 216 217 217 217 219 222
222 223  65  66  71  73  73  73  75  77  77  78  82  84  86  86  88  88  90  94 192 195 197 199
202 204 208 209 211 213 216 219 221 222  96  97 100 101 103 104 109 111 112 113 115 117 118 119
120 120 122 124 127 224 225 227 228 230 231 232 235 236 237 238 238 239 240 241 244 245 245 246
247 247 248 249 251 252 252 253 254 255  96  96  98  98  99 100 100 101 102 102 103 103 103 104
106 106 106 107 108 109 109 109 110 111 111 112 112 113 113 113 114 114 114 114 115 115 115 116
117 116 116 115 115 115 115 115 114 113 113 113 112 113 112 112 111 110 110 111 110 111 110 110
109 109 108 108 107 107 105 105 104 103 102 102 101 102 101 101  99  99  99  98  98  97  96 255
254 253 253 252 251 250 250 250 250 248 247 247 245 244 243 243 242 240 240 239 237 236 235 235
234 234 233 232 231 231 229 229 228 228 227 226 224 127 127 127 126 125 125 124 123 123 122 122
122 122 121 120 119 118 119 119 118 117 117 116 115 115 115 114 114 114 113 112 112 112 111 111
110 110 109 108 106 105 105 104 103 102 102 101  99  98  98  98  98  97  96 223 223 223 222 221
221 221 221 220 219 218 218 219
198 197 197 196 196 196 196 197 199 197 197 198 198 199 203 199 198 200 201 203 205 204 202 202
206 208 208 204 203 204 205 206 208 209 209 209 210 211 211 212 212 213 217 217 218 218 220 222
223 223  65  66  70  71  72  72  74  76  77  78  83  84  86  87  87  89  91  94 192 195 196 200
202 205 207 210 210 214 216 218 220 221 223  97 100 100 102 103 108 110 110 112 114 116 117 118
119 120 122 124 127 127 225 227 228 230 232 233 235 235 236 237 238 239 241 242 243 244 245 246
247 247 247 249 250 251 251 252 253 255 255  96  98  98  98  99 100 101 101 102 102 102 102 103
106 107 106 106 107 108 109 109 110 111 111 111 112 112 112 112 113 114 114 114 114 114 115 115
116 116 116 115 115 115 115 115 114 113 113 113 112 112 111 111 111 111 111 110 109 110 109 109
109 108 107 108 106 106 105 104 103 103 102 102 100 101 100 100  99  98  98  97  97  97  96 255
254 253 253 252 251 250 249 249 249 248 247 246 244 244 243 243 242 240 239 238 237 236 235 235
234 233 233 232 231 231 229 229 228 227 226 226 224 127 126 126 126 125 125 124 123 122 122 122
122 121 121 120 119 119 119 119 119 117 116 116 115 115 115 115 114 113 112 112 111 111 111 111
109 109 108 107 106 105 105 104 103 102 102 101 100  99  99  99  97  97  96 223 223 223 223 222
221 220 221 220 218 218 218 218
198 196 196 196 199 198 198 198 198 198 198 197 199 200 200 201 199 199 200 202 204 206 203 201
208 207 208 206 204 206 206 208 209 210 211 212 212 212 212 213 214 215 215 216 218 219 219 219
221 221 223  65  68  69  71  72  75  75  78  79  82  84  85  87  88  89  91  94 193 194 198 200
203 204 206 208 212 213 215 216 219 221 223  97 100 100 101 103 105 107 108 109 113 114 116 117
119 121 122 124 127 127 224 225 227 227 231 232 234 236 236 236 238 239 240 241 241 242 243 244
246 247 247 248 250 250 250 251 253 254 255  96  97  97  98  98  99 100 100 100 102 103 103 104
105 105 105 104 106 106 108 108 110 111 111 111 111 111 112 112 113 113 114 114 115 115 115 115
115 114 114 115 114 113 114 113 114 113 113 112 112 112 112 111 110 110 110 109 109 108 108 108
108 107 107 106 106 105 104 103 103 103 102 101 100 100 100 100 100  98  98  97  96  96 255 255
254 253 252 251 251 250 250 249 248 247 247 246 245 244 243 243 241 240 239 239 237 236 235 234
233 232 232 232 231 230 230 229 228 227 226 225 224 224 127 126 126 125 124 123 122 122 122 121
121 121 120 119 119 118 118 119 118 117 117 116 116 115 114 114 114 114 113 112 111 110 110 110
108 108 107 107 105 105 105 104 103 102 102 101 100 100  99  98  98  98  97  96 222 222 223 222
221 220 220 219 218 217 216 218
195 196 196 196 198 197 197 197 197 196 197 197 200 199 200 202 202 201 200 201 201 200 203 211
206 203 205 207 206 207 207 207 207 208 210 211 212 212 212 211 213 215 214 215 217 218 220 220
221 221 223  65  68  68  70  71  73  75  78  80  82  83  84  87  89  92  91  93  95 193 197 200
203 204 206 208 211 212 213 215 216 220 223  96  98  99 101 102 104 107 108 109 112 114 115 117
119 120 121 123 126 127 224 225 226 227 230 231 234 235 236 236 238 239 239 240 241 242 242 243
245 246 247 248 249 250 250 251 251 253 254 255  96  97  97  98  98  99  99  99 101 102 103 103
104 104 104 104 106 106 108 108 110 110 110 111 111 111 111 112 112 113 113 113 113 114 114 114
113 113 113 114 113 113 114 114 113 112 112 111 111 111 110 110 109 109 109 109 109 109 108 108
108 107 106 106 105 104 103 103 102 101 101 100 100 100  99  99  99  97  98  97  96 255 254 254
252 252 252 251 251 250 249 248 247 247 246 245 244 244 243 243 241 240 238 238 237 237 236 234
233 232 232 232 231 230 229 228 227 225 225 224 224 127 126 126 125 124 123 123 123 122 121 121
121 120 120 119 118 118 118 118 117 117 116 115 115 114 114 114 114 114 113 112 110 110 110 110
106 107 106 106 106 106 104 103 102 102 102 101 100  99  98  98  98  97  96 223 222 222 222 222
221 220 219 218 217 217 217 217
193 196 197 197 197 197 198 197 196 196 195 197 199 199 200 202 202 202 201 202 201 202 205 208
208 204 205 206 207 208 206 205 207 209 211 212 212 210 211 211 213 214 215 216 217 218 219 220
222 223  64  65  68  69  70  71  73  75  78  79  82  81  83  86  89  91  91  91  94 193 197 199
202 204 206 208 210 212 213 215 217 220 223  96  97  98 100 102 104 105 108 110 112 113 115 116
118 120 120 122 125 126 224 225 226 226 229 231 233 235 236 237 238 239 239 240 241 242 243 244
245 245 247 248 249 250 250 251 252 253 254 255 255 255  96  97  98  98  98  99 101 102 103 103
103 103 103 104 106 106 107 108 109 110 110 111 111 111 111 112 111 112 112 113 113 114 113 114
113 112 112 113 113 113 113 113 113 112 111 111 111 112 111 111 109 108 108 109 109 109 107 108
107 107 106 105 104 104 103 103 102 102 101 100  99  99  99  99  98  97  97  97 255 254 254 253
252 252 252 251 251 250 249 248 247 247 246 245 243 243 242 242 240 239 238 238 236 236 236 235
233 232 232 232 232 231 229 228 226 225 225 224 224 127 127 126 125 124 123 123 122 121 121 121
121 120 120 119 117 117 117 117 117 117 116 116 115 114 114 114 113 113 113 112 110 110 110 110
108 107 107 106 106 106 104 103 101 101 101 101 100  99  98  98  97  97  96 223 221 221 222 222
220 220 219 219 217 217 217 216
195 196 196 196 197 197 197 196 196 196 196 197 199 199 201 200 200 199 204 203 201 202 205 204
205 205 206 207 208 208 207 206 206 208 210 211 211 209 210 211 212 212 215 216 218 218 218 219
221 223  64  66  68  69  70  72  74  76  78  79  81  81  82  85  89  91  91  90  94 193 196 198
201 205 207 208 209 212 214 215 217 221 222 223  96  97  99 101 103 105 109 110 111 112 116 117
118 119 119 121 125 126 224 225 225 226 229 230 233 234 236 237 237 238 239 240 242 242 243 244
244 245 246 248 249 250 250 250 252 253 254 254 254 254 255  96  97  97  97  98 100 101 102 102
103 103 104 104 105 106 106 107 108 109 109 110 111 111 111 111 110 112 112 113 112 113 113 113
112 112 112 112 113 113 112 112 112 112 111 111 111 111 111 110 109 109 109 108 108 108 107 107
107 106 106 105 104 103 103 103 102 101 101 100  99  99  99  98  97  96  96  96 255 254 253 252
251 251 251 250 250 250 249 248 247 247 246 246 243 243 242 241 239 238 237 237 236 236 235 235
233 232 231 231 231 230 229 228 226 225 225 224 127 127 126 126 124 123 123 123 122 121 121 120
120 120 120 119 117 117 117 117 116 116 116 115 115 114 114 114 113 113 113 112 110 110 109 109
108 107 107 106 105 105 103 102 101 101 101 101  99 100  99  99  97  96  96 223 221 222 221 221
220 220 219 218 217 217 216 217
194 195 196 197 196 196 196 197 198 198 198 198 198 199 200 199 199 198 204 204 203 202 203 204
203 206 207 207 206 206 206 207 209 210 210 210 211 210 210 212 213 214 212 213 218 218 217 218
220 220 221 222  67  68  71  72  74  76  78  79  79  81  83  84  88  89  89  89  94 194 197 198
202 205 207 208 208 211 214 216 218 218 221 222  96  97  98 100 102 105 107 108 111 111 114 116
118 119 119 121 124 125 224 225 227 227 228 229 232 233 234 236 237 238 239 240 242 242 243 244
244 244 245 246 248 249 249 249 250 252 252 253 254 254 254 255  96  97  97  98  99 100 101 101
101 102 103 104 105 106 106 107 107 108 108 109 109 110 110 110 110 111 111 111 112 112 112 112
112 111 110 110 111 111 112 112 110 110 110 110 110 110 109 109 109 108 108 108 107 107 106 106
106 105 105 104 105 104 103 103 102 101 101 100 100  99  98  98  97  96 255 254 254 254 253 252
252 251 251 251 249 249 248 247 246 246 246 245 244 243 241 240 238 238 237 236 235 235 235 234
232 231 231 230 230 229 228 228 226 226 225 225 127 127 126 125 124 123 123 123 122 121 121 120
119 119 119 119 117 117 117 117 116 116 115 115 114 114 114 114 113 112 112 111 109 109 110 109
109 108 108 107 105 104 103 103 102 102 100  99  99  99  99  99  98  97  96 223 221 221 221 222
219 219 220 219 218 218 217 216
192 194 196 196 195 195 196 198 197 199 200 198 198 198 199 199 199 198 201 201 202 201 202 202
203 207 206 205 203 204 205 206 208 209 208 209 210 209 210 211 213 212 213 213 217 215 217 217
218 220 220 223  66  67  67  71  73  75  76  77  80  80  81  82  87  88  89  89  94 192 195 197
201 204 204 206 208 211 214 214 216 218 219 221 223 223  97 100 102 104 105 107 110 111 114 116
117 118 119 120 123 124 127 224 226 227 228 229 231 232 234 235 237 237 238 238 241 241 242 242
244 244 245 245 248 248 248 249 249 251 251 252 254 253 254 254  96  96  96  97  99 100 100 100
101 102 103 103 104 105 106 107 107 107 107 108 109 109 110 110 110 110 110 110 111 111 111 111
111 111 110 110 110 111 111 111 110 110 109 110 109 109 108 108 108 108 108 107 107 106 106 105
106 105 105 104 104 103 102 102 102 101 101 100  99  98  98  97  96  96 255 254 254 254 252 252
251 251 251 250 249 249 248 248 246 245 245 244 243 243 241 240 238 238 236 235 234 235 234 234
232 230 230 229 229 228 228 228 226 225 225 224 127 127 125 125 124 123 123 123 122 121 120 120
119 119 119 119 117 117 117 117 116 115 115 116 114 114 114 113 112 113 112 111 110 109 109 109
109 108 107 106 105 104 103 103 103 102 100  99  99  99  98  98  97  97 223 222 221 222 222 222
220 219 219 218 217 217 217 218
192 194 195 196 195 194 196 198 196 196 199 198 197 198 198 199 197 199 199 198 202 202 203 204
205 206 206 204 203 203 205 206 208 205 208 209 209 209 211 212 213 212 212 213 216 217 217 217
219 219 221 222  65  67  68  72  74  76  76  76  78  79  80  80  85  87  88  90  93  95 193 197
201 203 204 204 209 209 212 213 215 217 218 221 223 223  97 100 101 103 104 108 111 111 112 114
117 118 119 120 123 124 126 127 225 226 227 228 231 232 233 234 236 237 237 238 240 241 242 242
244 244 245 246 247 248 248 248 249 250 250 252 253 253 254 255 255 255  96  97  98 100 100 100
101 102 102 103 104 104 105 105 106 107 107 108 109 109 109 109 110 110 110 110 110 110 110 110
110 110 110 110 109 110 111 111 110 109 109 109 109 109 108 108 108 108 107 107 107 106 106 105
105 103 103 103 103 103 102 102 101 100 100  99  99  99  98  97  97  96  96 255 254 253 252 252
251 251 251 251 248 248 247 247 245 245 245 244 243 242 241 240 239 238 237 236 235 235 234 234
232 231 230 229 229 229 229 228 226 224 224 224 127 127 125 125 123 123 122 122 121 121 120 120
119 119 118 118 117 117 117 117 116 116 116 116 115 114 113 113 112 112 111 111 110 109 109 109
109 107 106 106 105 105 103 103 103 102 101 101 100  99  98  97  96  96 223 223 223 223 223 222
220 219 218 218 217 216 215 216
196 194 196 196 195 194 195 195 196 196 197 197 199 200 199 198 198 199 201 203 203 203 203 205
206 204 205 204 203 203 205 204 206 207 208 209 210 210 212 212 213 213 213 213 216 218 217 217
218 219 222 222 223  65  70  71  74  76  76  76  79  80  80  80  85  86  88  89  91  93 192 196
200 201 203 204 208 208 211 212 214 216 218 221 223  96  97 100 102 104 105 107 110 111 111 114
117 117 119 121 123 123 125 127 225 227 227 228 231 231 233 234 235 236 237 237 239 240 241 241
243 244 245 246 247 248 248 248 248 249 250 252 253 253 254 254 255  96  96  96  98 100 100 100
100 101 102 102 103 103 104 105 106 107 107 108 108 109 109 109 109 110 110 109 110 110 110 110
110 110 110 110 109 110 110 110 110 109 109 108 108 108 108 108 108 107 107 107 106 106 106 105
105 103 103 102 102 102 102 101 101 100 100  99  98  98  97  96  96 255 255 255 253 253 252 252
251 251 251 250 248 247 247 246 245 244 244 244 242 241 240 239 239 238 237 236 234 234 234 234
232 231 230 230 229 229 228 227 226 224 224 127 127 127 125 124 123 123 122 121 121 121 120 120
119 118 118 118 117 117 117 116 116 116 116 115 114 114 113 113 113 112 112 111 109 109 109 109
109 107 106 105 105 104 103 103 102 102 101 100  99  99  98  97  96  96 223 223 223 223 222 222
220 219 219 218 216 216 215 214
200 194 195 196 196 195 195 194 197 197 197 198 199 200 200 198 198 199 203 205 205 204 204 204
204 208 205 204 205 206 208 209 207 208 209 210 210 211 213 213 214 214 214 214 217 218 218 218
221 220 223 222 223  67  70  71  73  75  75  76  78  79  81  81  84  85  87  88  90  92 192 195
199 200 202 203 207 208 210 212 214 216 218 221 223  96  98 100 103 104 105 106 109 110 111 113
116 116 118 120 123 123 125 127 225 226 227 228 230 230 232 233 234 235 236 237 238 239 240 241
243 244 244 245 246 247 248 248 248 249 250 251 252 252 253 253 255  96 255 255  98  99  99 100
100 101 101 102 103 103 104 105 106 106 107 107 108 108 108 109 108 109 109 109 109 109 109 109
109 109 109 109 109 110 110 110 109 108 108 108 108 108 108 108 108 108 108 107 106 105 105 105
104 103 103 102 101 101 101 101 100  99  99  98  98  97  96  97  96 255 255 254 252 252 252 251
251 250 250 249 247 246 246 246 245 244 244 243 242 241 240 239 238 238 238 237 235 234 234 234
232 232 231 231 229 228 228 228 226 224 127 127 127 127 125 124 122 122 122 121 121 121 120 120
118 118 117 117 116 116 116 116 116 115 115 115 113 113 113 113 112 112 112 111 109 108 109 108
108 106 106 105 105 104 103 103 102 102 101 100 100  99  98  97  96  96  96  96 223 222 222 221
220 219 219 219 216 215 215 215
201 195 196 197 198 198 197 196 196 195 195 198 200 200 200 200 199 199 202 203 205 206 205 205
202 202 203 205 206 208 208 207 208 209 210 211 212 211 209 211 212 213 214 214 216 219 219 219
220 222 223 223 223  68  71  72  74  75  76  77  79  80  83  83  83  84  87  88  90  92 193 196
199 201 203 206 209 210 211 212 214 215 218 219 222  96  98 100 102 103 104 105 108 110 112 114
116 117 118 120 123 123 125 127 225 226 227 227 229 229 231 232 233 234 235 236 238 238 239 240
241 242 242 243 245 246 246 247 247 248 249 250 251 251 252 253 254 255 255 255  97  98  98  99
100 101 101 101 103 103 104 105 106 106 106 106 108 108 108 108 109 109 109 109 109 109 109 109
109 109 110 110 110 110 110 110 110 109 109 108 108 108 108 108 108 107 107 106 105 104 105 104
104 103 103 102 101 100 100 100 100  99  99  98  97  97  96  96 255 255 254 253 251 251 250 250
249 249 248 247 246 246 246 245 244 243 242 242 241 241 240 239 239 238 237 236 235 235 234 234
232 232 231 231 230 228 227 227 225 225 224 127 126 125 125 124 123 123 122 121 121 121 120 120
118 117 117 117 116 116 116 116 115 115 115 114 113 113 112 112 111 111 110 109 109 108 108 108
107 106 106 106 105 104 103 103 102 101 101 100  99  98  98  97  97  96  96 223 223 222 221 220
219 219 220 220 218 217 215 215
197 196 196 196 198 198 197 197 195 196 195 197 198 199 199 199 200 199 202 202 204 205 204 203
203 201 203 204 205 207 206 205 205 208 207 208 206 211 210 210 211 212 213 214 216 216 217 219
219 221 220 221 220  67  71  71  73  74  75  77  80  81  82  81  83  86  87  88  90  92 193 196
199 201 203 205 209 210 211 211 213 215 218 219 222 223  97  98 100 101 102 105 108 110 112 113
115 116 117 119 122 123 125 126 224 225 225 226 228 229 231 232 233 234 235 236 237 238 238 239
241 242 242 243 244 244 245 245 246 247 248 249 250 250 251 252 253 254 254 255  97  97  97  98
 99 101 101 101 103 103 103 104 106 105 105 106 107 107 108 107 108 108 108 108 109 109 109 109
109 108 109 109 109 109 109 109 109 109 109 108 108 108 108 108 107 106 106 106 105 104 104 104
103 103 102 102 100 100 100 100  99  98  98  98  97  96  96  96 255 254 253 252 251 251 250 249
248 247 247 246 246 245 245 244 244 243 242 241 240 240 239 238 238 238 237 236 236 235 233 233
232 231 231 230 229 228 227 226 225 224 127 126 125 124 124 124 123 122 122 121 121 120 120 119
118 117 117 117 116 116 116 116 115 114 114 113 113 113 112 111 110 109 109 108 109 108 108 107
107 106 106 106 105 104 103 103 101 101 100 100  98  98  98  97  97  96  96 223 222 221 220 220
219 219 220 219 217 216 216 216
194 194 194 194 195 196 197 198 195 195 195 196 197 196 197 197 199 200 202 203 203 204 203 203
204 204 203 203 204 204 204 205 205 207 206 208 208 210 210 209 208 213 213 214 214 214 215 217
219 221 221 221 222  66  68  69  70  73  74  76  80  80  78  76  86  85  86  89  91  93 193 194
196 200 202 205 208 209 210 210 211 214 216 218 221 223  96  97  99 101 102 103 107 110 111 112
113 115 116 118 120 121 123 125 127 224 225 226 227 229 231 231 233 234 234 235 236 236 237 237
239 241 241 242 243 244 244 245 246 246 247 248 249 249 251 252 253 253 254 255  96  97  97  97
 99 100 100 101 102 102 103 104 105 105 105 105 106 106 107 107 107 108 108 108 108 108 109 109
109 108 109 108 108 109 108 108 108 109 108 108 108 108 108 108 106 105 105 105 104 104 103 103
103 102 102 101 100  99  98  98  98  98  97  97  96  96 255 255 253 253 252 251 250 250 249 248
247 247 246 246 245 245 244 244 244 243 242 241 240 240 239 239 238 237 236 235 234 233 233 233
232 230 230 229 228 228 226 226 224 224 127 126 125 124 124 124 124 122 121 120 120 120 119 119
117 117 116 116 116 116 115 115 113 112 112 112 112 112 111 111 110 109 109 108 109 108 108 107
105 105 105 105 104 104 103 102 101 100 100  99  98  98  97  96  96 223 223 223 222 222 221 220
219 219 219 218 216 215 215 215
193 193 193 193 195 196 198 198 196 195 195 196 195 196 197 198 196 200 201 202 203 203 202 202
203 205 204 204 203 204 204 205 208 209 207 208 209 210 210 209 209 212 212 213 215 215 216 217
219 221 221 222 223  65  67  68  70  72  73  75  78  79  80  81  82  83  85  88  90  93 192 192
192 201 201 203 206 207 209 210 211 214 216 217 221 222 223  97  99 101 102 104 107 109 110 111
112 114 116 118 119 120 122 125 126 224 225 225 227 229 231 231 233 234 234 235 236 236 237 238
240 240 241 241 242 243 244 244 245 246 246 247 248 249 250 251 253 253 253 254  96  96  97  97
 98  99 100 101 102 102 103 103 104 104 104 105 105 105 106 106 107 107 107 107 108 108 108 108
108 108 108 108 107 107 107 107 108 108 108 107 108 108 107 107 105 105 105 105 104 104 103 102
102 101 101 101  99  99  98  98  97  96  96  96 255 255 255 254 253 253 252 251 250 250 250 249
247 246 245 245 245 245 244 244 244 242 241 240 240 240 239 239 237 237 236 235 234 233 233 233
231 230 229 229 228 227 226 226 224 224 127 126 125 125 124 124 123 122 121 120 120 119 119 119
118 117 117 116 116 115 115 114 113 112 112 112 112 112 112 111 110 109 109 108 109 108 108 107
106 105 105 105 104 103 102 102 101 101 101 100  99  99  97  96  96  96 223 222 221 221 220 220
219 219 218 218 217 216 215 214
194 193 194 194 194 196 197 197 196 195 194 195 196 196 198 199 200 197 198 201 202 202 201 201
202 204 204 204 204 204 204 205 203 205 208 208 210 210 211 210 210 211 212 212 215 215 216 217
220 222 221 221 223 223  65  68  69  71  73  75  77  79  81  82  80  82  84  86  89  92  95 193
 95 200 200 202 207 208 208 210 212 214 215 217 220 221 222  96  99 101 103 104 107 108 109 111
112 114 116 117 119 119 121 124 125 127 224 224 227 228 230 231 232 233 233 234 235 235 236 237
239 240 240 241 241 242 243 243 244 245 246 246 248 249 250 251 253 253 253 254 255  96  96  97
 97  98  99 100 101 102 102 103 103 103 103 104 104 104 105 105 106 106 107 107 107 107 107 107
108 108 108 107 106 106 106 106 107 107 107 106 108 108 107 106 105 104 104 104 104 103 103 102
101 100 100 100  99  99  98  97  96 255 255 255 254 254 254 253 253 252 251 250 249 250 249 249
247 245 245 245 244 244 243 243 243 241 241 240 239 239 238 238 236 236 235 235 233 232 232 232
231 230 229 228 227 227 226 226 225 224 127 126 125 125 124 123 122 121 121 120 119 119 118 118
117 116 116 115 115 115 115 114 113 111 111 111 111 111 111 111 110 109 109 109 108 108 107 107
105 105 105 104 103 102 102 101 101 101 101 100  99  99  98  97  96 223 222 221 221 221 220 220
218 218 218 217 216 216 215 215
193 194 196 197 195 196 197 197 197 196 194 195 197 198 200 201 201 198 199 200 201 200 201 202
203 203 205 206 206 205 205 205 204 205 207 209 210 210 209 209 210 212 212 213 215 216 217 218
220 222 223  65  64 221  65  68  69  70  74  75  75  76  79  80  82  82  85  86  90  91 192 193
195 195 198 200 206 207 208 209 212 215 216 217 219 221 222  96  98  99 100 103 106 107 109 110
111 112 116 119 119 120 120 122 123 126 127 224 225 227 228 229 231 232 233 233 235 235 237 238
239 239 239 239 241 242 242 243 244 244 244 245 248 249 250 250 252 252 253 254 254 254 255 255
 96  97  97  98 100 101 101 102 103 103 102 103 104 104 104 104 105 105 105 106 107 107 108 107
107 107 107 107 106 107 106 107 107 107 106 106 106 107 106 106 105 103 103 104 103 103 101 101
100 100 100 100  99  98  97  96 255 254 255 254 253 252 252 252 252 251 250 250 249 249 248 247
246 246 245 244 243 243 242 241 241 240 240 240 238 238 237 237 235 235 235 234 233 233 232 231
230 229 228 227 226 226 226 226 224 127 126 125 125 124 123 122 121 120 119 119 119 118 118 118
116 116 115 115 114 114 114 114 113 113 112 112 111 111 111 111 110 109 109 109 108 107 106 106
105 105 104 103 104 103 102 101 101 101 101 101  99  99  98  98  96 223 223 222 221 220 220 220
220 219 217 216 216 216 215 215
195 194 196 194 195 195 196 196 195 196 196 197 196 195 198 200 202 197 198 199 200 199 202 202
203 203 204 203 203 203 204 204 205 206 207 208 208 208 208 208 210 212 213 213 215 215 216 215
219 220 222 223 222 220  64  65  66  66  75  74  72  73  77  79  81  82  83  85  89  91  92 192
195 196 198 200 205 206 207 208 211 214 215 217 218 220 221  96  97  98 100 101 104 107 109 109
111 113 115 118 119 120 121 122 123 125 127 127 225 227 228 229 230 232 233 232 234 234 236 237
238 238 238 239 240 241 241 242 243 244 244 245 247 248 249 249 251 252 252 253 254 254 254 255
 96  96  96  97  99 101 101 101 102 102 102 102 103 104 104 104 104 104 104 104 106 106 107 106
106 106 106 106 106 106 106 106 106 106 105 106 105 106 105 105 104 103 103 103 102 102 101 101
100  99  99  99  98  97  96 255 254 254 254 254 253 252 252 251 251 251 250 249 247 248 247 246
246 245 245 244 243 242 242 241 240 239 239 239 238 237 236 236 235 235 234 234 233 232 232 231
229 229 228 227 226 226 225 225 127 126 126 125 124 124 123 122 121 120 119 119 118 118 117 117
116 115 115 114 114 113 113 113 113 112 112 112 111 111 110 109 109 108 108 108 106 105 105 105
104 104 104 103 103 102 102 101 100 100 100  99  98  98  98  98  96 223 222 222 220 220 219 219
219 218 217 216 215 215 215 214
192 194 193 193 194 194 195 196 195 196 196 196 197 193  95 194 196 198 200 200 200 200 202 202
203 202 203 202 201 202 203 203 204 206 206 207 208 209 209 209 210 211 212 211 214 214 214 214
217 218 216 215 216 223  64 223  64  65  75  73  67  71  75  77  79  81  83  86  88  89  92  94
193 195 197 198 202 204 205 208 211 214 215 216 217 218 220 222  96  97  98  99 103 105 107 109
111 113 116 117 118 120 121 122 124 125 126 126 225 225 227 228 229 231 232 232 234 234 235 235
237 237 237 238 239 240 241 241 242 242 243 244 246 246 247 248 250 251 251 252 253 254 254 254
255  96  96  97  99 100 100 101 102 102 102 102 103 103 104 103 103 103 104 104 105 105 106 106
106 106 106 106 105 106 105 106 106 106 105 105 105 105 105 105 104 104 104 103 102 101 101 101
100  99  99  99  98  97  96 255 254 254 254 254 252 251 250 250 250 250 249 248 246 246 246 245
245 244 244 244 243 242 241 240 239 239 239 239 237 237 236 235 235 235 235 234 232 232 231 230
229 229 228 228 226 226 225 224 127 126 125 125 124 124 123 122 121 120 119 119 118 118 118 117
116 115 115 114 113 113 112 111 111 111 111 111 111 110 109 108 108 108 108 107 106 105 104 104
103 103 103 102 103 102 102 101  99  99  99  98  98  98  98  98  96 223 222 222 221 220 219 219
219 218 217 216 214 214 214 214
192 194 192 192 193 195 194 195 194 195 196 197 196 195 195 195 196 195 198 200 200 199 201 201
202 201 202 201 202 201 202 203 204 205 205 206 208 209 209 209 210 210 211 211 215 214 214 214
216 218 217 218 218 221  64  64  64  64  73  71  69  71  74  76  78  79  81  84  88  88  90  92
 95 193 196 196 199 201 206 208 210 213 215 216 216 217 220 221 223  97  98  99 103 104 106 108
110 113 115 116 118 119 121 122 124 125 126 125 224 224 226 227 229 230 231 232 233 233 234 234
236 237 237 238 239 239 240 240 241 242 243 244 245 246 246 247 249 250 250 250 253 253 254 254
254 255 255  96  98  99  99 100 101 101 101 102 103 103 103 103 103 103 103 103 104 105 105 105
106 105 105 105 105 105 105 105 105 105 104 104 104 104 105 105 104 103 103 102 101 101 101 100
 99  99  99  98  97  96 255 254 254 254 254 254 252 251 250 250 249 249 249 248 246 246 245 245
245 244 244 243 242 242 240 240 239 238 238 238 237 236 236 235 234 234 234 233 232 232 230 230
229 228 228 227 225 225 224 127 127 125 125 125 125 125 123 122 121 120 119 118 117 118 117 116
115 114 114 114 113 112 111 111 110 111 111 111 110 109 108 108 108 107 107 107 106 106 104 104
104 103 103 102 103 102 102 101  99  98  98  98  97  97  97  97  96 223 222 221 221 219 219 219
218 218 217 216 214 214 214 214
198 195 194 193 194 194 196 195 195 194 195 195 195 197 197 197 197 195 199 200 202 201 201 200
200 199 201 200 202 202 202 202 203 205 206 207 210 211 211 211 211 210 210 212 214 214 214 214
215 216 218 219 221 221  64  65  65  66  68  69  70  82  79  78  78  78  80  83  87  88  90  91
 94  95 195 196 200 202 205 208 210 212 212 214 215 217 219 221  96  97  99 101 103 104 106 108
110 113 112 114 116 117 119 121 123 125 125 125 127 127 225 226 228 228 230 231 233 232 232 233
235 236 237 237 238 238 239 239 240 242 242 243 244 244 245 247 248 248 248 249 251 253 253 253
253 254 254 255  97  97  98  99  99 100 100 101 102 102 102 102 102 102 102 102 103 103 104 104
104 105 105 105 105 105 104 104 104 104 103 103 103 103 103 103 103 102 102 102 101 101 100 100
 99  98  97  97  96 255 254 254 253 252 252 252 252 251 250 249 249 248 248 247 245 244 244 243
243 243 243 242 241 240 240 240 239 238 238 238 237 236 235 235 234 234 233 232 230 230 230 230
229 228 228 227 225 224 127 127 126 125 125 125 124 124 123 121 120 120 119 118 118 118 117 117
114 114 113 113 113 112 111 111 109 109 109 109 109 109 109 108 107 106 106 106 105 105 104 104
102 103 103 102 102 102 100 100 100  99  99  98  97  97  96  97  96 223 221 220 220 220 219 219
218 217 216 215 213 213 213 213
198 195 195 194 194 194 194 195 192 194 195 196 193 195 197 197 196 194 197 199 201 200 199 198
199 199 201 200 201 201 202 202 204 205 206 207 209 211 211 211 212 209 212 213 214 213 213 213
214 216 217 219 221 222  65  66  66  66  68  69  67  78  77  77  77  77  79  82  85  86  87  89
 92  95 195 196 203 203 204 206 209 210 212 214 216 218 219 221  96  97  98  99 102 103 106 107
109 111 112 113 115 117 118 120 121 123 124 124 127 127 225 225 226 228 228 229 231 231 232 232
235 236 237 237 238 238 238 238 240 242 242 243 244 244 244 245 247 248 248 248 250 251 252 252
252 253 253 254 255  97  97  98  98  98  99 100 101 100 101 101 101 101 101 102 102 103 104 103
104 104 104 104 104 104 103 104 103 103 103 103 102 102 103 103 103 102 102 101 101 101  99  99
 97  97  97  97 255 254 253 253 253 251 251 250 251 250 250 249 248 248 247 246 245 244 244 243
243 243 242 241 240 239 240 239 238 237 237 237 236 235 235 234 233 233 233 232 230 230 230 230
229 229 228 227 225 224 127 126 125 125 124 125 124 123 122 122 120 121 120 119 118 117 117 116
114 113 113 113 113 112 111 111 109 109 109 109 109 109 107 106 105 104 104 104 104 104 103 103
102 102 102 102 102 100  99  99  99  99  98  97  97  97  96  96 223 222 221 220 219 219 219 218
216 216 216 215 213 213 213 214
194 195 194 193 192 193 194 196 194 195 196 196 193 193 196 197 197 197 196 196 198 200 199 198
199 200 201 201 201 201 201 202 205 206 206 207 209 211 211 211 208 211 212 211 213 213 213 213
213 214 215 219 221 221 223  64  68  66  67  67  70  71  74  74  77  78  80  83  85  86  88  90
 91 192 195 197 204 203 203 206 207 209 211 213 217 218 220 221  96  96  99 100 102 103 106 107
108 111 111 112 114 116 118 120 121 123 123 124 127 127 224 225 226 227 228 229 230 230 231 232
234 235 236 236 236 236 237 238 240 241 241 242 243 243 244 245 246 247 247 248 250 250 251 251
252 253 253 253 254 255  96  97  97  99  99 100 100 100 101 101 101 101 101 102 102 103 103 103
104 104 104 103 103 104 103 103 102 103 102 102 102 102 102 103 102 101 101 101 101 101 100  98
 97  96  96  96 255 254 254 254 252 251 250 250 250 250 249 247 246 246 245 245 245 244 243 242
242 242 241 240 239 238 239 238 238 237 237 236 236 235 235 234 233 233 232 232 231 230 230 230
229 228 227 227 225 225 127 127 126 125 124 124 123 123 122 122 121 121 120 119 118 117 117 116
114 113 112 112 113 112 111 110 109 108 108 108 109 109 107 106 105 104 103 103 103 103 103 103
102 102 102 102 101 100  99  98  99  99  97  96  97  97  96  96 223 222 222 221 219 219 219 217
216 215 215 214 214 213 213 213
193 194 194 194 193 193 194 195 195 195 196 196 193 194 196 198 198 198 197 197 199 199 199 198
200 201 201 201 201 202 202 203 206 206 207 208 210 211 210 210 211 208 211 212 212 212 212 212
212 213 213 217 220 221 222 222  70  71  65  66  69  71  73  74  76  78  79  84  85  85  87  90
 89 194 194 194 201 202 202 205 207 209 211 213 216 217 220 219 222 223  99 100 102 104 105 106
108 110 111 112 115 116 118 120 121 123 123 124 126 127 224 224 225 227 227 228 230 230 230 232
234 235 236 236 236 236 237 238 239 240 241 241 242 242 244 245 246 246 246 247 250 250 250 250
252 252 253 253 254 254  96  97  97  98  99  99  99  99 100 100 101 101 101 102 101 102 103 103
104 103 103 103 103 103 103 103 102 102 101 102 102 101 102 102 101 100 100 100 100 100  99  98
 97  96  96  96 255 254 254 253 252 251 250 250 249 249 248 246 245 246 245 245 244 244 243 242
241 241 241 240 238 238 238 237 237 236 237 236 235 235 234 234 233 232 232 232 231 230 230 230
229 228 227 227 225 224 224 127 125 124 124 124 124 123 122 122 120 120 119 118 117 116 116 115
113 112 112 112 113 112 111 111 109 109 108 108 108 108 107 106 105 104 104 103 103 103 103 102
102 101 102 102 101  99  98  97  99  99  98  97  96  96  96  96 222 222 221 220 220 219 218 217
217 216 215 214 214 213 213 214
194 194 194 194 194 194 194 195 196 194 196 196 195 195 196 197 198 199 198 197 198 200 200 199
200 200 201 202 201 202 202 204 205 205 206 207 210 211 209 209 212 205 210 213 211 211 212 211
211 212 212 216 219 220 221 222  66  64 220  65  70  70  72  74  76  78  78  85  85  84  85  87
 84 192 192 192 198 201 202 205 207 209 210 213 215 216 219 218 221  96  99 100 102 104 106 107
108 110 111 112 115 116 118 120 121 122 123 123 126 127 127 224 225 226 226 228 229 230 231 232
234 234 235 235 236 237 237 238 239 240 240 241 242 242 244 245 245 246 246 247 249 249 250 251
252 252 252 252 254 254 255  96  97  98  98  98  99  99 100 100 101 101 101 101 101 102 103 103
103 103 103 103 102 102 102 102 102 101 101 101 102 101 101 102 101 100 100  99  99  99  99  98
 97  96  96 255 255 254 253 253 252 251 250 250 249 249 248 247 245 245 244 244 244 243 243 242
241 240 240 239 237 237 237 236 236 236 236 236 235 235 234 233 232 232 231 232 231 230 230 230
229 228 227 227 225 224 224 127 125 125 124 124 123 123 122 122 120 120 119 118 116 116 116 115
113 113 112 112 112 112 111 110 109 109 108 107 107 107 107 106 104 104 104 103 103 103 103 102
102 101 102 102 101  99  98  97  99  99  99  98  96  96  96 223 221 221 221 220 220 219 218 217
218 216 216 215 214 213 213 213
195 192 194 195 194 195 195 194 195 194 195 196 196 197 197 198 199 199 199 199 200 199 202 201
200 201 201 202 202 202 204 204 204 204 206 207 209 209 209 209 205 211 210 210 211 211 211 211
213 213 214 215 218 219 221 221 223  64 221  65  68  70  73  75  75  75  79  84  84  85  85  87
 87 193  95 193 196 199 202 205 207 208 209 212 216 216 217 218 222 222  98  99 103 103 106 108
109 108 111 112 115 117 118 119 121 122 123 123 125 126 127 127 224 226 226 227 228 229 230 231
232 233 234 235 236 236 236 237 238 239 240 241 242 242 243 244 244 245 246 247 248 248 249 250
251 251 252 253 253 253 254 255  96  96  97  97  98  97  99 100 100 100 100 100 101 102 102 102
102 102 102 102 101 102 102 102 102 101 101 100 101 101 101 100 100  99  99  99  98  98  98  97
 96 255 255 254 254 253 252 251 251 251 250 249 247 247 246 246 246 245 244 243 242 242 241 241
240 240 239 238 236 236 236 235 235 235 236 235 233 233 232 232 231 231 230 230 230 229 229 228
228 227 227 227 224 127 126 126 125 125 124 123 122 121 121 121 120 119 118 117 116 116 116 115
113 114 113 112 112 111 109 108 108 108 108 107 106 105 105 104 104 104 103 103 102 102 102 102
102 102 102 102 100  99  98  98  99  99  99  98  96  96 223 223 223 222 221 220 218 217 217 217
218 216 215 214 213 213 213 214
 95  95 192 193 195 195 194 195 193 193 194 195 196 196 197 199 197 198 197 197 199 199 201 201
200 200 201 202 202 202 202 203 201 202 205 206 208 207 207 207 207 213 210 207 208 209 209 210
210 213 214 214 217 216 219 219 219 219  64  66  67  69  71  73  73  78  80  81  83  83  84  85
 87  92  93  94 193 197 200 204 206 207 208 210 214 215 216 218 221 223  96  99 101 102 105 107
109 108 110 111 113 115 117 118 120 121 122 122 125 125 126 127 224 225 225 226 227 228 229 230
231 233 233 234 236 236 235 236 237 239 239 240 241 242 243 243 243 244 245 246 248 248 248 249
250 251 252 253 253 253 253 254  96  96  96  96  97  97  98  98  99  99 100  99 100 100 101 101
101 101 101 101 100 101 101 101 100 100 100  99  99  99 100  99  99  99  99  98  97  98  97  96
255 254 254 253 253 252 251 251 250 250 249 248 246 246 246 245 245 244 243 242 241 241 240 239
239 238 238 238 236 235 235 235 234 234 234 233 232 232 231 231 230 230 229 229 229 229 229 228
227 226 226 225 127 127 126 125 125 125 124 123 122 121 120 121 120 119 117 116 116 116 115 114
112 113 112 111 110 110 108 107 106 107 107 106 105 104 104 104 103 103 103 102 102 102 101 101
102 102 102 101  99  99  97  97  98  98  97  96 223 223 223 223 222 222 221 220 218 218 217 217
216 216 215 214 212 212 212 213
 94  95 194 195 194 192 192 193 193 194 194 195 195 196 199 201 197 198 197 196 200 199 200 200
200 200 201 202 202 203 202 202 200 202 203 205 205 205 206 206 206 210 207 206 209 209 206 207
211 212 214 216 216 217 219 220 218 219  65  66  67  69  70  71  74  77  79  81  83  82  84  86
 88  92  93  94 192 195 197 201 206 207 210 211 214 215 216 218 220 222  96  98 101 102 103 104
106 107 109 111 113 114 116 117 119 120 121 122 125 125 126 126 224 225 225 226 227 228 228 228
230 232 233 234 234 234 235 236 237 238 238 239 241 242 242 242 242 243 243 244 246 247 247 248
250 251 251 251 253 253 253 254 255 255 255  96  97  97  97  97  99  99  99  99 100 100 101 100
101 101 101 101 100 101 101 101  99  99  99  99  99  99 100  99  99  98  98  97  96  97  96 255
254 254 253 253 252 252 251 250 249 249 248 248 246 246 245 245 244 243 243 242 240 239 239 238
238 238 238 238 236 235 235 235 233 233 234 233 232 232 231 231 229 230 229 229 229 228 228 227
227 226 225 225 127 127 125 125 124 125 124 123 122 121 120 120 119 118 117 116 116 115 114 114
112 112 111 110 110 109 108 108 106 105 106 106 105 104 104 104 103 103 103 102 102 102 101 101
102 101 101 100  98  98  97  97  97  97  96 223 222 223 222 223 222 222 221 220 218 218 218 217
217 216 215 214 212 212 212 213
192 192 195 195 193  95 192  95 194 193 195 196 196 197 199 201 196 196 197 195 200 198 198 201
201 200 201 201 202 203 201 200 201 202 203 204 203 204 205 206 208 209 208 206 208 208 205 205
209 211 213 217 216 216 219 220 219 221  65  66  68  68  69  71  75  76  79  79  81  82  84  85
 89  90  93  94 192 194 196 202 205 207 209 210 213 214 215 218 220 223  97  98 101 101 101 102
104 106 108 109 112 113 115 116 119 120 121 122 124 124 125 125 127 224 224 225 227 227 227 227
229 231 232 233 234 234 234 235 236 237 238 239 241 242 242 242 242 243 243 244 245 246 246 247
250 250 250 250 252 252 253 254 254 254 254 255  96  97  98  97  98  98  99  99 100  99 100  99
100 100 100 100 100 100 100 100  99  98  98  98  99  98  99  99  98  97  97  97  96  96 255 255
254 253 253 253 251 251 250 250 248 248 247 246 245 245 244 244 243 242 241 241 239 238 238 237
237 237 238 237 235 235 234 234 233 233 233 233 231 231 231 231 229 230 230 229 229 228 228 228
227 225 224 224 127 127 125 124 124 124 124 123 122 121 120 120 119 118 116 116 115 115 114 113
112 111 111 110 110 109 108 107 106 106 106 106 105 104 104 104 103 102 102 102 101 101 101 101
101 101 100  99  98  97  96  96  96  96  96 223 222 223 223 222 221 221 221 220 219 218 218 217
217 216 216 214 212 212 212 212
 95  95 194 194 193 193 194 193 194 194 196 196 198 197 199 200 196 197 198 198 199 199 197 199
201 199 200 200 204 204 202 201 202 204 203 203 206 205 203 205 206 210 209 209 209 209 207 205
209 210 212 214 217 215 217 219 221 221  64  66  69  69  69  70  75  77  78  77  78  82  85  87
 87  89  95 192 194 195 197 201 205 207 210 211 213 214 216 219 221 223  96  97  99  99 101 102
104 105 107 110 113 113 114 115 117 119 120 120 123 123 125 125 127 127 224 225 227 227 227 228
228 229 230 232 233 234 234 234 236 237 238 239 239 239 241 241 242 242 243 244 245 245 246 246
248 249 250 250 251 251 252 252 253 253 254 254 255  96  96  96  96  96  97  97  97  97  98  98
 99  99  99 100  99  99  99  99  98  97  97  98  98  98  98  97  97  96  96  96 254 254 253 253
253 253 252 251 250 250 250 249 247 247 247 245 243 243 244 244 242 241 240 240 239 238 237 237
236 236 236 235 233 233 234 234 233 232 232 232 231 232 231 230 229 230 230 229 228 228 228 228
227 225 224 127 126 126 124 124 124 123 123 123 122 122 120 119 118 117 116 116 115 114 113 112
111 110 110 110 109 109 108 107 107 106 105 105 105 104 104 103 102 102 102 102 102 101 100 100
 99  99  99  98  99  98  97  97  97  96  96 223 222 222 222 222 221 220 220 220 219 218 218 218
216 215 214 214 213 212 212 213
194 193 192 193 193 194 194 193 193 194 196 196 198 197 198 198 197 198 197 197 193 200 199 199
198 200 198 199 202 202 201 202 202 203 202 204 204 204 203 203 205 207 208 209 208 208 207 208
211 211 212 215 217 217 217 218 220 220 223  65  68  68  68  69  75  76  75  75  78  81  85  86
 87  88 193 192 192 193 196 202 204 206 208 210 212 213 215 219 221 223 223  96  98  99 101 103
105 105 107 109 112 112 114 114 116 118 119 120 122 123 124 124 126 126 127 224 226 227 227 227
228 229 230 232 233 233 234 234 235 236 238 239 238 239 240 240 241 241 242 243 244 245 245 246
247 248 250 250 250 250 251 251 252 253 253 254 254 255  96  96 255  96  96  96  97  97  97  97
 97  98  98  99  98  97  97  97  97  97  96  97  97  97  96  96  96 255  96 255 254 253 253 253
252 252 251 251 249 250 249 248 247 246 245 244 243 243 243 242 241 240 240 239 238 237 237 236
236 236 236 235 233 233 234 234 233 232 232 232 231 231 230 230 229 229 229 229 228 228 227 227
226 225 224 127 126 125 125 124 124 124 123 122 122 122 120 119 118 118 117 116 114 113 112 111
111 110 110 110 109 108 107 106 106 106 105 104 104 104 103 103 102 101 101 101 101 101  99  99
 98  99  98  98  98  98  97  97  96  96  96 223 222 222 222 222 221 219 219 219 219 218 218 217
216 214 214 214 213 212 212 213
196 194 192 193 194 194 193 193 194 195 197 196 197 196 195 196 198 197 197 195 192 202 199 199
200 200 198 199 201 202 199 201 202 202 202 203 204 205 203 202 203 205 206 207 209 208 209 209
211 210 212 213 215 215 216 218 219 220 219 220  65  67  69  70  74  73  73  75  78  78  79  82
 85  89  95  94  95 193 196 200 204 205 206 209 212 213 215 216 219 221 222 222  97  99 101 102
105 106 107 108 111 112 114 114 116 118 119 120 121 122 123 123 124 125 127 224 225 226 226 226
227 228 230 231 232 233 233 234 235 236 237 238 238 238 238 239 240 241 241 242 244 244 244 245
247 248 249 249 249 249 250 250 251 252 253 254 254 254 255 255 255  96 255 255 255  96  96  96
 97  97  97  98  96  97  97  97  96  96 255  96  96  96  96 255 255 255 255 254 252 252 251 252
251 251 250 249 249 249 248 247 247 246 245 244 243 242 242 241 241 240 239 238 238 237 237 236
235 235 234 234 232 232 232 232 232 231 231 231 230 231 230 229 228 229 228 227 227 227 227 226
225 224 224 127 126 125 125 124 124 124 123 122 121 121 120 119 118 117 117 116 114 114 112 111
111 110 109 109 108 107 106 105 103 103 103 104 103 103 102 101 101 100 101 101 100  99  98  98
 97  98  98  98  98  97  97  96  96  96  96 223 221 222 222 222 220 220 218 218 218 218 218 217
216 214 212 212 212 212 212 212
196 194 193 194 194 193 192 193 194 193 199 198 197 196 195 195 196 197 197 196 197 198 199 199
199 198 199 200 202 202 199 199 200 203 203 204 203 203 205 205 205 204 206 207 208 208 209 207
209 209 211 212 213 214 216 217 218 220 220 222  64  66  69  71  72  74  75  75  77  77  81  83
 83  86  93  93  95 193 196 200 203 204 206 209 212 213 213 214 216 219 221 222  97  98 100 102
104 104 106 108 110 111 112 113 115 116 118 119 120 121 122 123 124 125 126 127 224 225 227 227
228 229 230 230 232 232 233 233 235 236 236 237 237 237 238 239 240 240 241 241 244 244 244 245
246 247 248 248 249 249 249 250 251 251 252 253 254 254 254 254 255 255 254 254 255 255 255 255
 96  96  96  96  96  96  96  96 255 255 255 255 255  96 255 255 254 253 254 254 252 251 251 251
250 250 249 248 249 249 247 246 246 245 244 244 243 242 242 241 240 240 239 238 236 237 236 235
234 234 234 233 232 232 232 232 231 230 230 230 229 230 229 229 228 228 228 227 226 226 226 226
225 224 127 127 126 125 125 124 124 123 122 121 121 121 120 119 118 117 116 116 114 114 112 111
110 110 109 109 108 107 106 106 103 103 103 103 102 102 102 101 100 100 100 100  99  99  97  97
 97  97  97  97  97  97  97  96  96 223 223 223 221 221 221 221 220 220 218 218 219 219 218 217
216 215 213 212 211 211 210 210
194 193 193 194 193 192  95 193 194 194 199 198 196 196 195 193 195 196 196 196 198 197 199 199
198 198 200 201 202 201 199 200 201 203 202 202 204 204 206 206 205 205 206 206 207 207 209 210
212 210 212 212 212 213 216 218 219 220 220 221 223  66  69  70  71  74  75  75  76  76  81  83
 83  85  89  91  95 193 197 200 202 204 206 208 211 212 213 213 215 219 220 221  96  97  99 102
103 103 105 107 109 110 111 112 114 115 117 118 119 120 121 122 124 125 126 127 127 224 226 226
228 228 229 230 231 231 232 232 234 235 235 236 237 238 238 239 240 240 240 241 243 243 244 245
245 245 246 247 248 249 248 249 250 251 251 252 253 254 254 253 254 254 254 254 255 255 255 255
255  96 255 255 255 255 255 255 254 254 254 255 255 255 255 255 254 253 253 253 252 251 250 250
250 249 249 249 248 248 246 246 245 244 243 243 242 242 241 241 239 239 238 237 235 236 235 235
234 234 233 232 232 232 231 231 231 230 230 229 229 229 228 228 228 228 228 227 226 226 225 225
224 127 127 126 126 125 125 124 124 122 122 121 120 120 120 119 118 116 115 115 113 113 112 111
110 109 109 108 108 108 106 106 103 103 103 103 102 102 101 101 100 100  99  99  98  98  97  97
 97  97  97  97  96  96  96  96  96 223  96 223 221 221 221 221 220 219 218 218 218 218 217 216
215 214 213 212 212 212 211 210
 95  95 192 193 192  95 192 194 195 195 196 197 195 196 196 196 192 193 195 196 198 199 198 197
196 198 199 200 202 201 201 201 202 202 201 202 205 205 205 205 206 204 206 206 207 207 208 209
210 213 212 212 212 213 214 215 215 216 220 222  64  65  67  67  71  73  75  76  76  77  82  85
 83  84  88  92  94 193 197 200 201 203 205 208 210 210 211 212 214 216 219 220 223  96  99 100
102 103 104 106 108 108 110 111 113 114 115 116 119 120 121 122 124 125 126 126 224 225 226 226
226 228 229 230 230 230 232 232 233 234 235 236 237 237 237 238 239 239 239 240 242 242 242 243
244 244 245 246 247 248 247 248 248 249 250 250 251 252 252 251 252 252 252 253 254 254 254 254
254 254 254 254 254 254 254 254 254 253 253 253 254 254 254 254 253 252 252 252 250 250 250 249
249 249 248 247 246 246 245 246 245 245 243 242 241 240 240 240 239 238 238 237 235 235 234 233
233 232 232 231 232 231 231 230 230 229 229 229 228 228 228 228 227 227 227 226 225 224 127 127
127 126 126 126 126 125 124 123 122 122 121 120 119 118 118 118 117 117 115 114 112 111 110 109
109 109 108 107 107 107 107 107 104 104 103 103 101 101 101 101 100 100  99 100  98  98  97  97
 96  97  97  96  96  96  96  96  96 223 223 222 221 221 220 220 220 219 219 218 218 218 216 216
215 215 213 212 210 210 209 209
 94  95  95 192 192 192 192 194 194 196 195 194 195 195 195 197 192 193 194 195 196 197 198 197
195 196 197 199 200 201 200 200 203 202 202 203 203 205 205 205 204 203 201 203 205 207 207 208
208 211 211 212 212 213 213 212 214 215 218 222 223 223  64  65  69  70  74  75  74  77  81  82
 83  84  87  90  93 192 196 199 201 202 204 208 209 209 211 212 214 216 218 220 223 223  98  99
101 103 103 105 107 108 110 110 112 113 115 116 118 119 120 121 123 125 125 126 127 224 225 225
226 227 228 229 230 230 231 232 232 233 234 235 236 236 237 238 238 239 239 239 241 241 241 242
243 244 244 245 246 247 247 247 248 248 249 249 250 251 251 251 251 251 252 252 253 253 253 254
254 254 254 254 253 253 253 253 253 252 252 252 253 253 253 253 253 252 252 251 250 249 249 249
248 248 247 247 245 245 245 245 245 244 242 241 240 240 240 239 239 238 238 237 235 235 234 233
233 232 231 230 231 231 231 230 229 229 228 229 228 228 227 227 227 227 226 225 224 127 127 126
126 126 126 125 125 124 124 123 123 122 121 120 118 118 118 117 117 116 114 113 112 110 110 109
109 109 108 107 107 107 107 107 105 104 103 102 101 100 101 101 100  99  99  99  98  98  98  98
 97  97  97  96  96  96 223 223 223 223 222 221 221 221 220 220 219 219 218 218 218 217 216 216
214 214 213 212 210 209 209 208
193  94  95 192 193 192 192 192 192 194 194 193 195 194 194 195 192 194 193 193 198 197 197 198
197 197 199 200 200 199 199 199 202 201 202 203 204 204 204 205 203 201 201 202 205 207 207 207
209 210 210 210 211 212 213 212 213 215 218 221 222 221 221 223 223  68  73  73  75  78  80  81
 83  84  88  89  93  95 195 197 199 201 204 206 208 209 210 212 215 216 219 220 223  96  97  99
101 102 103 105 107 108 110 110 112 113 114 115 118 119 119 120 122 124 124 125 126 126 224 224
226 227 227 228 230 230 231 232 232 232 234 234 235 235 236 236 237 237 238 238 240 240 241 241
242 243 244 245 245 245 246 246 246 246 247 248 249 249 250 250 250 250 250 251 252 252 252 252
253 253 252 253 253 253 252 252 252 252 251 251 252 252 252 252 252 251 251 250 249 248 248 248
247 247 246 246 245 244 244 244 244 244 242 241 239 239 238 239 238 238 237 236 234 234 233 233
232 231 231 230 231 230 230 230 229 229 228 228 227 227 227 227 225 226 225 224 126 126 126 125
126 125 126 125 124 124 124 123 122 121 120 119 118 118 118 117 116 115 114 113 112 111 111 110
109 109 108 107 106 106 106 106 105 103 103 102 101 101 101 101 100  99  98  99  98  97  98  97
 97  97  97  97  96  96 223 223 223 223 222 221 221 221 221 220 220 219 218 218 217 217 216 215
214 214 213 212 209 209 208 208
193  95  95 192 195 194 193 192  95  95 193 193 194 193 193 194 193 193 199 198 198 197 195 197
199 200 203 203 199 200 199 200 200 201 202 203 200 203 205 206 204 204 203 203 204 206 207 207
211 211 210 210 212 212 212 211 213 214 219 221 221 221 223  65  65  67  70  73  76  78  79  80
 81  82  88  88  92  94 194 196 198 200 203 204 207 208 211 212 214 216 218 219 223 223  96  99
100 102 103 105 107 108 109 110 112 113 114 115 118 118 119 120 122 123 124 124 126 126 127 127
226 227 227 228 229 229 231 231 231 232 233 233 235 235 235 236 236 237 237 237 239 239 241 241
242 242 243 244 244 244 245 245 246 246 247 247 248 248 249 249 250 250 250 250 250 250 251 251
251 251 251 252 252 252 251 251 251 251 251 251 251 252 251 251 251 250 250 249 248 247 248 248
247 246 245 245 244 244 243 243 243 241 241 241 239 239 238 238 237 236 236 236 234 234 233 233
231 231 231 230 230 230 230 229 229 228 227 227 227 227 227 226 225 225 225 224 126 126 126 125
125 125 125 124 124 124 124 123 122 121 120 119 118 118 118 117 116 115 114 113 112 111 111 111
109 109 108 107 106 106 105 105 104 104 103 102 102 101 100 100 100  99  99  98  98  97  98  98
 98  97  97  97  96 223 223 223 223 223 222 221 221 221 221 220 220 219 218 218 217 217 216 215
214 213 213 212 210 209 208 209
192  94  94 193 193 195 193  95  94  94  95  94  94  95 195 194 194 192 199 200 196 195 198 197
197 198 198 199 201 199 201 202 201 201 202 203 200 201 204 205 205 205 205 206 206 207 206 206
211 212 212 211 211 212 212 213 213 216 218 219 221 222  65  65  66  68  70  73  77  78  79  79
 79  81  86  87  94  93  95 196 199 198 200 203 205 207 207 209 213 216 218 220 222 222  96  97
 99 101 103 104 105 106 108 109 111 112 114 115 117 118 119 120 121 121 122 123 126 127 127 127
224 226 227 228 229 228 230 230 230 231 232 232 234 234 234 234 235 235 235 236 238 238 240 239
239 240 241 242 242 243 243 244 245 245 245 246 246 247 248 248 248 247 248 248 248 248 249 248
249 249 249 250 250 250 250 250 250 250 250 250 250 250 249 249 250 249 249 248 247 247 247 246
246 246 245 244 243 243 242 242 241 240 240 240 240 239 238 237 235 235 235 234 233 232 232 231
230 229 229 229 229 229 228 228 228 227 227 226 225 225 225 224 224 224 224 127 125 125 125 126
125 125 124 123 122 122 122 122 120 120 120 119 118 118 118 117 115 114 114 113 112 112 112 112
109 108 108 108 106 106 105 105 104 103 104 104 102 101 100 100  99  99  98  98  98  98  98  98
 96 223 223  96 223 223 222 222 223 222 222 221 221 221 221 220 219 218 217 217 216 216 215 214
213 212 212 211 210 209 207 208
 93  92  93 192 194 192 192  95  94  95  94  94  93  95 193 194 194 195 196 197 194 195 195 196
195 197 198 199 197 200 200 200 200 200 202 203 199 201 203 204 205 204 204 204 204 205 204 207
212 212 211 210 210 210 211 210 212 216 218 219 221 221 220 222  65  69  70  71  75  77  78  78
 77  81  88  87  94  91  92 197 198 200 200 201 205 206 208 209 212 214 217 219 222 221 222  97
 99 101 101 102 104 105 107 109 111 111 113 114 115 116 118 119 120 121 121 122 125 126 127 127
224 225 226 227 228 228 229 230 230 231 231 231 233 233 233 233 234 234 235 236 237 237 238 238
239 239 239 240 242 242 243 243 244 244 244 244 245 246 246 247 247 246 247 247 248 247 247 247
247 248 248 249 249 248 248 249 249 249 249 249 249 248 248 248 248 248 248 247 246 246 246 246
245 245 244 243 242 242 242 241 240 239 239 239 239 239 238 237 235 234 233 233 232 231 231 230
230 229 229 229 228 228 228 227 226 226 226 225 225 224 224 224 126 126 126 126 125 124 125 125
125 124 124 123 122 122 122 122 120 120 119 118 117 117 117 116 115 114 113 113 112 112 111 110
109 108 107 107 106 106 105 105 104 104 104 103 102 101  99  99  98  99  98  98  98  98  98  97
 96 223 223 222 222 222 222 222 222 222 221 220 219 219 219 218 218 217 216 215 214 215 215 214
212 211 210 209 209 208 207 206
 93  91  93 192 193 193  94  95  95  95  93  93  95  95 194 195 195 195 196 197 197 197 195 196
196 197 198 199 197 199 200 198 201 201 199 199 203 201 202 204 205 204 204 203 205 206 205 208
210 211 210 210 209 209 209 212 213 215 217 218 221 221 221  64  65  69  70  71  75  77  78  78
 77  79  80  79  86  90  92 195 197 200 200 201 205 206 208 209 211 213 217 219 221 221 222  97
 99 100 100 101 103 104 106 109 111 111 112 113 115 116 117 118 120 121 121 122 124 125 126 126
224 224 225 226 227 227 229 229 230 231 231 231 233 233 233 233 234 233 235 236 236 237 238 238
239 239 239 240 241 241 242 242 243 243 243 243 244 245 245 246 246 245 246 246 247 246 247 247
247 248 248 248 248 248 248 248 249 248 248 248 248 248 247 248 248 248 248 247 245 245 245 245
245 245 244 243 242 242 242 241 240 239 239 238 238 238 237 236 235 233 233 232 232 231 231 230
230 228 228 228 227 227 227 226 225 225 225 224 225 224 127 127 126 126 126 125 124 123 124 124
125 124 123 122 122 122 121 121 119 119 119 118 116 116 116 116 114 114 113 113 111 111 111 110
108 107 107 107 106 106 105 104 103 103 103 102 102 101 100 100  98  98  98  98  97  97  97  97
 96 223 223 223 222 222 221 221 221 221 220 220 220 220 219 218 217 217 216 215 215 214 214 214
212 212 210 209 208 208 206 205
 94  92  93  95 192  95  94  94 192  95 192  95  95 193 194 195 194 194 194 195 196 196 196 194
195 197 199 199 200 196 198 198 200 199 199 200 201 202 203 204 204 204 203 204 206 205 204 210
208 209 209 209 209 210 210 210 213 215 217 218 220 220 223 223  66  67  69  70  72  74  75  76
 76  77  80  81  86  88  92 193 196 198 200 201 203 206 207 208 210 213 217 218 221 221  96  97
 99 100 100 101 103 104 106 107 109 111 111 112 113 115 117 118 119 121 121 121 123 124 126 126
224 224 224 225 226 226 228 228 230 230 230 230 232 232 233 233 233 233 234 235 236 236 237 237
237 238 238 239 241 241 241 241 242 242 243 243 244 244 244 245 245 245 244 245 246 246 246 246
247 247 247 247 246 247 247 247 248 248 248 248 247 247 247 247 247 247 246 246 245 244 244 244
244 244 243 242 241 240 241 240 239 239 238 238 237 237 237 236 234 233 232 232 232 232 230 230
229 228 228 227 228 227 227 226 225 225 225 224 224 224 127 127 126 126 125 125 123 123 124 123
124 123 123 122 122 122 121 120 119 119 118 117 116 116 116 115 114 113 112 112 111 111 110 110
108 107 106 106 105 106 105 104 103 103 103 103 102 101 100  99  98  98  99  98  98  97  97  97
 96  96 223 223 222 222 221 221 220 220 220 220 220 219 219 218 218 217 216 215 214 214 214 214
212 211 210 209 209 208 207 206
193  93  94  93  95  95  95  94 192 193 195 193 192 193 194 195 194 195 194 195 195 196 196 196
197 198 199 198 199 201 197 198 200 200 201 200 201 202 203 204 204 204 205 205 206 205 205 210
207 207 210 210 210 210 209 210 211 213 215 217 220 221 223 223  64  66  68  69  71  72  74  76
 77  78  80  82  86  88  89  95 195 197 199 201 204 205 207 208 210 213 215 218 220 221  96  97
 98  99  99 100 102 104 106 107 108 108 110 111 113 114 117 118 119 120 120 121 123 124 124 125
127 127 224 224 225 226 227 228 229 230 230 230 231 231 232 232 234 234 235 235 236 236 236 236
237 238 239 239 240 240 241 240 241 241 242 242 243 243 243 243 244 244 243 244 244 245 245 246
246 246 246 246 246 246 246 246 247 247 247 247 247 247 247 247 246 246 246 246 244 244 244 244
244 243 242 241 241 240 240 240 238 238 237 237 236 237 236 235 234 233 232 232 231 232 231 230
229 228 228 227 227 227 226 226 225 224 224 224 224 224 127 126 125 125 125 124 123 123 123 123
123 122 123 122 121 121 121 120 119 118 117 117 116 116 116 115 114 113 112 112 111 111 110 109
108 107 106 105 104 105 105 104 103 103 103 103 102 101 100 100  99  98  99  98  97  96  97  97
 96  96 223 222 222 222 221 221 219 219 219 220 219 218 218 218 218 217 216 215 214 214 213 213
211 210 210 210 209 208 208 208
193 193  95  94  94 192  94  92  95 192 193 194 194 194 193 194 194 195 194 194 194 195 196 197
198 199 197 197 200 202 197 198 200 201 201 201 201 201 202 204 203 204 205 205 205 205 205 208
204 205 208 207 208 207 210 211 211 211 213 216 220 220 221 221 222 223  67  69  70  71  74  76
 77  79  80  83  85  87  90  94 193 196 199 201 204 204 206 207 209 211 213 216 219 221 222 223
 96  97  98  99 103 104 105 105 106 109 110 111 112 114 114 115 118 119 119 120 122 123 123 124
125 125 126 126 127 224 224 226 227 228 228 228 229 229 230 232 233 234 234 234 234 234 236 236
236 237 237 237 239 239 240 239 240 240 240 240 241 241 241 241 242 242 242 242 242 243 244 245
245 245 245 245 244 245 244 245 245 245 245 244 245 245 246 245 245 245 244 244 244 243 243 243
243 243 242 241 240 240 239 239 238 238 237 237 236 236 235 234 233 232 232 231 230 230 230 229
228 227 227 227 227 227 226 226 224 224 127 127 127 126 126 125 124 123 123 123 123 123 124 123
122 121 122 121 121 120 119 119 118 117 116 115 116 116 115 114 113 112 111 111 110 110 109 108
108 107 106 105 104 104 105 104 103 102 103 103 102 101 100 100  99  99  99  98  97  96  96  96
 96 223 223 222 221 221 221 220 219 219 219 219 219 219 219 218 218 218 217 216 214 214 213 212
210 209 209 209 209 208 206 205
192 192 192  95  94 193  95  93  94 193 193 194 194 194 194 195 195 196 195 196 195 195 197 197
198 197 199 198 199 196 197 196 199 200 201 201 200 200 200 203 203 204 205 203 204 205 205 206
207 207 205 207 208 208 209 211 211 210 212 215 219 219 220 220 222 223  66  68  70  71  74  76
 77  80  80  81  83  85  87  93 192 194 198 200 202 204 206 207 208 211 212 215 218 219 220 221
222  96  97  99 102 103 104 105 106 108 109 110 112 112 114 115 118 118 119 120 121 122 122 123
123 124 124 125 127 224 224 224 225 226 226 227 228 229 229 230 231 232 232 232 233 234 234 235
235 236 236 236 238 237 238 238 238 239 239 240 241 240 240 240 241 241 241 241 242 242 243 243
244 244 244 244 244 244 243 244 244 244 244 244 244 244 245 245 243 243 243 243 243 243 243 242
242 241 241 241 239 239 239 238 238 238 238 237 236 236 235 234 233 232 232 231 230 229 229 228
227 227 227 227 226 227 226 225 127 126 126 126 126 126 125 124 123 123 123 123 122 122 122 122
121 121 121 121 120 119 118 118 118 117 116 115 116 115 115 114 113 112 112 111 110 110 108 108
108 107 106 105 103 103 104 103 103 102 101 101 100 100 100 100  98  98  98  97  97  96  96 223
 96 223 222 222 221 221 221 220 219 219 219 219 219 218 218 218 218 217 216 216 214 214 212 210
209 208 208 208 208 207 204 203
193 193 192  95  94  95  95  95  94 193 193 194 195 196 197 195 195 195 195 196 195 195 196 196
198 199 199 198 196 197 195 196 198 201 201 202 201 201 202 202 204 204 204 202 202 203 205 206
207 206 206 206 209 209 209 209 210 211 213 217 217 217 218 219 221 222  66  67  69  72  76  77
 77  78  78  80  83  85  87  93 192 193 196 199 203 204 206 207 208 209 211 215 218 219 219 221
222  96  98  99 101 102 103 104 106 108 109 110 111 112 114 115 117 117 118 118 120 121 121 122
123 123 124 125 126 127 224 224 224 226 226 227 228 229 229 229 230 231 232 232 233 233 234 235
235 235 235 235 237 237 237 237 238 238 239 239 240 239 240 240 241 241 241 241 241 241 242 243
244 244 244 243 243 243 243 243 244 244 244 244 244 244 244 244 243 243 242 242 243 242 242 241
241 241 241 240 239 239 239 239 238 237 237 237 236 235 235 234 233 232 231 230 229 228 228 227
226 227 226 226 226 227 225 225 127 126 126 125 125 125 125 124 123 123 123 122 122 122 122 122
121 121 121 121 120 119 118 118 118 117 116 115 116 115 115 114 113 113 112 112 110 109 108 107
107 107 106 106 103 103 103 103 102 101 101 100 100 100  99 100  98  98  98  98  97  97  96  96
 96 222 221 221 221 221 221 220 219 219 219 219 219 218 217 217 217 216 216 216 214 213 211 211
209 208 208 208 207 206 204 204
194 193 192  95  95  95  95 192  95 192 193 194 194 195 194 195 196 196 196 195 195 195 196 197
198 199 198 196 195 196 196 197 198 200 201 202 201 202 203 203 205 205 204 203 204 204 206 206
207 207 207 207 209 210 211 211 210 213 215 214 216 216 218 219 221 223  66  68  70  72  76  77
 77  77  77  79  82  84  86  93  95 192 196 200 203 203 205 207 208 210 210 214 217 218 218 220
222  96  97  98 100 100 102 103 106 107 108 109 111 112 114 115 116 116 117 117 119 120 121 122
123 124 123 124 125 126 127 127 224 225 226 227 227 228 229 228 230 230 231 231 232 232 233 234
234 234 234 235 236 236 237 237 238 238 238 238 239 239 239 239 241 241 241 241 241 241 242 242
243 243 243 242 242 242 242 242 243 244 244 243 243 243 243 243 242 242 242 242 242 241 241 241
240 240 240 240 238 238 238 238 237 236 236 236 235 234 234 234 233 231 230 229 228 227 227 227
226 226 226 225 226 226 225 224 126 126 125 125 124 125 124 123 123 123 123 123 122 121 121 122
121 120 120 120 120 119 118 118 117 117 116 115 115 115 114 114 113 113 112 111 110 109 107 107
106 106 105 105 103 103 103 103 102 102 102 101 100 100  99  99  98  98  97  97  96  96  96  96
223 221 221 221 221 221 221 220 219 219 218 219 218 218 217 216 216 215 215 214 213 213 211 211
210 208 208 208 207 206 205 205
194 193 192  95  95 192 194 194 192 193 193 193 193 193 192 195 195 197 196 196 195 195 196 196
196 198 199 195 194 197 197 198 198 199 202 202 202 202 203 204 206 206 205 205 206 206 207 208
205 206 207 208 210 211 212 213 211 212 213 215 216 215 217 219 222  65  67  69  71  71  75  77
 76  75  76  79  83  84  87  92  95 193 197 201 203 202 206 208 209 210 211 213 216 217 218 220
221 223  96  97  99  99 101 102 105 106 106 108 111 112 113 114 115 116 117 117 119 120 121 122
122 123 123 124 124 125 126 127 224 225 225 226 227 227 228 228 229 230 230 230 231 231 232 233
233 233 233 234 235 235 236 236 237 237 237 238 237 238 238 239 240 240 241 241 241 241 242 242
242 242 242 241 241 242 242 242 243 243 242 242 242 242 242 242 241 241 241 241 241 241 241 240
240 239 239 239 238 237 237 237 237 236 236 235 235 234 234 234 232 231 229 228 227 227 227 227
226 226 226 225 225 225 224 224 127 126 125 124 124 124 124 123 122 122 123 123 121 120 120 121
121 120 120 119 119 119 118 118 117 117 116 115 114 114 114 114 113 112 111 111 109 108 107 106
106 107 106 105 103 103 103 103 102 102 101 100 100 100  99  99  97  97  96  96  96 223  96  96
 96 221 221 220 221 221 221 220 219 220 219 219 218 217 217 216 216 215 214 213 213 212 211 211
210 208 208 207 206 205 205 206
193 193 193 194  95  94  95  94 192 192 192 193 193 192 192 194 196 196 196 194 195 196 196 195
194 196 196 197 194 197 198 197 197 199 202 201 202 201 203 204 206 205 205 206 206 207 208 209
204 207 208 209 209 209 212 213 211 212 213 215 217 216 216 219  64  65  66  68  71  70  75  78
 75  76  77  79  84  86  87  92  94 192 197 202 200 202 204 206 207 209 210 212 214 215 217 218
220 222 223  97  99 100 101 102 103 105 104 107 110 111 113 114 115 116 116 118 119 120 120 121
121 122 123 124 124 125 125 126 127 224 225 225 226 227 227 227 228 228 229 230 230 230 231 232
233 233 233 233 233 234 235 235 235 235 235 236 236 236 236 237 238 238 239 240 240 240 240 240
240 240 240 240 240 240 241 241 241 241 240 239 241 240 240 240 240 240 240 240 239 239 239 239
239 239 239 238 236 236 235 236 235 235 234 233 233 232 233 232 231 231 230 229 228 228 228 227
227 226 226 225 224 224 224 127 126 125 125 125 125 124 123 122 121 121 122 122 121 120 120 120
120 119 119 119 118 118 117 117 116 115 115 115 113 113 114 114 113 112 111 110 109 108 107 107
107 108 106 105 103 103 103 103 103 102 101 101  99  99  98  98  97  97  97  97  96  96  97  96
223 221 221 220 220 220 220 220 219 219 219 218 217 217 216 216 214 213 213 212 212 211 210 210
209 208 207 206 205 205 204 204
192 192 193 193 192  95  93 192 192 192 193 193 193 193 193 193 194 195 193 194 193 194 195 196
195 196 195 196 197 196 197 198 199 201 200 201 201 201 203 203 205 205 204 204 204 206 206 205
207 207 209 209 209 210 211 212 211 212 212 213 215 214 213 221 222  65  64 222  65  68  73  76
 73  75  77  79  82  85  86  90  93  95 195 198 199 201 204 206 206 208 210 211 213 214 216 217
219 219 222  96  98 100 101 102 103 102 105 106 109 110 111 113 115 116 117 118 119 119 120 120
120 121 122 123 124 123 125 126 127 224 224 224 226 226 226 227 227 228 228 229 230 230 231 232
232 232 232 233 232 232 233 234 234 234 234 234 235 235 236 236 236 236 236 237 238 238 239 239
239 239 239 239 238 239 239 239 240 239 239 239 239 240 239 239 239 239 239 239 238 237 237 237
238 237 237 237 236 235 235 235 234 234 234 233 233 232 232 231 230 231 231 230 228 227 227 228
226 226 225 224 126 127 127 126 125 124 124 124 124 123 122 121 121 121 121 121 120 120 119 119
119 119 119 118 118 118 117 117 116 115 115 114 113 113 113 113 112 111 110 109 108 108 106 107
107 107 105 104 103 103 103 102 101 101 100 100  99  99  98  97  98  97  97  97 223 223  96 223
222 220 220 220 220 220 220 220 219 219 219 219 217 216 215 215 214 213 213 212 211 209 209 209
209 207 206 205 204 204 203 203
 95  94  94  95  95  94  93  95 192 192 192 193 192 193 193 193 193 193  95 192 193 194 194 194
194 194 195 195 197 198 199 199 200 199 199 201 201 201 202 202 204 205 206 205 204 204 204 204
205 206 207 207 208 208 209 210 211 212 212 211 213 213 213 218 220 222 222 223  66  68  70  72
 73  75  79  79  81  83  85  90  92  94 192 195 197 199 203 204 205 207 209 211 212 213 214 216
218 219 221 222  97  99 101 101 102 104 105 106 108 109 110 111 113 115 115 116 118 119 120 120
120 121 122 122 123 124 124 125 127 127 127 224 224 225 225 226 227 227 227 228 229 230 231 231
232 232 232 232 232 232 232 233 233 233 233 234 235 235 235 235 235 235 236 236 236 237 238 238
238 238 238 238 238 237 237 238 238 238 237 237 238 238 238 238 237 237 238 238 237 237 237 237
237 236 236 237 235 234 234 235 234 233 234 233 233 232 231 231 230 230 230 229 228 228 227 227
226 226 224 127 126 126 126 126 125 124 124 123 123 123 122 121 121 120 120 120 119 119 119 119
119 119 119 118 117 117 116 116 116 116 115 114 114 113 113 113 112 111 110 109 108 107 107 108
106 106 104 104 103 103 102 102 102 101 100  99  99  98  98  97  98  97  97  97  96 223 223 223
222 221 221 220 220 220 220 220 219 218 218 218 217 216 215 215 213 213 213 212 210 209 209 209
208 207 206 205 203 203 202 202
 94  94  94  94  95  94  94  94  95  95  95 192  95  94  95  95 193 193 192 192 193 193 193 193
194 195 195 196 197 198 198 198 200 198 199 200 200 200 201 201 201 204 202 202 203 204 204 203
203 204 205 206 207 207 208 208 210 211 211 212 213 213 214 215 217 219 221 222  65  67  68  69
 72  74  78  79  80  81  84  89  91  91 192 196 197 198 202 203 203 206 208 210 212 212 214 215
218 219 220 221  97  98 100 100 101 103 104 106 108 108 109 110 112 114 114 115 117 118 118 119
120 120 121 121 122 123 124 125 126 127 126 127 127 224 224 225 226 226 227 228 229 229 230 230
231 231 231 231 231 231 232 232 233 232 232 233 234 235 234 234 234 234 235 235 235 236 237 237
237 237 237 238 237 236 236 237 237 237 236 236 237 237 237 237 236 236 237 237 237 237 236 236
236 236 236 236 235 234 234 234 233 233 233 233 233 232 230 230 230 229 230 229 228 227 226 226
226 226 224 127 126 126 126 125 125 124 123 123 122 122 122 122 121 120 119 119 119 119 119 119
118 118 118 118 116 116 116 115 116 115 114 114 113 112 112 112 111 110 109 108 107 107 107 107
106 105 104 104 103 103 102 102 102 101 100  99  98  97  97  96  97  96  96  96 223 222 222 222
221 221 221 220 219 219 219 219 218 218 218 217 217 215 215 215 212 212 213 212 210 208 209 209
208 206 205 204 203 202 201 201
 92  94  94  94  94  93  94  94  95  95  95  95  94  94  94  95 192 192 193 193 194 194 194 194
195 194 194 195 194 195 195 195 198 197 198 199 199 198 200 201 201 203 202 203 204 204 203 203
203 205 204 204 206 207 207 208 209 209 209 210 211 214 216 215 217 218 219 223  67  69  72  72
 71  73  77  79  80  81  82  87  89  89  93 194 195 197 199 200 203 204 206 208 210 210 212 214
217 218 220 221  96  96  98  98 100 101 103 104 106 107 109 110 110 111 112 113 115 116 116 117
118 119 119 120 121 122 123 124 125 126 126 126 127 127 224 224 225 226 226 227 227 226 227 228
229 229 229 230 230 229 230 230 231 231 231 232 234 234 233 233 234 234 234 235 235 236 236 236
237 237 236 235 235 235 235 236 235 235 235 234 235 235 235 236 235 235 235 235 237 236 236 236
234 234 234 233 234 233 233 233 232 232 231 232 231 231 230 230 229 228 229 228 227 226 226 225
224 224 224 127 125 125 125 125 125 124 123 122 121 121 120 120 119 118 118 118 118 117 117 117
117 117 116 116 115 115 115 115 114 114 114 114 113 112 112 111 110 110 109 109 109 107 107 106
105 104 104 104 103 102 102 101 100  99  98  98  98  98  97  96 223 222 222 222 222 223 222 222
221 220 220 220 220 219 218 218 217 216 216 216 216 215 214 214 213 212 212 212 211 210 209 209
207 206 205 204 202 202 201 202
 94  94  94  93  95  95  94  94  95  94  94  94  94  94  94  95 192 192 193 192 194 194 195 195
195 195 195 195 195 194 193 196 198 198 199 199 198 198 200 201 200 202 202 202 202 203 204 205
206 205 204 204 206 207 206 207 208 209 209 210 211 213 216 215 217 218 219 222  65  70  70  71
 71  73  75  77  80  80  82  86  88  90  95 192 196 197 199 200 203 205 206 208 210 210 212 213
217 218 220 222 222  96  97  98  99 101 102 103 105 107 109 110 110 110 111 113 115 115 116 116
118 118 118 119 121 122 123 124 125 125 125 125 126 127 224 224 225 226 226 227 227 227 227 227
229 229 229 229 229 229 229 230 230 231 231 231 232 232 232 232 234 233 234 234 234 235 235 235
236 236 236 235 235 235 234 235 235 235 235 234 234 234 235 235 235 235 235 235 236 236 235 235
234 233 233 233 233 233 233 232 232 231 230 230 231 231 230 230 229 229 229 228 227 226 226 225
224 127 127 126 125 125 125 125 124 123 122 122 121 120 120 119 119 118 118 117 118 117 117 117
117 116 116 115 114 114 114 115 114 114 114 114 113 112 110 110 109 109 109 109 109 108 107 106
105 104 104 104 103 102 102 101 100  98  98  98  97  97  97  96 223 222 222 222 222 222 221 221
221 220 220 220 219 218 217 217 217 216 216 216 216 215 214 213 212 212 212 213 210 209 208 208
207 205 205 204 201 201 202 203
 95  94 192 192  95  95  94  93  94  94  95  95  95  95  95 192 193 192 192 193 194 194 195 195
196 196 194 194 201 199 196 195 199 198 198 198 198 199 200 200 200 201 202 202 203 202 203 204
206 204 204 205 206 208 205 207 208 208 209 209 211 213 214 216 217 217 219 221 223  68  68  69
 71  73  75  77  78  79  80  85  89  91  94  95 194 197 197 200 200 203 205 207 211 211 212 214
216 217 219 221 223 222  97  98  99 100 101 102 104 106 108 108 108 109 111 112 115 115 115 116
118 118 118 119 121 121 122 123 124 125 125 126 126 127 224 224 225 225 225 226 226 226 226 227
228 229 229 229 228 228 229 229 230 230 230 231 231 232 232 232 233 233 234 234 234 234 234 235
235 235 235 234 234 234 234 234 234 234 233 234 234 234 234 234 234 234 234 234 234 234 234 233
233 233 233 233 233 233 233 233 232 230 230 230 230 229 228 229 228 228 228 227 227 226 226 225
224 127 127 126 125 124 124 124 123 122 122 121 120 120 119 119 118 117 118 118 118 117 117 116
116 115 115 115 114 114 114 115 114 115 114 113 113 112 111 111 109 109 109 109 109 108 107 107
106 104 104 103 102 102 101 101 100  99  98  98  97  97  96  96 223 223 222 222 221 221 221 221
221 221 221 221 219 219 218 217 216 216 216 216 216 215 213 212 212 212 211 211 209 208 207 207
206 206 205 204 202 201 202 201
194  95  94  94  95  95  94  93  93  94  94  95 192 192  94  95 192  95  95 192 194 194 194 196
196 196 194 195 200 200 198 197 198 198 198 199 199 199 200 200 199 200 202 202 203 203 203 203
205 205 205 206 206 207 208 207 207 209 209 210 211 213 213 216 217 218 219 220 220  68  68  68
 70  72  75  76  78  78  79  85  88  91  93  95 192 195 199 199 200 203 205 206 210 211 213 213
215 217 219 221 223 223  96  97  99 100 101 101 102 105 107 108 108 109 111 112 115 115 115 116
117 118 119 120 120 121 121 122 124 124 124 125 125 125 126 127 127 127 224 225 225 225 226 226
228 228 228 228 227 228 228 229 229 229 229 230 231 231 231 231 233 233 234 233 234 234 234 234
234 234 234 234 233 233 233 233 233 234 233 233 233 234 233 233 233 233 233 233 233 233 233 233
233 233 233 232 231 232 231 231 231 230 230 230 229 229 228 228 227 227 227 227 227 226 226 225
127 127 126 126 125 124 124 124 123 122 122 121 120 119 119 118 118 117 117 117 117 116 116 116
116 115 115 114 114 114 114 115 114 114 114 113 112 112 111 110 109 109 109 109 108 108 107 107
106 104 104 103 102 101 102 102 100  99  98  98  97  97  96  96  96 223 222 222 221 221 221 221
221 221 221 220 219 218 218 217 217 216 216 215 215 214 213 212 212 212 211 210 208 207 207 207
207 206 204 203 201 201 201 202
194 192  92  93  95 192  93  93  93  92  94  95 192  95  95  95 192  95 192 192 194 193 192 193
195 197 194 194 199 198 198 197 198 198 199 199 199 200 200 200 200 201 201 202 203 203 203 203
204 206 206 207 207 207 208 208 207 208 210 211 211 212 213 215 216 218 220 220 221  67  68  69
 70  71  73  75  77  77  79  82  87  89  91  92 192 194 200 200 200 202 204 206 208 209 211 212
214 215 217 219 222 222 223  97  98  99 100 100 101 104 106 107 108 109 110 111 114 114 114 115
117 118 118 119 120 120 121 122 123 123 123 124 124 124 125 126 126 126 224 225 225 225 225 226
227 227 227 227 228 227 228 228 228 229 229 230 230 230 231 231 232 232 233 232 233 233 233 233
233 234 234 233 233 233 233 233 233 233 233 233 233 233 233 233 232 233 233 233 233 232 233 232
232 233 233 232 230 231 230 230 230 230 230 229 230 229 228 227 227 227 227 226 226 226 225 225
224 127 126 125 124 124 124 124 122 122 121 120 120 119 118 117 117 117 117 116 116 116 116 116
115 115 115 114 114 114 114 113 113 113 113 113 112 111 110 110 109 109 108 109 108 108 107 107
106 104 103 102 101 101 102 101 100  99  98  99  97  97  96 223  96 223 222 222 221 221 220 220
220 220 220 220 218 218 218 217 217 216 216 215 214 214 213 211 211 211 210 209 208 208 207 206
206 205 204 203 202 202 202 203
 94  93  93  91  89  90  94  95  95  94 192 193 192  95  95  94  94  95 194 193 193 192 193 192
194 196 195 194 196 196 197 197 198 197 199 202 201 200 200 201 201 202 203 202 201 199 201 203
204 205 204 207 213 208 207 206 207 211 207 208 211 212 212 214 215 218 219  64 217  66  69  69
 68  70  73  76  76  78  79  80  87  87  90  91 193 195 196 198 200 202 204 206 207 208 210 211
215 215 217 217 220 220 222 223  97  97  99 100 101 102 104 105 107 109 109 110 112 114 114 115
116 118 118 119 119 119 119 120 121 121 121 122 122 123 124 125 126 126 126 127 127 127 224 225
225 225 225 225 226 226 227 227 227 227 227 228 229 229 229 229 230 231 231 231 230 231 231 231
232 232 232 232 232 232 232 232 231 232 232 232 232 232 232 231 232 232 232 231 232 232 232 231
231 231 231 230 231 230 230 230 230 229 229 228 228 228 228 227 227 226 226 225 225 225 224 224
127 126 125 124 124 124 124 124 122 121 120 120 119 119 117 117 117 118 117 117 116 115 115 116
116 114 113 113 113 113 113 112 112 111 111 111 111 112 111 111 110 109 108 107 106 106 106 107
105 104 103 102 101 101 101 101 100  99  98  97  97  97  96  96 223 222 222 221 220 221 220 221
219 219 219 219 218 217 217 217 217 216 215 214 213 213 212 212 211 211 209 208 206 207 206 205
205 204 203 202 202 201 201 201
 93  93  93  91  90  91  93  95  95  95 192 193 192 192 192 192 195 196 194 193 193 192 193 193
193 195 194 195 196 196 196 197 198 198 199 201 201 200 201 202 202 201 202 201 200 200 202 203
205 205 204 201 208 206 207 206 205 208 208 209 211 211 212 212 214 216 218 219 221  69  67  67
 66  69  72  74  77  78  78  79  86  87  90  91 192 193 195 197 199 202 204 205 207 208 210 210
213 215 217 217 219 219 221 222 223  97  98  99 101 101 103 104 106 109 109 110 112 114 114 115
116 117 117 117 118 118 118 119 120 121 121 122 122 122 123 124 125 126 126 127 127 127 127 224
224 225 225 225 225 225 226 226 227 227 227 227 228 228 228 228 228 230 230 231 230 230 230 230
231 231 231 231 232 232 231 231 231 231 231 232 232 232 231 231 231 231 231 230 231 232 232 231
231 231 231 230 230 230 230 229 228 228 229 228 229 228 228 227 227 226 225 225 224 225 127 224
224 126 125 124 123 124 123 123 122 121 120 120 119 119 117 117 116 117 117 117 116 115 115 116
115 114 113 113 113 113 113 112 111 111 111 110 110 110 110 110 109 108 107 106 106 106 105 106
105 104 103 102 101 101 100 100  99  98  98  97  96  96  96 223 222 222 221 221 220 220 220 220
219 218 218 218 218 217 216 216 217 216 215 214 213 213 212 212 211 211 209 208 206 206 206 206
204 204 203 203 202 201 200 200
 93  92  93  92  91  95  95 192 192 192 192 193 192  95  95 192 192 194 194 194 192 193 194 194
194 194 194 195 195 197 197 197 199 199 200 200 201 201 200 201 201 201 202 202 202 202 204 205
206 205 202 201 204 208 207 205 202 210 209 211 213 212 212 212 214 217 218 218 217  67  65  65
 67  70  71  73  76  78  79  80  86  87  89  91  93  94 193 196 199 202 203 204 206 207 209 209
211 214 216 217 219 219 221 222  96  97  98  99 100 100 102 103 106 108 109 110 111 111 112 113
113 114 115 116 117 117 118 118 119 120 120 121 122 122 123 123 124 125 126 126 126 126 127 224
127 224 224 224 224 224 225 225 226 225 226 226 226 227 227 227 228 228 229 229 229 229 229 229
230 230 230 230 231 231 230 230 230 230 230 231 231 231 231 230 230 230 230 230 231 231 232 231
230 230 230 229 230 230 230 229 228 228 228 228 229 228 228 227 226 225 225 225 224 224 224 127
127 125 124 124 123 123 122 122 120 120 120 119 118 118 117 117 116 116 117 116 116 115 115 115
114 114 113 112 112 113 113 113 111 111 111 110 109 108 109 108 108 107 107 106 106 105 104 105
104 104 103 102 101 100 100 100  99  98  97  96 223  96 223 223 222 221 220 219 219 219 220 219
218 218 218 218 216 216 215 215 215 215 215 214 213 213 212 212 211 210 208 207 205 205 205 205
203 203 202 201 200 200 199 199
 93  93  94  94  95  93 192 193 193 192  95 192  95  94  95 192  95 193 194 195 193 194 194 195
194 194 195 195 195 197 197 197 197 199 200 200 200 199 200 201 201 201 201 201 203 204 206 205
205 204 204 206 206 207 208 206 203 207 209 210 211 212 211 212 215 217 218 218 214  64  64  66
 67  69  70  72  75  75  79  81  85  86  87  89  91  93  95 195 198 200 202 203 205 207 209 209
210 212 216 218 220 220 220 221 222  96  97  98  99 100 101 102 105 107 108 109 110 109 110 111
112 113 114 115 116 117 117 118 119 120 121 121 122 122 123 123 124 124 125 125 125 125 126 127
127 127 127 127 224 224 225 224 226 225 226 226 226 227 226 226 227 228 228 228 228 228 228 228
229 229 229 230 230 231 230 230 229 229 229 230 231 230 230 229 230 230 230 229 230 230 231 230
229 229 229 229 229 229 229 228 228 228 228 229 229 229 228 227 226 225 225 224 224 224 224 127
126 125 124 123 123 122 122 122 120 119 119 119 118 118 117 116 116 116 116 116 116 115 114 115
114 113 112 112 112 113 112 112 110 110 110 110 109 108 108 107 107 106 107 106 105 104 104 105
104 103 102 101 100  99  99  99  99  98  97  97 223  96 222 222 221 220 220 219 218 217 219 218
219 218 217 216 215 215 215 215 215 214 214 213 212 212 211 211 210 210 208 208 206 206 206 205
203 202 202 201 200 199 199 199
 95  93  94  95  94  92  95 195 192  91  93  94  95  95  94  94  95 192 193 193 192 193 193 194
194 196 196 195 195 196 195 196 197 198 198 199 199 199 198 200 201 200 201 200 203 203 204 204
204 203 205 204 206 206 207 206 204 206 206 207 209 212 212 212 214 216 218 219 217 220 223  65
 68  68  70  73  73  75  78  81  80  83  84  87  91  93  95 195 196 198 200 201 204 206 208 207
209 210 213 215 219 219 219 220 221 222 223  97  99  99 101 101 103 104 106 107 108 107 110 111
111 112 113 114 115 116 117 117 118 119 119 120 121 121 122 122 122 122 122 123 123 124 124 125
126 126 126 127 127 127 127 127 225 224 224 224 225 225 225 226 226 226 226 227 227 227 227 227
228 228 228 229 229 230 229 229 228 229 228 228 230 230 229 228 228 228 229 229 228 228 229 229
228 227 227 227 228 228 228 227 227 227 228 228 228 228 227 227 226 225 224 127 224 127 127 126
124 124 123 123 122 122 121 121 120 119 119 118 117 117 116 116 116 116 115 115 115 114 113 114
113 112 111 112 112 112 112 111 110 110 109 109 109 108 108 107 107 106 105 104 104 104 103 104
102 102 101 100  99  99  98  98  98  97  97  96  96 223 221 221 220 219 219 220 218 218 218 217
217 216 216 215 214 214 213 213 214 212 212 212 212 212 211 210 208 209 207 207 205 205 205 204
202 202 202 201 200 199 200 201
 94  93  93  93  90  91  94 193  95  91  93  93  95  95  94  93  95 193 194 193 192 192 192 192
192 194 195 196 195 195 194 194 196 197 197 198 198 198 199 199 200 199 200 200 201 201 202 202
203 203 203 204 204 205 206 206 205 206 207 205 211 208 210 211 212 216 216 217 219 218 220  64
 67  68  69  71  71  71  77  78  80  81  84  85  91  92  95 192 195 196 198 200 204 205 207 208
209 211 212 213 217 218 219 220 220 221 222  96  98  98 100 100 102 104 104 105 108 108 109 110
111 112 113 114 116 116 116 116 117 118 118 119 120 120 120 121 121 121 121 122 123 123 123 124
126 126 126 126 127 127 127 127 127 224 224 224 225 225 225 225 225 225 225 226 226 227 227 227
227 228 228 228 228 228 228 228 228 228 227 227 228 228 228 228 228 228 228 228 228 228 228 228
227 227 227 227 228 227 227 227 227 227 226 226 226 226 226 226 225 224 224 127 127 126 126 125
124 124 123 123 122 122 121 121 120 119 119 118 117 116 116 116 115 115 115 114 114 114 114 114
112 111 111 111 111 111 111 110 109 109 108 108 108 107 107 106 106 105 105 104 103 104 103 103
101 101 100  99  99  99  98  98  97  97  96 223 223 222 221 220 219 219 218 219 217 217 217 217
216 216 215 214 212 212 212 212 214 212 211 211 211 211 210 209 208 208 207 206 205 205 205 203
201 201 201 201 200 199 200 201
 92  93  92  93  92  91  91  91  91  94  92  94  94  92  93  93  95 192 193 193 192  95  95  95
 95 193 194 193 195 195 194 194 194 195 196 197 198 197 198 199 199 199 199 200 200 200 201 202
203 203 204 203 203 204 204 206 207 208 207 206 209 207 207 211 213 213 216 217 217 218 220 223
 67  69  70  72  69  70  75  78  79  82  84  85  88  90  93  95 194 194 196 197 201 204 206 207
208 210 211 212 216 218 219 220 220 220 221 223  97  97  99 100 101 103 104 105 107 107 109 109
110 111 112 113 115 116 116 116 116 117 117 118 119 119 120 120 120 121 121 122 122 122 122 123
125 125 125 125 126 126 126 126 126 127 127 127 225 224 225 225 225 224 224 225 226 226 226 226
227 227 227 227 227 227 227 227 228 228 227 227 227 228 227 227 227 228 228 228 228 226 227 228
227 227 227 227 227 227 226 226 226 226 225 225 225 225 225 225 224 127 224 127 127 126 126 125
123 123 123 123 122 122 121 121 119 118 118 118 116 115 115 115 115 115 114 114 113 113 113 113
111 111 111 111 110 110 110 109 109 109 109 108 107 106 107 106 104 104 104 104 103 103 102 102
101 101 101 100 100  99  98  97  96  96  96 223 223 222 221 220 219 218 218 218 217 216 216 216
216 215 214 214 212 212 212 212 213 212 211 211 211 211 209 208 208 208 207 206 205 205 204 203
202 201 201 201 199 199 198 198
 93  92  91  93  93  93  93  92  93  92  94  92  92  93  93  94  95  95  95  95 192  95  95  95
192 192 193 194 194 195 193 194 195 196 196 197 198 196 197 197 199 200 200 201 200 200 200 200
203 203 203 202 203 204 205 206 208 209 207 206 207 206 206 210 212 214 214 216 217 217 219 221
 64  66  69  70  70  70  74  78  79  81  82  84  85  88  91  94 193 193 195 198 200 203 204 206
208 210 212 213 215 216 219 220 220 220 221 222  96  97  98 100 101 102 103 104 106 107 108 108
109 110 111 112 113 114 114 115 117 117 117 118 119 119 120 121 120 120 120 121 120 120 121 122
123 123 123 124 125 125 126 126 127 127 127 127 127 127 224 224 224 127 224 225 225 226 226 225
225 225 225 226 226 226 226 226 227 227 226 226 227 227 227 227 226 227 228 228 226 225 225 226
227 227 227 227 226 226 226 226 225 225 224 224 224 224 224 224 224 127 127 126 125 125 124 123
123 123 123 123 122 121 121 120 118 116 116 116 115 115 115 115 114 114 114 113 113 113 113 112
111 111 111 111 110 110 110 109 109 109 109 108 107 106 106 105 105 104 104 103 103 103 102 101
101 100 100 100  99  98  97  96  96  96  96 223 222 222 221 220 219 219 219 218 216 216 214 214
215 214 213 213 211 211 211 211 212 211 210 210 209 209 208 208 207 207 207 207 205 205 204 203
202 201 201 200 198 197 196 195
 91  91  91  94 192  90  92  93  93  93  94  92  93  92  94  93  94  94  93  94  95  95  95  95
193 192 193 194 194 194 194 195 195 196 196 197 199 197 196 197 198 199 199 200 200 199 199 199
202 203 204 202 208 205 205 205 208 208 206 205 206 206 207 210 212 213 213 215 217 217 219 221
220  65  68  69  71  73  74  77  79  80  81  83  85  86  90  93 192 192 195 198 201 203 204 207
209 210 211 212 214 215 218 219 220 218 221 222  96  97  98  99 100 101 102 103 104 105 106 107
108 110 110 111 112 113 114 115 116 116 116 116 118 118 119 120 120 120 120 121 120 120 121 121
122 122 122 123 124 125 125 125 127 126 126 126 126 126 127 127 127 127 127 224 224 225 225 224
224 224 224 225 226 226 225 226 226 226 225 225 226 226 226 226 226 226 227 227 226 225 225 226
226 226 225 226 226 226 226 226 224 224 224 224 224 224 127 224 224 127 126 125 124 124 123 123
123 122 123 122 121 120 120 120 118 116 116 116 115 115 115 115 113 113 113 112 112 112 112 111
111 110 110 110 110 110 109 108 108 108 108 108 106 106 105 104 104 103 103 102 102 102 101 100
100 100 100 100  98  98  97  96 223 223 223 223 223 222 221 220 218 218 218 217 215 215 214 214
214 213 212 212 211 211 210 211 211 211 210 209 208 208 207 207 207 207 206 206 205 205 203 202
201 200 200 200 199 198 196 196
 90  90  92  94  95  87  92  93  94  93  93  93  94  93  94  94  94  94  93  94  94  95  95 193
192 194 193 195 196 197 196 197 196 196 196 198 199 198 197 197 199 199 200 200 200 199 199 200
202 203 202 201 209 207 204 205 207 207 206 206 207 207 207 210 211 213 212 214 217 218 218 220
219  66  66  68  71  73  74  75  76  78  78  81  84  86  90  91  93  95 195 197 199 202 204 206
208 209 211 211 213 214 216 217 217 219 219 220 223 222  97  98 100 100 101 102 103 103 104 105
107 108 108 109 110 112 113 114 115 114 114 115 116 117 117 118 118 118 119 119 119 119 119 120
120 121 121 122 123 124 124 125 125 125 125 124 125 125 126 126 127 127 127 127 127 127 127 127
127 127 224 224 226 225 225 225 224 225 224 224 224 225 226 225 224 225 225 226 225 225 225 226
225 225 224 225 225 225 225 225 224 224 127 224 127 127 127 127 127 126 126 125 124 123 123 123
123 122 121 120 120 119 119 119 118 116 116 115 114 114 114 114 113 113 113 112 112 111 111 111
110 109 108 109 109 109 108 108 106 106 105 105 105 104 105 104 104 103 103 102 101 101 101 100
 98  98  98  99  98  97  96  96 223 222 222 222 221 221 220 219 219 218 218 217 215 215 214 214
213 212 211 211 210 210 210 210 210 210 209 208 207 207 207 206 206 206 206 205 204 204 203 202
201 200 201 200 198 197 198 199
 89  91  93  90  90  92  91  92  92  92  94  93  93  92  90  95  95  93  93  94  94  95  93  93
192 192 192 193 197 197 195 193 194 193 194 196 197 197 197 196 196 196 197 197 197 198 199 200
201 202 202 203 205 205 204 203 206 204 206 205 207 207 207 211 211 213 212 214 214 214 218 221
220 223  65  67  70  71  73  74  75  77  77  78  84  84  87  88  90  93 194 197 199 202 204 205
206 207 209 209 212 213 216 216 217 218 219 219 221 222  96  97  99 100 100 101 101 102 103 104
105 107 107 108 110 111 112 113 113 113 113 114 116 117 117 116 117 117 118 119 119 119 120 120
120 120 120 121 123 123 123 123 124 124 123 123 124 124 125 125 126 126 126 126 125 126 127 126
127 127 127 224 225 224 224 224 127 224 224 224 225 225 225 225 225 225 225 225 225 225 225 225
224 224 224 224 224 224 224 225 127 127 127 224 127 126 126 126 125 124 125 124 124 123 123 123
123 121 120 119 119 119 118 118 117 117 116 116 114 113 112 113 113 111 111 111 112 111 110 110
110 109 109 109 108 108 107 108 106 105 105 104 104 103 104 103 103 102 102 101 101 101 100 100
 98  98  97  97  96  96  96 223 222 221 221 221 221 220 219 218 216 216 216 215 215 214 213 213
212 212 211 211 210 210 210 210 209 208 208 207 207 207 206 205 205 205 205 204 203 203 202 201
200 200 199 198 198 197 197 198
 86  90  92  91  90  91  92  93  92  91  93  92  93  92  89 193  95  94  94  94  93  94  94  93
 94 192 193 193 194 195 194  94 193 194 194 195 195 197 196 195 196 196 195 195 198 198 200 201
201 201 200 201 202 203 202 202 202 205 205 205 207 208 208 210 210 212 212 213 214 214 217 222
220 222  64  67  70  70  72  73  74  75  77  78  83  85  87  87  89  91 192 196 198 201 202 203
205 207 208 208 210 212 214 215 217 217 218 219 221 221 223  96  98  99  99 100 101 102 103 104
105 105 107 108 109 110 111 111 112 113 112 113 115 115 115 116 116 116 117 118 118 119 119 119
119 120 120 121 121 121 122 123 123 123 123 123 124 123 124 124 125 125 125 125 125 125 125 125
127 127 127 127 127 127 127 127 127 127 224 224 225 225 225 224 225 225 225 224 224 224 224 224
224 127 127 127 126 127 224 127 127 127 127 127 126 125 125 126 125 123 124 123 123 123 123 123
122 121 120 119 118 118 118 118 117 116 116 115 113 112 112 112 111 110 111 111 111 111 110 110
110 109 109 109 108 108 106 107 105 105 104 105 104 104 103 102 102 102 102 101 100 100 100  99
 98  98  97  96 223 223 223 223 222 221 220 220 220 219 218 217 216 216 215 214 214 213 212 212
211 211 210 209 209 209 209 209 208 207 207 207 207 207 206 205 204 204 204 204 203 203 201 201
200 200 198 197 197 197 197 197
 91  89  91  90  90  91  93  92  92  91  93  93  92  91  91  95  95  93  94  94  95  95  95  94
 95 192 193 193 194 196 194  95 192 193 194 195 195 196 197 196 197 196 195 195 197 199 200 201
200 200 199 200 200 203 202 202 203 205 206 206 206 207 208 209 209 211 211 212 213 214 217 221
221 222 222  66  69  69  71  72  73  76  77  78  80  85  87  87  90  91  95 195 198 200 202 202
204 205 207 207 210 211 214 215 216 217 218 218 221 222 223 223  97  98  99  99 101 102 103 104
104 104 106 107 108 109 110 110 112 112 111 113 114 114 114 115 116 117 117 117 118 118 118 119
119 120 120 120 120 120 121 122 122 122 122 122 123 122 123 124 125 125 125 125 124 124 124 125
126 126 127 127 126 126 126 126 126 127 224 224 224 224 224 224 224 224 224 224 224 224 224 224
127 127 127 127 126 126 127 126 127 127 127 126 125 124 124 125 125 124 123 123 122 122 123 122
121 120 120 119 117 117 117 117 116 116 115 115 114 112 111 111 110 109 110 111 111 110 110 110
110 109 109 108 107 107 106 106 105 105 104 104 103 103 103 102 103 102 102 101 100 100  99  99
 98  98  97  96 223 223 222 222 222 221 220 220 219 218 217 216 216 215 214 213 213 213 212 212
211 210 210 209 208 208 208 208 207 207 207 207 207 207 205 204 203 203 203 203 203 202 199 200
199 199 198 197 196 197 197 196
 93  92  90  90  90  89 192  93  91 192  95  93  92  92  93  94  93  95  94  93  94  95  95 192
 95 192 193 193 194 194 194 193 192 193 193 194 195 196 196 196 197 197 197 197 197 200 200 199
198 201 201 200 199 201 203 203 203 204 204 204 204 205 208 207 208 209 211 210 212 215 217 220
221 222 223  65  68  68  70  71  74  77  75  74  78  84  87  88  91  91  95 194 196 197 201 202
203 204 205 206 209 211 213 213 215 217 218 219 222 222 223 223  96  97  97  97  99 101 103 105
105 104 104 105 108 108 109 110 111 111 111 111 113 113 113 113 114 115 114 114 116 116 117 116
118 119 119 119 120 120 120 120 121 122 122 122 122 122 122 123 125 125 124 124 123 124 124 124
124 125 125 125 125 125 125 125 125 125 126 127 224 224 127 127 127 127 127 126 125 125 126 127
126 126 126 126 125 125 125 125 126 126 126 125 125 125 125 125 124 123 122 121 122 122 121 120
120 120 119 118 116 117 117 116 115 114 114 113 113 112 112 111 109 109 110 111 110 109 108 107
107 107 108 108 107 107 105 104 104 103 104 104 103 103 102 101 101 101 101 100 100  99  98  98
 97  97  97  96 223 223 221 222 221 220 219 219 218 217 217 217 216 215 214 214 213 212 212 212
211 210 209 208 207 207 207 206 206 207 206 206 206 206 204 203 203 203 203 203 201 201 201 200
199 198 197 197 196 196 196 197
 91  91  90  90  88  87  94  92  90  95  94  93  92  91  93  94  94  94  93  93  93  93  95 192
 95 192 193 193 194 194 194 193 193 193 194 195 195 195 196 197 198 198 199 197 198 198 198 197
197 201 201 202 201 203 202 203 204 204 204 204 205 206 205 206 207 208 210 213 214 214 217 219
219 221 222  64  65  67  69  71  73  77  75  74  74  83  86  88  88  93  95 193 195 196 201 202
203 204 205 206 210 211 213 214 214 215 218 219 221 222 223 223 223  96  96  97  98 101 103 103
103 104 104 105 107 108 109 109 110 110 110 111 112 112 113 113 114 114 114 113 115 115 116 116
117 118 118 118 119 119 119 119 121 122 122 121 122 122 122 123 125 125 125 124 123 123 123 123
123 124 124 125 125 125 125 125 125 125 126 127 127 224 127 126 125 125 125 125 125 125 126 126
126 126 126 126 125 125 125 124 125 125 125 125 124 124 124 123 123 122 122 121 122 121 121 120
120 119 119 118 117 117 117 117 115 114 113 112 112 112 111 110 109 109 109 110 108 108 107 107
106 106 107 107 107 106 105 104 104 103 104 103 103 102 101 101 101 101 101 100  99  99  98  98
 97  96  96  96 223 223 221 221 220 220 219 218 217 217 216 216 215 215 215 214 212 212 212 211
210 210 210 209 207 207 207 206 206 206 206 205 205 205 203 203 203 203 203 202 201 201 200 200
198 197 197 197 196 196 195 195
 88  90  91  91  90  90  90  90  89  95  93  91  91  92  93  94  94  94  94  94  93  93  94  95
 95  95  95 192 193 194 194 194 195 195 195 195 194 194 195 196 196 198 197 197 197 197 198 197
198 200 201 202 202 202 202 201 203 202 203 204 205 206 206 206 207 208 209 211 214 214 216 217
218 221 223  64  65  67  69  71  73  74  75  76  75  82  83  85  82 192  95  95 193 195 199 201
203 204 206 207 209 210 212 213 214 215 217 218 221 221 222 223 223  96  97  97  98 100 101 102
103 104 104 104 105 106 107 107 109 110 110 111 111 111 112 112 112 112 113 113 115 115 116 115
116 116 117 118 119 119 119 119 120 121 121 120 121 121 122 122 123 123 123 123 123 123 122 123
123 123 123 124 125 125 125 125 125 124 125 126 127 127 126 126 125 126 125 125 124 124 124 125
125 125 125 126 124 124 124 124 123 124 124 124 124 123 123 122 122 121 121 121 121 120 120 119
118 118 118 117 117 116 116 116 114 113 112 112 111 111 111 110 109 109 109 109 108 107 107 106
106 106 106 106 106 105 105 104 102 102 102 103 102 101 100 100 100 100  99  99  99  98  98  97
 96  96  96 223 223 223 221 221 219 219 218 217 217 217 216 216 215 215 215 213 212 212 210 210
210 209 209 208 207 207 207 207 206 206 206 205 204 204 203 203 203 203 203 202 200 200 200 199
198 197 198 198 195 195 194 194
 92  92  91  89  94  90  89  89  87  90  91  92  92  92  92  93  94  95  94  95  94  93  94  95
 95  95  95  95  95 194 194 194 195 195 196 194 193 193 194 196 198 197 198 198 197 198 197 200
202 198 200 200 201 201 200 199 201 204 204 205 205 205 206 206 207 208 209 209 212 213 216 218
219 221 222 223  64  66  68  70  72  75  76  77  77  78  81  83  82  90  92  95 193 196 197 200
202 202 205 206 209 209 211 212 213 215 216 218 220 220 221 222 222  96  97  98  99 101 100 100
101 103 103 103 105 105 106 106 107 109 109 110 110 110 111 111 112 112 113 113 114 114 114 114
115 115 116 117 118 118 118 119 119 120 120 120 121 121 121 122 123 123 123 123 122 123 122 123
123 123 123 124 124 124 124 124 124 124 124 125 125 125 125 124 125 125 125 124 124 124 124 124
124 124 125 125 124 124 124 123 123 124 124 123 123 121 121 122 121 121 121 121 120 120 119 118
117 117 117 117 116 115 115 115 114 113 113 113 111 111 110 110 109 108 108 108 107 106 106 105
106 106 106 106 105 105 104 104 102 102 103 103 102 101 100 100 100  99  99  98  98  98  97  97
 96  96  96 223 223 223 222 221 219 218 217 216 216 216 215 214 215 214 214 212 211 211 210 210
210 209 209 208 207 207 207 207 206 206 205 205 203 203 202 202 202 202 201 201 200 200 199 198
197 197 197 198 195 195 194 194
 93  91  91  93  92  90  90  90  90  90  91  91  94  91  93  93  94  95  95  95  94  94  94  95
 94  95  95  95  95 194 195 195 195 195 195 194 195 194 193 196 197 198 198 198 199 200 198 202
203 200 197 198 200 201 201 200 201 204 205 205 204 204 206 205 206 208 209 210 212 213 215 216
219 221 221 222 223  65  67  70  71  73  75  77  78  76  80  82  83  87  90  95 193 194 196 198
201 200 202 205 208 208 210 211 212 214 215 217 219 219 220 221 221 223  96  97  98 100  99  99
100 102 103 103 104 104 105 105 106 107 108 109 110 109 110 110 111 112 113 112 113 113 113 113
115 115 115 116 117 117 117 118 118 119 119 120 120 120 120 121 122 122 122 122 121 122 121 122
122 123 123 123 123 123 123 123 124 124 123 124 124 124 124 123 124 124 124 123 123 124 124 124
123 123 124 124 124 124 123 123 122 123 123 123 122 122 122 121 121 120 120 120 120 119 118 117
116 116 116 116 115 114 114 114 114 113 113 112 110 110 109 109 108 108 108 107 107 106 106 105
105 105 105 105 104 104 103 103 102 102 102 103 101 100 100  99  99  99  98  97  98  97  97  96
223 223 223 223 222 222 221 220 220 219 218 217 216 216 215 214 214 214 213 212 211 211 210 209
209 209 208 207 207 206 206 206 205 205 204 204 202 202 202 202 201 201 201 201 200 199 198 197
196 196 196 196 195 195 194 195
 91  91  91  93  92  92  93  92  91  91  92  93  95  90  92  93  94  95  94  95 192 192  95  94
192 192 192  94  95 193 194 194 195 195 196 196 197 196 194 195 196 198 198 199 198 198 198 200
203 200 197 200 200 199 200 202 203 204 205 205 205 205 206 205 206 207 208 211 214 212 214 213
217 217 218 220 222  64  66  67  71  71  73  76  74  77  79  83  84  84  88  92  95 192 197 198
199 198 200 202 205 206 209 210 211 213 214 215 218 219 220 219 220 221 223  96  96  98  98  99
100 100 101 101 102 101 102 103 105 106 107 108 110 109 109 109 110 110 111 111 111 112 113 113
114 114 114 114 116 115 116 116 117 118 118 119 119 119 119 120 120 120 120 120 121 121 121 121
121 121 121 122 122 122 122 122 123 123 123 123 123 124 123 123 122 123 123 122 123 123 124 123
123 122 122 123 123 123 122 122 122 123 122 122 122 122 121 121 120 119 120 119 118 118 117 116
116 115 116 116 115 115 114 114 113 112 112 111 110 109 109 108 107 107 106 106 106 105 105 105
105 105 105 104 103 103 102 101 101 101 102 101 100  99  99  99  98  98  98  97  97  97  96 223
222 222 222 221 221 220 219 219 218 217 217 216 215 215 214 214 213 212 212 212 210 210 209 208
209 208 207 206 206 205 205 205 204 204 203 202 201 201 201 201 200 200 200 199 199 198 198 197
197 196 195 195 195 195 194 194
 90  91  91  92  92  92  91  91  90  89  92  94  93  92  93  92  93  92  92  92 192 192 192  95
 95 193 192  95  95 192 193 193 194 195 196 197 196 193 194 194 195 194 196 197 196 196 197 198
199 200 199 198 200 200 201 202 203 203 204 203 204 204 205 205 205 205 206 210 213 212 212 212
214 216 217 218 221 223  65  67  67  73  72  71  76  76  79  81  83  84  87  90  93  95 197 196
197 198 199 201 205 206 209 208 211 212 214 215 217 218 219 218 220 220 222 222  96  96  96  98
 99 100 101 101 101 101 102 103 104 105 106 107 108 109 109 108 110 110 111 110 112 112 112 113
113 113 113 114 115 115 116 116 117 117 118 118 119 119 119 119 119 118 118 118 120 120 120 120
120 120 120 121 121 121 121 122 123 122 122 122 123 123 123 122 122 122 122 122 123 123 123 122
122 121 122 122 122 122 122 122 122 122 122 122 122 122 121 120 119 118 118 118 117 117 116 116
116 116 116 116 115 115 114 113 112 111 111 110 109 109 108 108 106 106 106 105 104 105 105 104
104 104 104 103 102 102 101 100 100 100 101 100  99  99  99  99  98  97  97  97  97  96  96 223
222 221 221 221 220 220 219 218 218 217 216 215 215 215 214 214 213 211 211 211 210 209 209 208
208 207 205 205 204 203 205 204 205 203 203 202 201 201 201 201 200 200 199 199 199 198 198 197
197 197 196 196 194 195 194 193
 89  91  92  93  92  93  90  90  90  90  89  91  91  91  91  92  92  90  91  91  94  95  95 192
 95 193 193  95  95  95  95  95 193 194 195 196 195 193 193 194 195 196 194 194 196 196 195 198
200 200 198 196 198 201 201 202 203 203 203 203 203 202 203 206 204 206 206 208 210 210 211 211
214 215 217 219 221 223  64  66  68  73  72  73  74  76  78  80  80  82  84  87  89  90 193 195
197 198 199 201 204 205 208 207 208 211 213 213 215 216 218 218 219 220 221 221 223 223  96  97
 99 100 100 101 101 101 101 103 104 105 105 106 107 108 108 108 109 109 110 110 109 110 110 112
113 113 112 113 114 114 114 115 115 116 117 117 117 117 117 117 118 118 118 118 119 119 120 120
119 119 120 120 121 121 121 121 122 121 122 122 123 123 123 122 122 122 122 121 122 122 122 122
122 121 121 121 122 122 122 122 121 122 122 122 121 121 120 119 118 118 118 117 116 116 116 116
116 116 116 115 115 115 113 112 111 111 110 110 109 109 108 107 106 106 105 105 104 105 104 104
103 103 103 102 102 101 100 100 100  99  99  99  99  99  99  99  98  97  97  96  96  96  96 223
222 221 220 220 219 219 219 218 216 215 214 213 213 213 214 213 212 211 211 210 209 208 208 207
207 206 204 204 203 203 204 204 204 203 203 202 201 201 201 199 199 199 199 199 198 198 198 197
196 196 196 195 193 194 193 194
 93  92  92  93  92  93  91  90  89  89  89  92  91  92  92  92  91  90  91  91  94  94  95 192
192 192 192 192  95  95  95  95 193 194 194 195 194 194 194 195 195 194 195 194 196 196 196 198
200 200 198 197 199 200 201 203 203 204 202 202 202 203 202 204 206 206 206 207 209 209 210 210
213 214 216 217 222 223  64  68  70  72  73  74  73  74  77  79  79  81  84  85  88  88  95 193
196 197 199 201 204 205 207 207 209 211 213 213 213 214 217 218 219 220 220 221 222 222  96  97
 99  99 100 101 101 101 101 102 104 105 105 106 106 106 106 107 107 108 109 109 108 108 109 111
112 112 112 112 113 113 113 114 115 115 115 116 115 115 116 116 118 118 118 118 119 119 119 119
119 119 119 119 120 121 121 121 122 121 122 122 123 123 123 122 122 121 121 121 122 121 121 121
121 121 121 120 120 121 121 120 121 121 122 122 120 120 119 118 118 117 117 117 116 116 116 116
116 116 116 115 114 114 113 112 110 110 109 108 108 108 107 107 105 106 105 105 103 105 104 103
103 102 102 102 101 100  99  99  99  99  99  99  99  99  99  99  98  96  96  96 223 223 223 222
222 221 220 219 218 218 218 218 216 216 214 213 214 214 214 212 211 210 210 209 209 208 208 207
207 206 205 204 203 203 203 203 203 202 202 201 201 201 200 200 200 200 200 199 197 197 198 197
195 195 195 194 193 193 193 194
 94  93  93  93  92  93  91  90  90  88  90  92  92  92  92  92  92  90  91  91  94  94  94  95
192  95 192 192  94  94  95  95 193 194 193 194 193 193 194 195 196 196 194 195 196 196 196 198
200 200 199 198 199 201 201 202 202 204 203 202 203 203 203 202 207 206 206 206 208 208 209 209
215 214 215 216 221 222  65  68  71  72  73  74  73  71  78  80  79  80  83  84  86  89  94 192
195 196 198 200 204 206 207 207 209 210 212 212 212 213 216 217 218 219 219 220 221 222 223  96
 98  99  99 100 101 101 102 103 104 105 104 105 105 105 105 106 106 106 106 107 107 107 109 110
112 112 112 112 113 113 113 113 114 114 114 115 114 114 115 116 117 117 118 118 118 118 118 118
119 119 119 119 120 120 120 120 121 121 121 121 123 122 122 122 121 120 120 121 121 121 121 120
121 120 121 120 119 120 120 119 120 120 121 121 120 119 118 118 117 116 116 116 115 115 115 115
115 115 115 115 113 113 112 111 109 109 108 107 107 107 107 106 105 105 105 105 104 104 103 103
102 101 101 101 100 100  99  99  98  98  99  99  99  98  98  98  97 223 223 223 222 222 222 221
222 221 220 220 219 219 219 218 217 216 214 213 214 214 213 211 210 209 210 209 208 208 208 207
207 206 204 203 203 203 203 202 202 201 201 200 201 202 201 200 199 199 198 199 197 197 197 196
195 195 194 194 192 193 193 193
 92  93  93  92  93  93  92  92  91  89  90  91  93  92  92  92  92  93  93  93  95  95  94  94
 95  94  93  93  95 192 192 193 193 193 192 193 194 195 196 196 195 196 195 196 197 198 195 197
198 197 197 199 200 201 200 200 202 202 202 201 200 200 201 203 205 206 206 207 206 207 207 206
211 212 213 214 218 221  64  66  68  70  71  70  69  75  78  77  77  78  82  84  86  90  94 192
194 196 199 201 203 205 206 208 208 210 211 212 212 213 215 216 216 219 219 220 222 221 221 223
 98  98  99 100 100 100 101 101 103 103 104 104 103 103 104 105 105 105 105 106 107 108 109 110
109 109 109 110 110 111 111 110 111 112 112 113 113 113 115 115 116 116 116 116 117 117 117 118
118 119 119 119 119 119 119 119 120 120 120 120 120 121 120 120 121 121 120 120 120 120 120 119
120 120 120 119 118 119 118 118 119 119 120 120 118 118 117 117 115 115 115 115 115 115 114 114
114 113 113 113 112 112 111 110 109 109 108 108 107 107 106 105 105 105 104 104 104 103 103 102
101 101 101 100  99  99  99  98  97  97  98  98  97  97  96 223 223 223 223 222 221 221 221 220
220 221 220 219 219 219 218 218 216 215 214 213 213 213 212 210 210 209 209 209 207 207 207 207
205 205 204 203 203 202 201 201 200 200 199 199 200 200 200 200 200 199 197 197 196 196 196 195
194 194 193 194 192 192 192 194
 91  91  91  92  92  92  93  93  92  89  90  90  90  90  91  91  93  92  92  93  94  94  94  94
 95  93  92  94  95 192 192 193 192  95 192 192 193 194 195 196 195 194 193 195 197 197 194 196
197 196 197 198 198 197 198 199 201 201 200 201 201 200 201 203 205 205 205 206 206 206 207 207
210 212 213 213 217 219 222  65  67  68  68  69  69  73  75  76  76  78  81  83  85  90  93  94
192 194 198 200 203 203 203 203 205 209 211 212 212 213 214 215 215 217 218 220 221 221 220 222
 97  98  98  99  99 100 101 101 102 102 103 103 102 103 104 105 104 105 105 105 107 108 109 110
108 108 108 109 110 110 110 109 111 111 112 113 113 113 114 114 116 116 115 115 115 116 117 117
118 118 118 118 118 118 119 119 119 119 119 119 120 120 119 120 121 121 120 120 119 119 119 118
119 119 119 119 118 119 118 118 119 119 119 119 117 117 117 116 115 115 115 114 114 114 114 114
113 112 112 112 111 111 110 110 109 109 108 108 107 107 105 105 105 105 104 103 103 103 102 101
101 101 101 100  98  98  99  98  98  97  97  97  96 223 223 222 221 222 222 221 221 220 220 220
220 220 220 219 220 219 218 218 215 214 213 212 212 212 212 211 210 209 209 208 207 207 206 206
205 204 204 203 202 202 201 201 198 200 199 199 200 199 199 198 199 198 196 197 196 195 195 195
194 194 193 194 194 194 192  95
 89  90  90  91  90  92  92  92  90  90  92  92  92  91  91  92  92  93  92  92  93  93  94  94
 95  93  93  93  95  95  95 192 192 192 192 192 193 194 195 195 194 194 193 194 195 196 194 196
196 198 199 198 198 198 198 199 201 201 200 200 199 199 201 202 203 205 205 206 206 207 208 208
210 213 214 215 217 219 222  64  65  68  68  70  71  71  73  74  75  78  80  82  85  89  91  92
 93 193 196 200 202 202 202 203 205 209 209 210 212 213 213 214 215 217 217 219 220 220 221 222
 96  97  97  98  98  99  99 100 102 102 102 102 103 104 104 103 104 104 105 106 107 107 107 108
107 107 108 108 109 109 109 109 110 110 110 111 112 113 114 114 114 114 115 114 115 115 116 116
117 117 118 117 117 116 118 118 118 118 118 119 119 119 119 120 120 119 119 118 118 118 118 118
117 118 118 118 118 118 117 117 118 118 118 118 116 117 117 116 115 114 114 114 114 114 114 114
112 112 111 111 110 110 109 108 109 108 108 107 106 106 105 105 104 104 103 102 102 102 101 101
100 100 100  99  98  98  98  98  97  96  96 223 223 222 222 221 221 222 222 221 220 221 221 220
219 219 218 218 219 218 218 217 214 213 213 213 213 213 211 211 210 210 209 208 206 206 205 205
204 203 203 202 201 201 201 200 199 199 199 199 199 198 198 197 197 197 196 195 194 194 194 195
194 193 193 194 193 193 192 192
 92  91  90  91  90  92  91  92  89  90  92  93  92  92  91  92  92  92  92  93  92  93  94  94
 95  94  94  95  93  94  95  95  95 194 193 192 193 194 194 194 195 195 194 195 196 196 195 197
200 200 199 200 202 200 199 200 201 201 201 200 200 200 202 203 203 204 205 206 205 207 208 209
211 212 213 215 216 219 221 223  66  68  69  70  72  72  73  74  75  78  81  83  86  87  90  91
 94  95 195 199 201 202 202 202 205 207 208 209 211 212 212 213 215 217 218 219 219 220 221 222
223  96  96  97  98  98  98  99 101 101 101 101 103 103 103 103 103 103 104 105 106 107 107 107
106 106 107 108 109 108 108 109 109 110 110 111 112 112 113 113 114 114 114 113 115 115 116 116
116 117 117 117 117 116 117 118 118 118 119 119 119 119 119 119 119 119 119 118 118 118 118 118
118 118 117 118 118 118 117 117 118 117 117 117 116 116 116 115 115 114 114 113 113 113 112 113
113 112 111 111 109 109 109 109 109 109 108 106 105 106 105 105 104 104 103 102 101 101 101 101
100 100 100  99  97  97  97  97  97  97  96 223 223 222 222 221 221 222 222 221 220 221 221 220
219 219 218 217 217 217 218 216 214 213 212 212 212 212 211 211 210 210 209 208 206 206 205 205
204 204 203 202 200 200 201 200 200 200 199 199 199 198 197 196 196 196 196 195 194 194 194 194
193 193 193 193 193 192 192  95
 93  91  90  91  91  90  91  91  90  91  94  95  95  94  92  90  91  91  93  95  94  95  95  95
 95  93  94  94  95  95  95 192 192 193 193 194 193 193 195 195 194 194 194 194 196 197 197 198
192 194 198 202 203 199 200 201 201 201 203 201 202 202 203 204 204 203 206 206 207 206 209 209
214 212 213 213 215 218 220 221  67  67  68  69  70  73  73  71  76  76  79  81  85  87  91  93
 94  94 194 199 200 200 201 202 204 206 207 208 210 210 212 213 215 215 217 218 219 220 221 222
222 223 223  96  97  97  97  98 100 100 100 100 102 102 102 102 102 102 103 104 105 105 105 105
105 106 106 107 107 107 106 107 107 108 109 110 110 111 111 111 111 112 112 112 113 113 115 115
117 116 116 116 115 115 116 117 118 118 119 119 119 119 118 119 119 118 118 118 118 117 117 117
117 117 117 117 117 117 116 116 116 115 116 116 115 115 115 115 114 114 113 113 112 112 111 111
111 110 109 110 109 109 109 108 108 108 107 106 105 104 105 105 104 103 102 101 100 100 100 100
100  99  98  98  97  98  97  97  96  96 223 223 223 222 222 221 221 221 221 220 220 220 219 219
218 218 217 217 216 216 217 215 214 212 212 211 211 212 212 211 209 209 208 208 207 207 206 205
204 204 202 201 201 200 200 199 199 199 199 198 198 197 196 195 195 195 196 195 195 195 193 193
193 193 193 192 192 192  94  94
 87  89  90  90  89  90  90  91  91  91  92  93  93  93  91  90  90  91  93  94  93  94  94  95
 93  93  92  92  94  94  95 192 193 193 193 193 192 195 195 195 193 193 194 194 196 196 196 197
195 196 198 201 203 199 201 201 200 202 201 201 203 202 202 203 205 204 206 206 206 206 208 205
209 211 212 214 215 217 218 218 223  64  64  65  69  72  72  70  75  77  79  82  84  86  93  93
 93  94 192 196 198 199 200 201 203 204 206 207 209 210 211 212 214 214 215 216 218 218 219 220
221 222 223  96  97  97  97  97  99  99 100 100  99  99 101 101 101 102 102 103 103 104 105 105
104 105 105 106 107 106 106 106 106 107 108 109 110 110 109 109 110 111 112 112 113 113 115 115
115 116 116 115 115 114 115 116 117 117 117 118 118 118 117 118 118 118 118 117 117 117 117 117
116 116 116 116 116 117 116 116 115 115 115 114 114 115 114 114 113 113 113 113 112 111 110 110
110 109 109 109 109 109 108 108 108 108 107 106 105 104 104 104 103 102 102 101 100 100 100  99
100  99  98  98  97  97  96  96 223 223 223 222 221 221 221 221 220 219 219 219 219 219 218 218
217 216 217 216 216 215 215 214 213 212 211 211 210 209 210 209 209 208 207 208 206 206 205 205
204 204 202 201 201 200 200 199 199 198 199 198 197 197 195 195 195 195 194 195 195 195 193 192
 95 193 193 192  95  94  94 192
